luts/RED_709_C4R4.cube
# RED Digital Cinema Output Transform LUT for IPP2
# LUT Name = RWG_Log3G10 to REC709_BT1886 with NO_CONTRAST and R_4_VerySoft size_33 v1.13
# Generated by version 1.13
# Settings used in creation of this LUT are:
# Development Color Space = REC709
# Output Gamma Curve = BT1886
# Output Tonemap = NO_CONTRAST
# Highlight Rolloff = Rolloff 4 - very soft
# Resolution = 33 x 33 x 33
TITLE "RED IPP2 LUT to map REDWideGamutRGB/Log3G10 to REC709/BT1886/NO_CONTRAST/Rolloff 4 - very soft"
LUT_3D_SIZE 9
0.000000 0.000000 0.000000
0.188065 0.003505 0.003505
0.413455 0.007747 0.011917
0.622587 0.033147 0.048466
0.808148 0.082541 0.117010
0.941112 0.187741 0.269991
1.000001 0.458022 0.531823
1.000001 0.710426 0.747399
1.000001 0.875360 0.892442
0.003505 0.180021 0.003505
0.135075 0.161329 0.003505
0.401704 0.117431 0.005121
0.627172 0.089804 0.037421
0.818066 0.120450 0.113688
0.949115 0.224747 0.285560
1.000001 0.490680 0.552992
1.000001 0.730067 0.763781
1.000001 0.886811 0.902534
0.003505 0.402557 0.003663
0.004092 0.393404 0.003505
0.335742 0.373032 0.003505
0.608714 0.328490 0.018448
0.817554 0.277624 0.095573
0.953268 0.319950 0.284291
1.000001 0.527896 0.568442
1.000001 0.747706 0.777244
1.000001 0.896518 0.910964
0.003663 0.596002 0.006823
0.004021 0.591526 0.006587
0.051721 0.582180 0.005969
0.522292 0.562262 0.005285
0.789425 0.517206 0.058302
0.946623 0.487950 0.238171
1.000001 0.579263 0.565698
1.000001 0.760934 0.782615
1.000001 0.902154 0.915348
0.004752 0.756194 0.030439
0.005399 0.753885 0.029852
0.013213 0.749846 0.028389
0.257923 0.740951 0.025429
0.684950 0.722896 0.025012
0.917637 0.681611 0.156405
1.000001 0.675225 0.526275
1.000001 0.777244 0.774991
1.000001 0.903556 0.914246
0.015859 0.875166 0.105478
0.017036 0.873876 0.104034
0.022883 0.872104 0.101885
0.065244 0.868678 0.097638
0.498437 0.860962 0.091696
0.813981 0.846124 0.105243
0.992089 0.812404 0.436160
1.000001 0.822580 0.746994
1.000001 0.905827 0.906948
0.072659 0.953700 0.367312
0.072988 0.952975 0.363487
0.077155 0.952131 0.359171
0.100941 0.950871 0.353291
0.285703 0.948226 0.343440
0.688313 0.942198 0.336143
0.906605 0.931138 0.394340
1.000001 0.906363 0.690419
1.000001 0.923372 0.889573
0.349807 0.999890 0.637285
0.345520 0.999508 0.634900
0.345357 0.999098 0.632400
0.363578 0.998600 0.629642
0.439707 0.997792 0.626128
0.615645 0.995960 0.620897
0.827415 0.991742 0.618359
0.967296 0.984247 0.652181
1.000001 0.967966 0.854965
0.694376 1.000001 0.809152
0.691982 1.000001 0.807631
0.689843 1.000001 0.806061
0.689196 1.000001 0.804424
0.694779 1.000001 0.802642
0.722765 1.000001 0.800444
0.803293 1.000001 0.797387
0.921353 1.000001 0.796518
1.000001 1.000001 0.817460
0.003505 0.003505 0.152696
0.183178 0.003505 0.152647
0.412574 0.005214 0.138499
0.622499 0.026555 0.127365
0.808372 0.076967 0.164895
0.941422 0.184241 0.302624
1.000001 0.457901 0.538123
1.000001 0.711281 0.748961
1.000001 0.876005 0.893103
0.003505 0.141940 0.132763
0.124363 0.124365 0.124374
0.399679 0.068944 0.093420
0.626162 0.073007 0.101701
0.817645 0.112318 0.157956
0.949036 0.219899 0.315701
1.000001 0.489606 0.557766
1.000001 0.730142 0.764557
1.000001 0.886976 0.902756
0.003505 0.387519 0.013580
0.003825 0.382419 0.010416
0.332543 0.360249 0.009089
0.607538 0.314821 0.051921
0.817128 0.265663 0.128741
0.953207 0.314618 0.311508
1.000001 0.527115 0.572514
1.000001 0.747826 0.777934
1.000001 0.896694 0.911183
0.003505 0.589674 0.015672
0.003917 0.588539 0.014583
0.048105 0.578799 0.013527
0.521772 0.558467 0.011597
0.788964 0.513553 0.077748
0.946542 0.485641 0.259933
1.000001 0.578735 0.569526
1.000001 0.761074 0.783269
1.000001 0.902338 0.915568
0.004662 0.753347 0.038060
0.005326 0.753535 0.037584
0.012815 0.749396 0.036451
0.255591 0.740383 0.033424
0.685279 0.722229 0.033307
0.917556 0.681084 0.169537
1.000001 0.675074 0.530439
1.000001 0.777386 0.775656
1.000001 0.903739 0.914470
0.015456 0.873722 0.110718
0.017031 0.874134 0.110970
0.022827 0.872339 0.109136
0.064950 0.868890 0.105107
0.498325 0.861147 0.099212
0.814438 0.846292 0.114006
0.992095 0.812620 0.441421
1.000001 0.822777 0.747718
1.000001 0.906002 0.907179
0.071337 0.952926 0.367671
0.073449 0.953245 0.369369
0.077585 0.952396 0.365348
0.101339 0.951133 0.359841
0.286161 0.948486 0.350480
0.688646 0.942458 0.343473
0.906967 0.931401 0.400084
1.000001 0.906633 0.691355
1.000001 0.923551 0.889819
0.343281 0.999490 0.635374
0.348420 0.999678 0.636582
0.348159 0.999266 0.634107
0.366020 0.998767 0.631381
0.441289 0.997961 0.627910
0.616311 0.996132 0.622731
0.827762 0.991920 0.620196
0.967531 0.984434 0.653788
1.000001 0.968154 0.855288
0.691712 1.000001 0.807656
0.693219 1.000001 0.808449
0.691071 1.000001 0.806879
0.690395 1.000001 0.805244
0.695893 1.000001 0.803465
0.723645 1.000001 0.801274
0.803794 1.000001 0.798224
0.921609 1.000001 0.797344
1.000001 1.000001 0.818212
0.005558 0.003663 0.362396
0.161500 0.003663 0.364381
0.407844 0.003721 0.361734
0.619139 0.015052 0.345894
0.805932 0.062871 0.329314
0.940288 0.171128 0.379487
1.000001 0.451265 0.552456
1.000001 0.709637 0.750168
1.000001 0.875441 0.892890
0.003505 0.032809 0.364298
0.074049 0.021392 0.361689
0.393902 0.014647 0.358249
0.622079 0.044226 0.335855
0.814952 0.093024 0.322977
0.947866 0.204760 0.387991
1.000001 0.483650 0.570189
1.000001 0.728538 0.765415
1.000001 0.886405 0.902490
0.003505 0.347392 0.334408
0.003505 0.340773 0.331202
0.322021 0.322029 0.322054
0.601356 0.274203 0.295484
0.813302 0.228202 0.291096
0.951546 0.293769 0.384040
1.000001 0.520815 0.582901
1.000001 0.745487 0.777879
1.000001 0.895667 0.910478
0.003505 0.574216 0.185505
0.003721 0.572911 0.178825
0.038436 0.566880 0.164747
0.518359 0.544974 0.178925
0.784870 0.500924 0.188431
0.944719 0.476552 0.337251
1.000001 0.574241 0.579115
1.000001 0.759012 0.783107
1.000001 0.901396 0.914899
0.004442 0.747476 0.083888
0.005028 0.747661 0.082060
0.011543 0.746213 0.078269
0.248078 0.736747 0.078013
0.684593 0.718202 0.082645
0.915598 0.678103 0.222748
1.000001 0.673082 0.540941
1.000001 0.775803 0.775462
1.000001 0.902866 0.913813
0.014712 0.871486 0.136856
0.016290 0.871900 0.136557
0.022352 0.871876 0.135379
0.063698 0.868316 0.133297
0.497110 0.860449 0.128692
0.814607 0.845519 0.149404
0.991242 0.812373 0.455381
1.000001 0.822193 0.747519
1.000001 0.905286 0.906495
0.069746 0.951978 0.378496
0.071866 0.952296 0.379774
0.077744 0.952515 0.380686
0.101370 0.951228 0.376781
0.285679 0.948559 0.369336
0.688756 0.942506 0.363724
0.907259 0.931444 0.416007
1.000001 0.906849 0.691695
1.000001 0.923276 0.889038
0.336511 0.999056 0.634729
0.341627 0.999243 0.635869
0.350731 0.999408 0.636938
0.368229 0.998905 0.634397
0.442683 0.998095 0.631139
0.616872 0.996266 0.626198
0.828067 0.992055 0.623789
0.967751 0.984575 0.656836
1.000001 0.968329 0.854590
0.688996 1.000001 0.806313
0.690500 1.000001 0.807090
0.692276 1.000001 0.807842
0.691571 1.000001 0.806229
0.696983 1.000001 0.804475
0.724503 1.000001 0.802316
0.804280 1.000001 0.799302
0.921858 1.000001 0.798427
1.000001 1.000001 0.816549
0.020707 0.005038 0.552261
0.114891 0.004769 0.555195
0.390609 0.004298 0.555117
0.603092 0.005033 0.550523
0.796037 0.037252 0.528538
0.934624 0.136637 0.515311
1.000001 0.422501 0.589387
1.000001 0.699799 0.750753
1.000001 0.870974 0.889946
0.008586 0.017647 0.561613
0.060776 0.014516 0.560710
0.367957 0.010438 0.560422
0.603381 0.011989 0.555518
0.803994 0.057231 0.531339
0.942059 0.164125 0.521364
1.000001 0.457267 0.603012
1.000001 0.718943 0.765027
1.000001 0.882020 0.899462
0.003761 0.251981 0.554721
0.007914 0.240028 0.553903
0.281870 0.212520 0.549770
0.580562 0.171733 0.545427
0.800584 0.147061 0.521104
0.945347 0.237223 0.519233
1.000001 0.497649 0.612668
1.000001 0.736158 0.776714
1.000001 0.891342 0.907374
0.003505 0.536267 0.522050
0.003505 0.534225 0.521270
0.021977 0.526633 0.517410
0.508340 0.508351 0.508384
0.768721 0.465373 0.484262
0.936845 0.445641 0.494392
1.000001 0.555438 0.608756
1.000001 0.749202 0.780810
1.000001 0.896540 0.911233
0.003990 0.732711 0.400392
0.004334 0.732847 0.398060
0.008478 0.731190 0.393026
0.304143 0.714284 0.418366
0.681159 0.704889 0.396404
0.907035 0.667494 0.418045
1.000001 0.664498 0.573613
1.000001 0.768097 0.772925
1.000001 0.898260 0.910119
0.012784 0.866370 0.305827
0.014277 0.866805 0.303660
0.020158 0.866769 0.299950
0.059362 0.865166 0.291527
0.492226 0.856869 0.299047
0.813838 0.841640 0.331360
0.987239 0.810426 0.498424
1.000001 0.818853 0.744735
1.000001 0.901388 0.902583
0.067011 0.950332 0.427241
0.069131 0.950659 0.427606
0.075136 0.950880 0.427633
0.100042 0.950718 0.426483
0.281750 0.947951 0.424422
0.688053 0.941790 0.422814
0.907306 0.930686 0.463931
1.000001 0.906859 0.690658
1.000001 0.921389 0.884550
0.328744 0.998485 0.639740
0.333824 0.998673 0.640698
0.343212 0.998839 0.641586
0.313726 0.992612 0.616673
0.443368 0.998101 0.639799
0.617038 0.996255 0.635718
0.828214 0.992026 0.633843
0.967918 0.984549 0.665210
1.000001 0.968476 0.850193
0.686160 1.000001 0.805748
0.687663 1.000001 0.806491
0.689463 1.000001 0.807209
0.692668 1.000001 0.807885
0.697988 1.000001 0.806237
0.725281 1.000001 0.804198
0.804708 1.000001 0.801314
0.922078 1.000001 0.800499
1.000001 1.000001 0.820948
0.036052 0.006998 0.718617
0.086250 0.006625 0.721689
0.362645 0.005868 0.722749
0.591977 0.005196 0.720913
0.765659 0.008556 0.713098
0.922140 0.080107 0.685270
1.000001 0.334363 0.678144
1.000001 0.674339 0.761068
1.000001 0.860231 0.884394
0.023572 0.014675 0.729883
0.061051 0.013196 0.729750
0.332625 0.010875 0.730692
0.587131 0.008720 0.728563
0.771208 0.015207 0.721037
0.929348 0.097279 0.692564
1.000001 0.377396 0.687182
1.000001 0.694549 0.773032
1.000001 0.871632 0.893704
0.007756 0.089430 0.730921
0.020805 0.081560 0.730907
0.217234 0.066445 0.728763
0.554971 0.051505 0.727179
0.766072 0.052253 0.721353
0.931813 0.143654 0.694927
1.000001 0.429233 0.693790
1.000001 0.712855 0.782968
1.000001 0.881247 0.901461
0.003972 0.456198 0.718661
0.005135 0.450856 0.718696
0.038883 0.438192 0.717045
0.471395 0.412333 0.712301
0.739312 0.381343 0.707480
0.920832 0.362073 0.685211
1.000001 0.504809 0.692402
1.000001 0.727252 0.786613
1.000001 0.886551 0.905173
0.003505 0.699355 0.685625
0.003663 0.699178 0.685845
0.004631 0.696800 0.684777
0.188758 0.688904 0.680622
0.672249 0.672261 0.672298
0.887610 0.637430 0.652691
1.000001 0.637989 0.671744
1.000001 0.748935 0.779172
1.000001 0.887646 0.903221
0.008436 0.853574 0.592837
0.009466 0.854008 0.592105
0.014159 0.853914 0.590617
0.048927 0.852088 0.586765
0.477490 0.846101 0.578367
0.810725 0.829792 0.591151
0.977945 0.802101 0.617043
1.000001 0.809987 0.752317
1.000001 0.892394 0.895238
0.060412 0.946285 0.557928
0.062465 0.946635 0.557459
0.068373 0.946870 0.556715
0.093175 0.946693 0.555014
0.266882 0.945198 0.550639
0.684757 0.938670 0.555524
0.906576 0.927365 0.578886
1.000001 0.905622 0.703918
1.000001 0.917045 0.876119
0.316902 0.997390 0.665225
0.321974 0.997586 0.665749
0.331566 0.997758 0.666207
0.359996 0.997849 0.666466
0.441517 0.997655 0.666084
0.615788 0.995731 0.664700
0.827804 0.991418 0.664577
0.967898 0.983920 0.691047
1.000001 0.968502 0.842519
0.682926 1.000001 0.808378
0.684436 1.000001 0.809029
0.686270 1.000001 0.809656
0.689609 1.000001 0.810242
0.698697 1.000001 0.810715
0.725771 1.000001 0.809120
0.804929 1.000001 0.806708
0.922198 1.000001 0.806158
1.000001 1.000001 0.825696
0.041983 0.007622 0.853419
0.069723 0.007298 0.856067
0.297342 0.006535 0.857286
0.582351 0.005835 0.856782
0.763951 0.005688 0.852776
0.887703 0.017236 0.840929
0.997100 0.183840 0.809119
1.000001 0.618627 0.809286
1.000001 0.841230 0.883161
0.031975 0.011356 0.863553
0.055303 0.010607 0.863725
0.252336 0.009046 0.864847
0.575779 0.007710 0.864205
0.766344 0.007616 0.859872
0.894073 0.022729 0.848742
1.000001 0.209463 0.816315
1.000001 0.641881 0.817494
1.000001 0.853447 0.891566
0.013689 0.041050 0.866094
0.024089 0.038474 0.866361
0.130133 0.032510 0.865041
0.526388 0.027013 0.864488
0.753070 0.023608 0.861088
0.895521 0.041642 0.852751
1.000001 0.253450 0.822168
1.000001 0.663117 0.824708
1.000001 0.863733 0.898677
0.005363 0.293687 0.861268
0.007641 0.280576 0.861535
0.041235 0.246054 0.860464
0.414866 0.194980 0.857758
0.717922 0.155157 0.855215
0.886734 0.153876 0.849220
1.000001 0.367420 0.824305
1.000001 0.680639 0.828807
1.000001 0.869323 0.902254
0.004385 0.636558 0.845071
0.004945 0.634697 0.845468
0.010280 0.629623 0.845081
0.116391 0.617441 0.842972
0.640978 0.594984 0.838180
0.859475 0.573896 0.833560
0.990046 0.575594 0.815711
1.000001 0.710576 0.826281
1.000001 0.870686 0.900797
0.004449 0.827169 0.815310
0.004662 0.827481 0.815740
0.005774 0.827122 0.815762
0.024865 0.824612 0.814518
0.455588 0.817234 0.810532
0.803580 0.803592 0.803628
0.962151 0.778487 0.789436
1.000001 0.788836 0.810045
1.000001 0.876880 0.893095
0.044940 0.936308 0.749781
0.046670 0.936671 0.749620
0.051773 0.936903 0.749275
0.073708 0.936667 0.748295
0.234942 0.934956 0.745426
0.675059 0.929972 0.739359
0.904055 0.917916 0.749503
1.000001 0.899443 0.773212
1.000001 0.909534 0.874345
0.290859 0.994526 0.741584
0.295907 0.994741 0.741581
0.305629 0.994930 0.741521
0.335634 0.995030 0.741274
0.427790 0.994819 0.740412
0.609986 0.993630 0.737911
0.825665 0.989031 0.741207
0.967305 0.981409 0.757895
1.000001 0.967687 0.844323
0.678196 1.000001 0.822740
0.679736 1.000001 0.823165
0.681631 1.000001 0.823568
0.685148 1.000001 0.823932
0.694851 1.000001 0.824179
0.725242 1.000001 0.824059
0.804413 1.000001 0.823159
0.921962 1.000001 0.823502
1.000001 1.000001 0.840313
0.032274 0.005794 0.953128
0.044430 0.005620 0.955115
0.119950 0.005264 0.956299
0.575825 0.004740 0.955804
0.778644 0.004564 0.953939
0.897828 0.005306 0.947343
0.968823 0.033205 0.931567
1.000001 0.485666 0.898535
1.000001 0.806880 0.904731
0.025104 0.006442 0.960869
0.035862 0.006243 0.961114
0.099287 0.005764 0.962239
0.570035 0.005052 0.961623
0.782610 0.004835 0.959646
0.902396 0.006010 0.952701
0.973561 0.038472 0.937476
1.000001 0.518037 0.904031
1.000001 0.820859 0.910856
0.012551 0.013189 0.964321
0.018040 0.012412 0.964652
0.059054 0.010748 0.964088
0.514956 0.008232 0.963295
0.765678 0.007657 0.961077
0.896374 0.012753 0.953699
0.976372 0.051883 0.941743
1.000001 0.547690 0.909247
1.000001 0.832551 0.916335
0.004352 0.103353 0.958609
0.004873 0.098668 0.958924
0.012260 0.087906 0.958416
0.256937 0.067209 0.955953
0.698136 0.056062 0.954407
0.878910 0.054120 0.950544
0.974841 0.101730 0.942431
1.000001 0.573798 0.913916
1.000001 0.838620 0.920050
0.003761 0.544442 0.949875
0.003917 0.539330 0.950152
0.005754 0.524472 0.949616
0.070618 0.491705 0.947681
0.595309 0.449349 0.944815
0.843975 0.411871 0.941978
0.964795 0.419945 0.936614
1.000001 0.625416 0.915786
1.000001 0.840203 0.921157
0.005430 0.782882 0.932336
0.005798 0.782388 0.932729
0.007724 0.780786 0.932838
0.026857 0.775995 0.932151
0.347229 0.765019 0.929912
0.779793 0.747069 0.925669
0.940838 0.733829 0.921794
1.000001 0.744838 0.908909
1.000001 0.850388 0.918280
0.018866 0.917417 0.908179
0.019777 0.917737 0.908539
0.022701 0.917888 0.908792
0.036337 0.917433 0.908676
0.150126 0.915121 0.907459
0.661691 0.908981 0.904077
0.898871 0.898881 0.898914
1.000001 0.882473 0.889609
1.000001 0.894478 0.906734
0.230300 0.987552 0.865243
0.234546 0.987781 0.865272
0.243051 0.987980 0.865256
0.270897 0.988077 0.865100
0.381306 0.987814 0.864471
0.595615 0.986438 0.862476
0.819551 0.982755 0.858411
0.965478 0.974655 0.865665
1.000001 0.963484 0.883624
0.668161 1.000001 0.867533
0.669784 1.000001 0.867649
0.671806 1.000001 0.867747
0.675619 1.000001 0.867806
0.686244 1.000001 0.867751
0.719390 1.000001 0.867314
0.801583 1.000001 0.865898
0.920656 1.000001 0.868039
1.000001 1.000001 0.878990
0.011213 0.003873 1.000001
0.013725 0.003825 1.000001
0.027784 0.003761 1.000001
0.235230 0.003663 1.000001
0.830826 0.003505 1.000001
0.940556 0.003663 1.000001
0.990491 0.004208 1.000001
1.000001 0.066284 0.988924
1.000001 0.737052 0.958666
0.008012 0.003825 1.000001
0.010114 0.003825 1.000001
0.020956 0.003761 1.000001
0.188184 0.003663 1.000001
0.840243 0.003505 1.000001
0.948302 0.003505 1.000001
0.994791 0.004250 1.000001
1.000001 0.073263 0.992593
1.000001 0.754869 0.962358
0.005231 0.003990 1.000001
0.005884 0.003972 1.000001
0.011728 0.003897 1.000001
0.122016 0.003721 1.000001
0.835530 0.003663 1.000001
0.948768 0.003663 1.000001
0.994449 0.004965 1.000001
1.000001 0.086183 0.995631
1.000001 0.769517 0.965975
0.003663 0.008854 1.000001
0.003721 0.008229 1.000001
0.004092 0.007375 1.000001
0.035080 0.005897 1.000001
0.766493 0.004692 1.000001
0.918842 0.005126 1.000001
0.980277 0.021107 1.000001
1.000001 0.121173 0.997307
1.000001 0.776310 0.969649
0.003505 0.350125 1.000001
0.003505 0.337185 1.000001
0.003505 0.309298 1.000001
0.003825 0.233417 1.000001
0.467175 0.139980 1.000001
0.833040 0.117776 1.000001
0.961599 0.127504 1.000001
1.000001 0.274853 0.996085
1.000001 0.778036 0.973083
0.003505 0.749209 1.000001
0.003505 0.747363 1.000001
0.003505 0.741490 1.000001
0.004079 0.718721 1.000001
0.127885 0.684498 0.999261
0.745741 0.653492 0.996698
0.930906 0.633381 0.994185
1.000001 0.649371 0.989968
1.000001 0.797170 0.974471
0.010090 0.889201 0.986568
0.010497 0.889150 0.986839
0.012137 0.888794 0.987029
0.020092 0.887389 0.986950
0.077164 0.883164 0.986158
0.594595 0.874145 0.984139
0.882419 0.861033 0.980822
0.990626 0.853400 0.977932
1.000001 0.865643 0.969507
0.121842 0.975275 0.968758
0.124062 0.975494 0.968995
0.128908 0.975673 0.969206
0.145557 0.975717 0.969330
0.225765 0.975282 0.969164
0.543982 0.973424 0.968147
0.811567 0.968863 0.965596
0.962050 0.962059 0.962086
1.000001 0.952333 0.956537
0.642186 1.000001 0.942860
0.643989 1.000001 0.942933
0.646277 1.000001 0.942992
0.650707 1.000001 0.943021
0.663226 1.000001 0.942956
0.701937 1.000001 0.942571
0.794288 1.000001 0.941276
0.917020 1.000001 0.938737
1.000001 1.000001 0.943377
0.003721 0.003505 1.000001
0.003721 0.003505 1.000001
0.003917 0.003505 1.000001
0.006952 0.003505 1.000001
0.587941 0.003505 1.000001
1.000001 0.003505 1.000001
1.000001 0.003505 1.000001
1.000001 0.003505 1.000001
1.000001 0.144558 1.000001
0.003663 0.003505 1.000001
0.003663 0.003505 1.000001
0.003721 0.003505 1.000001
0.005339 0.003505 1.000001
0.493295 0.003505 1.000001
1.000001 0.003505 1.000001
1.000001 0.003505 1.000001
1.000001 0.003505 1.000001
1.000001 0.158700 1.000001
0.003505 0.003505 1.000001
0.003505 0.003505 1.000001
0.003505 0.003505 1.000001
0.004250 0.003505 1.000001
0.320789 0.003505 1.000001
1.000001 0.003505 1.000001
1.000001 0.003505 1.000001
1.000001 0.003505 1.000001
1.000001 0.178941 1.000001
0.003505 0.003505 1.000001
0.003505 0.003505 1.000001
0.003505 0.003505 1.000001
0.003663 0.003505 1.000001
0.122553 0.003505 1.000001
1.000001 0.003505 1.000001
1.000001 0.003505 1.000001
1.000001 0.003721 1.000001
1.000001 0.218665 1.000001
0.003505 0.004176 1.000001
0.003505 0.004051 1.000001
0.003505 0.003936 1.000001
0.003505 0.003793 1.000001
0.005733 0.003505 1.000001
0.978237 0.003505 1.000001
1.000001 0.003505 1.000001
1.000001 0.038033 1.000001
1.000001 0.338487 1.000001
0.003505 0.763005 1.000001
0.003505 0.760728 1.000001
0.003505 0.754728 1.000001
0.003505 0.733504 1.000001
0.003505 0.635256 1.000001
0.649799 0.346242 1.000001
0.926750 0.295236 1.000001
1.000001 0.368215 1.000001
1.000001 0.603490 1.000001
0.003505 0.911184 1.000001
0.003505 0.911065 1.000001
0.003505 0.909396 1.000001
0.003505 0.901375 1.000001
0.003505 0.864167 1.000001
0.289256 0.826309 1.000001
0.859395 0.804483 1.000001
0.985061 0.793897 1.000001
1.000001 0.808845 1.000001
0.033605 0.959263 1.000001
0.033831 0.959322 1.000001
0.035037 0.959309 1.000001
0.040527 0.959038 1.000001
0.067254 0.957904 1.000001
0.278375 0.954559 1.000001
0.770203 0.947880 1.000001
0.951799 0.939125 1.000001
1.000001 0.935116 1.000001
0.559027 1.000001 1.000001
0.561288 1.000001 1.000001
0.564342 1.000001 1.000001
0.570829 1.000001 1.000001
0.589992 1.000001 1.000001
0.647468 1.000001 1.000001
0.770528 1.000001 1.000001
0.912603 1.000001 1.000001
0.999994 1.000001 1.000001
