luts/RED_709_C2R3.cube
# RED Digital Cinema Output Transform LUT for IPP2
# LUT Name = RWG_Log3G10 to REC709_BT1886 with MEDIUM_CONTRAST and R_3_Soft size_33 v1.13
# Generated by version 1.13
# Settings used in creation of this LUT are:
# Development Color Space = REC709
# Output Gamma Curve = BT1886
# Output Tonemap = MEDIUM_CONTRAST
# Highlight Rolloff = Rolloff 3 - soft
# Resolution = 33 x 33 x 33
TITLE "RED IPP2 LUT to map REDWideGamutRGB/Log3G10 to REC709/BT1886/MEDIUM_CONTRAST/Rolloff 3 - soft"
LUT_3D_SIZE 5
0.000000 0.000000 0.000000
0.327138 0.016750 0.024617
0.893847 0.115112 0.162556
1.000003 0.620820 0.681367
1.000003 0.920295 0.932930
0.003505 0.309505 0.003897
0.258980 0.286629 0.003721
0.898318 0.190449 0.150006
1.000003 0.649803 0.699447
1.000003 0.928260 0.939674
0.005907 0.836478 0.044467
0.008516 0.834077 0.043499
0.771305 0.806912 0.039565
1.000003 0.773707 0.672054
1.000003 0.936283 0.943457
0.123577 0.984412 0.509646
0.124675 0.984040 0.505929
0.395701 0.981827 0.489757
0.956817 0.971761 0.536882
1.000003 0.960403 0.917407
0.746933 1.000003 0.857243
0.744652 1.000003 0.855897
0.752325 1.000003 0.851892
0.889067 1.000003 0.846580
1.000003 1.000003 0.865469
0.013767 0.004544 0.286590
0.320793 0.004352 0.283670
0.893019 0.103930 0.262518
1.000003 0.619158 0.686193
1.000003 0.920312 0.933068
0.003505 0.266890 0.257527
0.248767 0.248774 0.248793
0.896912 0.171788 0.242687
1.000003 0.647272 0.702814
1.000003 0.927929 0.939494
0.005688 0.833339 0.063306
0.008166 0.833070 0.061981
0.771312 0.805395 0.061402
1.000003 0.773047 0.675116
1.000003 0.936046 0.943308
0.121322 0.984014 0.510522
0.125413 0.984160 0.512013
0.396355 0.981938 0.497314
0.957020 0.971878 0.543366
1.000003 0.960445 0.917208
0.744273 1.000003 0.855989
0.745858 1.000003 0.856656
0.753370 1.000003 0.852688
0.889382 1.000003 0.847419
1.000003 1.000003 0.866197
0.049170 0.009671 0.812938
0.208449 0.008468 0.814616
0.851093 0.013354 0.804055
1.000003 0.515722 0.775971
1.000003 0.905180 0.925192
0.023192 0.034570 0.817869
0.114955 0.029504 0.816767
0.852025 0.029042 0.808207
1.000003 0.553041 0.784165
1.000003 0.913478 0.931492
0.003663 0.785183 0.772114
0.003972 0.784377 0.771923
0.758750 0.758762 0.758799
1.000003 0.737391 0.769226
1.000003 0.921468 0.933792
0.106569 0.980900 0.660920
0.110702 0.981062 0.660645
0.380883 0.980316 0.655586
0.956773 0.969755 0.684588
1.000003 0.957516 0.904458
0.736133 1.000003 0.858859
0.737769 1.000003 0.859378
0.755468 1.000003 0.860505
0.889899 1.000003 0.856833
1.000003 1.000003 0.874064
0.025366 0.004960 0.991745
0.044802 0.004780 0.992525
0.875402 0.004104 0.991050
0.995347 0.045452 0.975381
1.000003 0.847414 0.951764
0.016068 0.005798 0.994612
0.030970 0.005540 0.994580
0.873858 0.004449 0.992966
0.997106 0.054224 0.978173
1.000003 0.859294 0.955209
0.003505 0.626265 0.985133
0.003721 0.617246 0.985110
0.674492 0.503524 0.981613
0.991967 0.487905 0.976246
1.000003 0.870797 0.960849
0.038206 0.963685 0.957930
0.040322 0.963845 0.958125
0.215921 0.962362 0.957466
0.951788 0.951795 0.951817
1.000003 0.943051 0.949934
0.715086 1.000003 0.927747
0.716956 1.000003 0.927785
0.738536 1.000003 0.927675
0.886191 1.000003 0.925547
1.000003 1.000003 0.933498
0.003663 0.003505 1.000003
0.003721 0.003505 1.000003
0.905911 0.003505 1.000003
1.000003 0.003505 1.000003
1.000003 0.153497 1.000003
0.003505 0.003505 1.000003
0.003663 0.003505 1.000003
0.888032 0.003505 1.000003
1.000003 0.003505 1.000003
1.000003 0.170273 1.000003
0.003505 0.015746 1.000003
0.003505 0.013139 1.000003
0.020691 0.004410 1.000003
1.000003 0.018736 1.000003
1.000003 0.408242 1.000003
0.003505 0.950981 1.000003
0.003505 0.950532 1.000003
0.019907 0.930114 1.000003
0.932897 0.906129 1.000003
1.000003 0.903391 1.000003
0.604013 1.000003 1.000003
0.606845 1.000003 1.000003
0.646091 1.000003 1.000003
0.870807 1.000003 1.000003
0.999999 1.000003 1.000003
