luts/RED_709_C3R4.cube
# RED Digital Cinema Output Transform LUT for IPP2
# LUT Name = RWG_Log3G10 to REC709_BT1886 with LOW_CONTRAST and R_4_VerySoft size_33 v1.13
# Generated by version 1.13
# Settings used in creation of this LUT are:
# Development Color Space = REC709
# Output Gamma Curve = BT1886
# Output Tonemap = LOW_CONTRAST
# Highlight Rolloff = Rolloff 4 - very soft
# Resolution = 33 x 33 x 33
TITLE "RED IPP2 LUT to map REDWideGamutRGB/Log3G10 to REC709/BT1886/LOW_CONTRAST/Rolloff 4 - very soft"
LUT_3D_SIZE 33
0.000000 0.000000 0.000000
0.000000 0.000000 0.000000
0.000662 0.000000 0.000000
0.067175 0.003505 0.003505
0.108301 0.003505 0.003505
0.162836 0.004037 0.004479
0.223711 0.006442 0.008957
0.292061 0.011701 0.017566
0.361991 0.018292 0.026890
0.429920 0.025218 0.036604
0.495533 0.032571 0.046868
0.564456 0.041345 0.059080
0.633391 0.051743 0.073531
0.695874 0.063410 0.089752
0.753592 0.077280 0.109095
0.805829 0.094117 0.132742
0.852087 0.114959 0.162371
0.892423 0.141508 0.200804
0.926744 0.176154 0.252202
0.954815 0.221806 0.318900
0.977910 0.285853 0.388647
0.996083 0.366283 0.455902
1.000001 0.442314 0.518431
1.000001 0.512436 0.577260
1.000001 0.574724 0.630220
1.000001 0.631486 0.678955
1.000001 0.681323 0.722071
1.000001 0.726262 0.761187
1.000001 0.765952 0.795911
1.000001 0.800399 0.826177
1.000001 0.831256 0.853388
1.000001 0.858288 0.877301
1.000001 0.882915 0.899149
0.000000 0.000000 0.000000
0.000000 0.000000 0.000000
0.000028 0.000000 0.000000
0.061468 0.003505 0.003505
0.105424 0.003505 0.003505
0.161116 0.004592 0.004220
0.222502 0.007932 0.008134
0.291168 0.013900 0.016539
0.361397 0.020418 0.025913
0.429538 0.027201 0.035712
0.495322 0.034397 0.046071
0.564443 0.042986 0.058407
0.633471 0.053198 0.072972
0.696031 0.064708 0.089302
0.753800 0.078446 0.108754
0.806065 0.095178 0.132512
0.852330 0.115947 0.162259
0.892659 0.142462 0.200828
0.926960 0.177123 0.252400
0.955006 0.222856 0.319275
0.978072 0.287061 0.389112
0.996216 0.367407 0.456412
1.000001 0.443238 0.518956
1.000001 0.513226 0.577781
1.000001 0.575418 0.630722
1.000001 0.632103 0.679431
1.000001 0.681877 0.722516
1.000001 0.726760 0.761600
1.000001 0.766401 0.796290
1.000001 0.800803 0.826524
1.000001 0.831619 0.853703
1.000001 0.858614 0.877587
1.000001 0.883206 0.899405
0.000000 0.000048 0.000000
0.000000 0.000023 0.000000
0.000002 0.000009 0.000000
0.051923 0.003505 0.003505
0.101188 0.003990 0.003505
0.158651 0.006634 0.003955
0.220778 0.011653 0.007191
0.289890 0.017603 0.015184
0.360542 0.023748 0.024601
0.428981 0.030182 0.034502
0.495017 0.037044 0.045001
0.564407 0.045319 0.057501
0.633563 0.055241 0.072215
0.696229 0.066517 0.088691
0.754068 0.080060 0.108287
0.806371 0.096641 0.132192
0.852648 0.117305 0.162097
0.892968 0.143768 0.200849
0.927245 0.178444 0.252654
0.955257 0.224283 0.319764
0.978286 0.288691 0.389723
0.996392 0.368911 0.457086
1.000001 0.444471 0.519650
1.000001 0.514278 0.578468
1.000001 0.576341 0.631386
1.000001 0.632923 0.680060
1.000001 0.682613 0.723107
1.000001 0.727421 0.762146
1.000001 0.766995 0.796792
1.000001 0.801339 0.826984
1.000001 0.832101 0.854121
1.000001 0.859046 0.877964
1.000001 0.883592 0.899745
0.003505 0.059123 0.003505
0.003505 0.056993 0.003505
0.003505 0.053868 0.003505
0.031527 0.049140 0.003505
0.094797 0.035088 0.003505
0.155096 0.019206 0.003721
0.218314 0.020401 0.006189
0.288054 0.024277 0.013439
0.359310 0.029168 0.022872
0.428186 0.034723 0.032912
0.494574 0.040923 0.043591
0.564325 0.048653 0.056297
0.633653 0.058111 0.071203
0.696463 0.069029 0.087868
0.754399 0.082286 0.107653
0.806757 0.098645 0.131751
0.853053 0.119155 0.161862
0.893363 0.145539 0.200855
0.927610 0.180229 0.252964
0.955582 0.226201 0.320386
0.978562 0.290863 0.390510
0.996620 0.370890 0.457956
1.000001 0.446089 0.520550
1.000001 0.515655 0.579360
1.000001 0.577546 0.632249
1.000001 0.633992 0.680878
1.000001 0.683571 0.723872
1.000001 0.728281 0.762856
1.000001 0.767769 0.797445
1.000001 0.802036 0.827580
1.000001 0.832727 0.854663
1.000001 0.859608 0.878455
1.000001 0.884093 0.900185
0.003505 0.100523 0.003505
0.003505 0.099470 0.003505
0.003505 0.097997 0.003505
0.003505 0.095934 0.003505
0.079020 0.090783 0.003505
0.147430 0.080050 0.003505
0.213108 0.061284 0.004889
0.284179 0.045895 0.010361
0.356723 0.043760 0.019690
0.426503 0.045761 0.029922
0.493603 0.049795 0.040899
0.564061 0.055952 0.053975
0.633733 0.064217 0.069228
0.696834 0.074274 0.086244
0.754968 0.086870 0.106383
0.807441 0.102732 0.130846
0.853781 0.122897 0.161349
0.894082 0.149094 0.200797
0.928280 0.183783 0.253484
0.956178 0.229990 0.321502
0.979072 0.295094 0.391952
0.997040 0.374662 0.459566
1.000001 0.449156 0.522219
1.000001 0.518254 0.581020
1.000001 0.579813 0.633855
1.000001 0.635998 0.682403
1.000001 0.685365 0.725301
1.000001 0.729891 0.764180
1.000001 0.769215 0.798662
1.000001 0.803338 0.828694
1.000001 0.833897 0.855675
1.000001 0.860658 0.879371
1.000001 0.885028 0.901007
0.003505 0.153251 0.003505
0.003505 0.152594 0.003505
0.003505 0.151683 0.003505
0.003505 0.150430 0.003505
0.006007 0.147902 0.003505
0.127715 0.142172 0.003505
0.200519 0.131592 0.003721
0.274785 0.118816 0.006207
0.350411 0.102859 0.013747
0.422305 0.084428 0.023992
0.491045 0.076901 0.035371
0.563052 0.076219 0.049082
0.633504 0.080150 0.064971
0.697272 0.087409 0.082665
0.755869 0.098022 0.103506
0.808628 0.112464 0.128702
0.855105 0.131654 0.160003
0.895422 0.157282 0.200377
0.929549 0.191841 0.254241
0.957320 0.238449 0.323512
0.980055 0.304252 0.394688
0.997853 0.382480 0.462681
1.000001 0.455446 0.525481
1.000001 0.523530 0.584281
1.000001 0.584383 0.637020
1.000001 0.640019 0.685412
1.000001 0.688948 0.728124
1.000001 0.733095 0.766796
1.000001 0.772089 0.801068
1.000001 0.805923 0.830896
1.000001 0.836215 0.857676
1.000001 0.862736 0.881182
1.000001 0.886880 0.902633
0.003505 0.211374 0.003505
0.003505 0.210874 0.003505
0.003505 0.210185 0.003505
0.003505 0.209242 0.003505
0.003721 0.207359 0.003505
0.048175 0.203159 0.003505
0.177559 0.196447 0.003505
0.258152 0.185468 0.004037
0.339017 0.173583 0.007451
0.414570 0.160265 0.016397
0.486052 0.144869 0.027768
0.560489 0.125245 0.042018
0.632220 0.114401 0.058579
0.697094 0.113557 0.077098
0.756488 0.119076 0.098839
0.809774 0.130140 0.125012
0.856549 0.147084 0.157392
0.896978 0.171331 0.199037
0.931076 0.205316 0.254515
0.958727 0.252231 0.325627
0.981284 0.318408 0.397977
0.998883 0.393713 0.466600
1.000001 0.464317 0.529672
1.000001 0.530844 0.588517
1.000001 0.590631 0.641157
1.000001 0.645460 0.689360
1.000001 0.693761 0.731836
1.000001 0.737378 0.770243
1.000001 0.775916 0.804241
1.000001 0.809355 0.833800
1.000001 0.839289 0.860316
1.000001 0.865488 0.883573
1.000001 0.889329 0.904779
0.003505 0.276529 0.003721
0.003505 0.276104 0.003721
0.003505 0.275519 0.003721
0.003505 0.274724 0.003721
0.003505 0.273152 0.003721
0.005804 0.269659 0.003663
0.114862 0.264120 0.003663
0.231499 0.256309 0.003505
0.320367 0.244204 0.004410
0.401813 0.231721 0.008881
0.477430 0.218328 0.019157
0.555332 0.202425 0.033362
0.628954 0.184815 0.050295
0.695480 0.167098 0.069545
0.756101 0.158502 0.092189
0.810249 0.161254 0.119403
0.857574 0.173025 0.152983
0.898301 0.194071 0.196068
0.932498 0.226379 0.253398
0.960106 0.273051 0.326902
0.982530 0.337840 0.400984
0.999947 0.407941 0.470566
1.000001 0.475277 0.534096
1.000001 0.539655 0.593089
1.000001 0.598004 0.645677
1.000001 0.651778 0.693706
1.000001 0.699285 0.735941
1.000001 0.742252 0.774066
1.000001 0.780247 0.807766
1.000001 0.813224 0.837032
1.000001 0.842744 0.863258
1.000001 0.868574 0.886236
1.000001 0.892073 0.907171
0.003505 0.345287 0.003990
0.003505 0.344956 0.003990
0.003505 0.344505 0.003990
0.003505 0.343896 0.003972
0.003505 0.342692 0.003972
0.004104 0.340010 0.003936
0.020731 0.335727 0.003897
0.169593 0.329620 0.003825
0.291175 0.321435 0.003721
0.382083 0.308721 0.004915
0.463706 0.295457 0.010928
0.546374 0.279972 0.023977
0.622662 0.263084 0.040599
0.691529 0.246062 0.060194
0.753928 0.230322 0.083502
0.809385 0.218973 0.111599
0.857620 0.217972 0.146272
0.898928 0.231403 0.190736
0.933440 0.259418 0.249889
0.961163 0.303598 0.326263
0.983566 0.361641 0.402805
1.000001 0.424997 0.473796
1.000001 0.488039 0.538061
1.000001 0.549586 0.597376
1.000001 0.606073 0.650022
1.000001 0.658528 0.697946
1.000001 0.705081 0.739982
1.000001 0.747301 0.777853
1.000001 0.784692 0.811274
1.000001 0.817170 0.840258
1.000001 0.846253 0.866199
1.000001 0.871701 0.888905
1.000001 0.894847 0.909571
0.003505 0.412486 0.004494
0.003505 0.412230 0.004487
0.003505 0.411882 0.004487
0.003505 0.411413 0.004472
0.003663 0.410486 0.004465
0.003850 0.408421 0.004434
0.006532 0.405122 0.004368
0.059141 0.400412 0.004279
0.225508 0.394082 0.004165
0.352495 0.385876 0.004037
0.442934 0.373211 0.005705
0.532043 0.359087 0.014907
0.612082 0.343884 0.030164
0.684182 0.327814 0.049408
0.749082 0.311708 0.072879
0.806440 0.297794 0.101454
0.856074 0.289812 0.136854
0.898366 0.292554 0.182335
0.933516 0.310225 0.242938
0.961600 0.343247 0.322424
0.984169 0.389977 0.402435
1.000001 0.445105 0.475473
1.000001 0.502651 0.540881
1.000001 0.560522 0.600797
1.000001 0.614620 0.653685
1.000001 0.665433 0.701637
1.000001 0.710851 0.743570
1.000001 0.752222 0.781260
1.000001 0.788961 0.814459
1.000001 0.820923 0.843204
1.000001 0.849567 0.868900
1.000001 0.874641 0.891364
1.000001 0.897447 0.911790
0.003505 0.477666 0.005375
0.003505 0.477468 0.005371
0.003505 0.477198 0.005363
0.003505 0.476835 0.005359
0.003663 0.476117 0.005339
0.003825 0.474520 0.005298
0.004814 0.471970 0.005218
0.016441 0.468319 0.005098
0.127283 0.463390 0.004940
0.286240 0.456961 0.004752
0.412988 0.448792 0.004571
0.507695 0.435787 0.007430
0.595527 0.421598 0.019884
0.672041 0.406775 0.037757
0.740407 0.391420 0.060620
0.800468 0.376856 0.089013
0.852168 0.365580 0.124488
0.896001 0.361255 0.170273
0.932249 0.368137 0.231501
0.961057 0.388679 0.313646
0.984077 0.423378 0.398570
1.000001 0.468813 0.474573
1.000001 0.519462 0.541736
1.000001 0.572582 0.602679
1.000001 0.623591 0.656106
1.000001 0.672329 0.704305
1.000001 0.716371 0.746298
1.000001 0.756769 0.783935
1.000001 0.792804 0.817013
1.000001 0.824241 0.845605
1.000001 0.852461 0.871125
1.000001 0.877188 0.893409
1.000001 0.899690 0.913648
0.003663 0.539346 0.006952
0.003663 0.539191 0.006947
0.003663 0.538980 0.006939
0.003663 0.538697 0.006929
0.003721 0.538139 0.006909
0.003850 0.536899 0.006852
0.004442 0.534923 0.006744
0.007894 0.532089 0.006573
0.037270 0.528247 0.006339
0.194181 0.523202 0.006060
0.349887 0.516733 0.005774
0.471302 0.508772 0.005532
0.565150 0.495883 0.010193
0.652894 0.481644 0.026095
0.726528 0.467087 0.047481
0.790325 0.452536 0.074815
0.844959 0.439484 0.109464
0.891071 0.430507 0.154491
0.929034 0.429240 0.215005
0.959065 0.438965 0.297792
0.982941 0.461740 0.389524
1.000001 0.496414 0.469758
1.000001 0.538764 0.539537
1.000001 0.585890 0.602129
1.000001 0.632930 0.656541
1.000001 0.679025 0.705323
1.000001 0.721372 0.747629
1.000001 0.760638 0.785417
1.000001 0.795909 0.818540
1.000001 0.826821 0.847112
1.000001 0.854652 0.872573
1.000001 0.879083 0.894776
1.000001 0.901341 0.914917
0.003721 0.597802 0.009984
0.003721 0.597680 0.009977
0.003721 0.597515 0.009969
0.003761 0.597293 0.009954
0.003825 0.596857 0.009921
0.003972 0.595893 0.009838
0.004410 0.594362 0.009683
0.006082 0.592173 0.009429
0.016793 0.589197 0.009071
0.072909 0.585265 0.008624
0.261063 0.580177 0.008136
0.410618 0.573844 0.007690
0.527643 0.566070 0.007392
0.619316 0.553511 0.014598
0.706278 0.539294 0.034440
0.775836 0.525198 0.060090
0.834470 0.511560 0.093123
0.883553 0.499966 0.136313
0.923774 0.493114 0.194596
0.955489 0.494205 0.275179
0.980634 0.506019 0.374343
0.999660 0.529447 0.460359
1.000001 0.562176 0.533817
1.000001 0.601818 0.598834
1.000001 0.643671 0.654782
1.000001 0.686245 0.704559
1.000001 0.726344 0.747480
1.000001 0.764144 0.785652
1.000001 0.798481 0.819003
1.000001 0.828795 0.847702
1.000001 0.856221 0.873228
1.000001 0.880376 0.895452
1.000001 0.902430 0.915588
0.003917 0.651886 0.015004
0.003917 0.651789 0.014995
0.003936 0.651658 0.014984
0.003972 0.651482 0.014967
0.004021 0.651138 0.014933
0.004176 0.650383 0.014845
0.004564 0.649194 0.014678
0.005691 0.647503 0.014400
0.010683 0.645207 0.013985
0.032797 0.642160 0.013425
0.133184 0.638186 0.012746
0.330107 0.633184 0.012041
0.470616 0.626965 0.011452
0.580811 0.619532 0.011226
0.669918 0.607346 0.020893
0.754951 0.593305 0.045625
0.819561 0.579842 0.076497
0.872856 0.567155 0.117115
0.916188 0.557031 0.172050
0.950203 0.552101 0.248261
0.977077 0.555048 0.352583
0.997354 0.568021 0.446122
1.000001 0.590642 0.524427
1.000001 0.621609 0.592741
1.000001 0.657001 0.650861
1.000001 0.694976 0.702106
1.000001 0.732062 0.745982
1.000001 0.767889 0.784794
1.000001 0.800981 0.818565
1.000001 0.830526 0.847535
1.000001 0.857460 0.873240
1.000001 0.881305 0.895581
1.000001 0.903153 0.915790
0.004250 0.701607 0.022004
0.004270 0.701529 0.021994
0.004288 0.701424 0.021981
0.004316 0.701283 0.021963
0.004377 0.701008 0.021924
0.004544 0.700410 0.021828
0.004915 0.699480 0.021651
0.005851 0.698173 0.021359
0.008864 0.696408 0.020921
0.020273 0.694066 0.020314
0.059381 0.690991 0.019542
0.216576 0.687081 0.018684
0.397591 0.682159 0.017867
0.527422 0.676189 0.017343
0.630686 0.669120 0.017492
0.716132 0.657447 0.029648
0.798310 0.643738 0.060360
0.857878 0.630954 0.098027
0.905542 0.619315 0.148792
0.942663 0.610715 0.219109
0.971882 0.607256 0.322767
0.993881 0.611487 0.425961
1.000001 0.624466 0.510514
1.000001 0.646145 0.583199
1.000001 0.673935 0.644288
1.000001 0.706106 0.697603
1.000001 0.739201 0.742871
1.000001 0.772336 0.782648
1.000001 0.803711 0.817080
1.000001 0.832200 0.846501
1.000001 0.858476 0.872529
1.000001 0.881926 0.895096
1.000001 0.903535 0.915473
0.004852 0.746730 0.031642
0.004868 0.746666 0.031630
0.004889 0.746580 0.031614
0.004925 0.746465 0.031592
0.004994 0.746243 0.031546
0.005183 0.745763 0.031437
0.005580 0.745029 0.031244
0.006473 0.744012 0.030938
0.008844 0.742656 0.030480
0.016058 0.740865 0.029835
0.036182 0.738507 0.028990
0.101287 0.735484 0.027992
0.300533 0.731631 0.026948
0.461425 0.726893 0.026095
0.581291 0.721195 0.025798
0.676892 0.714548 0.026651
0.757749 0.703504 0.041724
0.836818 0.690163 0.080080
0.890932 0.678178 0.126597
0.932352 0.667785 0.190341
0.964699 0.660342 0.286124
0.988984 0.658155 0.399490
1.000001 0.662961 0.491592
1.000001 0.675680 0.569723
1.000001 0.695276 0.634661
1.000001 0.720595 0.690758
1.000001 0.748637 0.737953
1.000001 0.778190 0.779100
1.000001 0.807196 0.814488
1.000001 0.834198 0.844574
1.000001 0.859538 0.871087
1.000001 0.882431 0.894005
1.000001 0.903708 0.914650
0.005933 0.787199 0.044768
0.005956 0.787146 0.044753
0.005985 0.787074 0.044732
0.006023 0.786980 0.044703
0.006113 0.786797 0.044646
0.006336 0.786408 0.044517
0.006796 0.785820 0.044300
0.007763 0.785022 0.043969
0.010023 0.783974 0.043488
0.015359 0.782606 0.042813
0.027931 0.780810 0.041910
0.061236 0.778495 0.040798
0.170908 0.775514 0.039546
0.379104 0.771799 0.038364
0.522102 0.767263 0.037590
0.631688 0.761885 0.037779
0.719219 0.755698 0.039816
0.795508 0.745268 0.058618
0.870549 0.732426 0.106619
0.918378 0.721488 0.164148
0.955032 0.712019 0.249370
0.982340 0.705768 0.367111
1.000001 0.704504 0.467643
1.000001 0.709570 0.552067
1.000001 0.721226 0.621667
1.000001 0.739145 0.681281
1.000001 0.761220 0.730999
1.000001 0.786231 0.773988
1.000001 0.812068 0.810688
1.000001 0.836998 0.841698
1.000001 0.860994 0.868890
1.000001 0.883067 0.892302
1.000001 0.903849 0.913329
0.008043 0.823371 0.062661
0.008072 0.823327 0.062641
0.008109 0.823267 0.062613
0.008162 0.823188 0.062575
0.008277 0.823036 0.062502
0.008567 0.822716 0.062341
0.009155 0.822241 0.062084
0.010326 0.821607 0.061714
0.012558 0.820792 0.061195
0.016870 0.819745 0.060484
0.025896 0.818383 0.059531
0.046476 0.816629 0.058327
0.100980 0.814352 0.056898
0.272507 0.811478 0.055408
0.451229 0.807918 0.054155
0.578563 0.803630 0.053654
0.677910 0.798614 0.054708
0.757886 0.792871 0.058647
0.828993 0.783131 0.081958
0.898747 0.771055 0.141684
0.941904 0.760862 0.217252
0.973396 0.752461 0.330232
0.995873 0.747276 0.439184
1.000001 0.746572 0.530218
1.000001 0.751371 0.605044
1.000001 0.762064 0.668840
1.000001 0.777656 0.721701
1.000001 0.797275 0.767067
1.000001 0.819069 0.805501
1.000001 0.841200 0.837751
1.000001 0.863294 0.865861
1.000001 0.884160 0.889945
1.000001 0.904183 0.911489
0.012295 0.855354 0.087025
0.012327 0.855317 0.086996
0.012372 0.855267 0.086958
0.012434 0.855200 0.086907
0.012566 0.855073 0.086809
0.012895 0.854807 0.086600
0.013529 0.854417 0.086282
0.014670 0.853908 0.085845
0.016706 0.853267 0.085263
0.020425 0.852461 0.084494
0.027579 0.851428 0.083479
0.042167 0.850106 0.082189
0.075501 0.848386 0.080604
0.164076 0.846193 0.078838
0.367378 0.843438 0.077129
0.517434 0.840066 0.075940
0.630536 0.836058 0.076011
0.720510 0.831392 0.078515
0.792858 0.826111 0.085416
0.857006 0.817309 0.113363
0.923402 0.805698 0.191595
0.961253 0.796448 0.293075
0.987676 0.789143 0.408093
1.000001 0.784682 0.504988
1.000001 0.784299 0.585009
1.000001 0.788757 0.653338
1.000001 0.798041 0.709844
1.000001 0.811834 0.758107
1.000001 0.828852 0.798734
1.000001 0.847426 0.832588
1.000001 0.866955 0.861902
1.000001 0.886106 0.886871
1.000001 0.904998 0.909093
0.018781 0.882938 0.119809
0.018811 0.882906 0.119770
0.018853 0.882863 0.119716
0.018912 0.882807 0.119646
0.019035 0.882699 0.119512
0.019346 0.882475 0.119230
0.019947 0.882151 0.118816
0.021027 0.881736 0.118272
0.022921 0.881224 0.117583
0.026259 0.880595 0.116710
0.032340 0.879803 0.115594
0.043794 0.878803 0.114191
0.067332 0.877507 0.112447
0.120765 0.875846 0.110420
0.271260 0.873733 0.108280
0.450652 0.871109 0.106424
0.578729 0.867938 0.105533
0.679301 0.864186 0.106682
0.759904 0.859869 0.111599
0.823727 0.855120 0.122937
0.883411 0.846898 0.159557
0.944358 0.836033 0.263994
0.976709 0.827839 0.378314
0.999355 0.821333 0.478646
1.000001 0.817597 0.562809
1.000001 0.817405 0.635381
1.000001 0.821344 0.695663
1.000001 0.829593 0.747152
1.000001 0.841573 0.790350
1.000001 0.856052 0.826157
1.000001 0.872403 0.856971
1.000001 0.889293 0.883054
1.000001 0.906607 0.906136
0.028363 0.907254 0.166173
0.028388 0.907227 0.166115
0.028424 0.907190 0.166038
0.028476 0.907142 0.165937
0.028586 0.907050 0.165744
0.028868 0.906861 0.165344
0.029424 0.906591 0.164773
0.030434 0.906248 0.164049
0.032199 0.905836 0.163170
0.035257 0.905340 0.162108
0.040635 0.904731 0.160805
0.050232 0.903974 0.159207
0.068489 0.903003 0.157235
0.105663 0.901760 0.154897
0.193543 0.900166 0.152292
0.379751 0.898158 0.149738
0.523080 0.895692 0.147848
0.634166 0.892724 0.147628
0.723194 0.889253 0.150691
0.793901 0.885371 0.159405
0.851602 0.881014 0.178406
0.905260 0.873596 0.226611
0.960799 0.863611 0.353904
0.989287 0.856162 0.453325
1.000001 0.850513 0.539437
1.000001 0.847203 0.615257
1.000001 0.847033 0.679053
1.000001 0.850460 0.733902
1.000001 0.857531 0.779993
1.000001 0.867602 0.818117
1.000001 0.880221 0.850777
1.000001 0.894251 0.878266
1.000001 0.909434 0.902445
0.031866 0.912008 0.182834
0.042085 0.928110 0.232802
0.042113 0.928079 0.232685
0.042154 0.928037 0.232532
0.042244 0.927959 0.232242
0.042485 0.927798 0.231647
0.042980 0.927570 0.230810
0.043904 0.927286 0.229776
0.045539 0.926949 0.228566
0.048365 0.926553 0.227163
0.053249 0.926078 0.225512
0.061677 0.925500 0.223562
0.076896 0.924770 0.221206
0.105636 0.923841 0.218415
0.165922 0.922648 0.215216
0.313512 0.921130 0.211848
0.468833 0.919236 0.208849
0.588277 0.916918 0.207168
0.684649 0.914161 0.208385
0.761841 0.911027 0.214802
0.825324 0.907453 0.230553
0.876146 0.903547 0.262684
0.922722 0.897089 0.318483
0.974672 0.887704 0.433103
0.999018 0.881139 0.517745
1.000001 0.876058 0.594754
1.000001 0.873178 0.661058
1.000001 0.872975 0.718892
1.000001 0.875876 0.767883
1.000001 0.881767 0.808518
1.000001 0.890482 0.843294
1.000001 0.901247 0.872457
1.000001 0.913807 0.897975
0.060953 0.945640 0.324709
0.060964 0.945620 0.324603
0.060981 0.945593 0.324463
0.061008 0.945557 0.324280
0.061070 0.945490 0.323933
0.061255 0.945353 0.323224
0.061670 0.945159 0.322232
0.062490 0.944919 0.321019
0.063986 0.944640 0.319621
0.066605 0.944319 0.318035
0.071118 0.943941 0.316216
0.078774 0.943492 0.314121
0.092168 0.942936 0.311623
0.116242 0.942237 0.308661
0.162989 0.941342 0.305164
0.267211 0.940197 0.301242
0.423559 0.938752 0.297282
0.546370 0.936955 0.294125
0.647308 0.934781 0.293297
0.729526 0.932269 0.296886
0.798075 0.929359 0.307518
0.853559 0.926130 0.327328
0.897260 0.922704 0.356629
0.939090 0.916877 0.401536
0.985786 0.908348 0.500314
1.000001 0.902366 0.576177
1.000001 0.897943 0.643268
1.000001 0.895368 0.703141
1.000001 0.895180 0.754620
1.000001 0.897602 0.797686
1.000001 0.902716 0.834676
1.000001 0.910168 0.865688
1.000001 0.919826 0.892745
0.087464 0.960672 0.408564
0.087463 0.960655 0.408472
0.087466 0.960631 0.408351
0.087472 0.960601 0.408193
0.087497 0.960543 0.407892
0.087606 0.960425 0.407283
0.087915 0.960260 0.406434
0.088605 0.960058 0.405408
0.089946 0.959825 0.404245
0.092367 0.959561 0.402957
0.096582 0.959257 0.401524
0.103710 0.958905 0.399926
0.115975 0.958477 0.398083
0.137348 0.957948 0.395946
0.176774 0.957278 0.393442
0.257041 0.956421 0.390569
0.393877 0.955331 0.387457
0.512299 0.953956 0.384456
0.613343 0.952265 0.382318
0.698068 0.950278 0.382248
0.770313 0.947938 0.385892
0.829813 0.945302 0.395132
0.877308 0.942465 0.411218
0.915874 0.939393 0.435356
0.951568 0.934405 0.470810
0.995033 0.926438 0.559951
1.000001 0.921128 0.626686
1.000001 0.917135 0.687213
1.000001 0.914851 0.740438
1.000001 0.914624 0.785633
1.000001 0.916674 0.824800
1.000001 0.921007 0.857777
1.000001 0.927663 0.886560
0.123569 0.973151 0.478375
0.123552 0.973136 0.478293
0.123534 0.973115 0.478185
0.123513 0.973089 0.478043
0.123487 0.973040 0.477775
0.123494 0.972938 0.477232
0.123664 0.972796 0.476478
0.124194 0.972624 0.475574
0.125362 0.972427 0.474561
0.127598 0.972208 0.473456
0.131597 0.971960 0.472252
0.138419 0.971678 0.470945
0.150109 0.971343 0.469479
0.170144 0.970937 0.467821
0.205929 0.970429 0.465910
0.274640 0.969784 0.463712
0.386468 0.968960 0.461251
0.491913 0.967913 0.458662
0.587366 0.966604 0.456314
0.670915 0.965041 0.454900
0.744516 0.963170 0.455397
0.806664 0.961029 0.459164
0.857213 0.958692 0.467422
0.898861 0.956129 0.481539
0.931751 0.953459 0.501633
0.963650 0.948978 0.532288
1.000001 0.941772 0.611508
1.000001 0.936901 0.672688
1.000001 0.933372 0.726537
1.000001 0.931382 0.773211
1.000001 0.931157 0.814232
1.000001 0.932916 0.849076
1.000001 0.936840 0.879623
0.121912 0.972343 0.475526
0.175235 0.983822 0.539697
0.175185 0.983804 0.539599
0.175123 0.983782 0.539472
0.175020 0.983739 0.539230
0.174876 0.983651 0.538739
0.174847 0.983530 0.538061
0.175158 0.983382 0.537252
0.176115 0.983216 0.536352
0.178166 0.983032 0.535381
0.182027 0.982828 0.534339
0.188765 0.982600 0.533230
0.200378 0.982335 0.532017
0.220155 0.982021 0.530678
0.254776 0.981635 0.529167
0.316891 0.981148 0.527444
0.401532 0.980530 0.525496
0.487518 0.979738 0.523353
0.571729 0.978739 0.521184
0.649844 0.977525 0.519374
0.721794 0.976048 0.518473
0.784685 0.974330 0.519384
0.837195 0.972427 0.523069
0.881330 0.970312 0.530670
0.916734 0.968080 0.542770
0.945728 0.965693 0.560219
0.972835 0.961871 0.585309
1.000001 0.955187 0.657645
1.000001 0.950766 0.713272
1.000001 0.947670 0.760603
1.000001 0.945858 0.803005
1.000001 0.945630 0.839510
1.000001 0.947219 0.871793
0.249563 0.992691 0.592688
0.249486 0.992680 0.592621
0.249385 0.992665 0.592532
0.249257 0.992645 0.592415
0.249032 0.992608 0.592195
0.248648 0.992532 0.591748
0.248307 0.992428 0.591133
0.248290 0.992302 0.590400
0.248950 0.992160 0.589590
0.250791 0.992005 0.588721
0.254590 0.991834 0.587800
0.261485 0.991648 0.586833
