luts/RED_709_C2R4.cube
# RED Digital Cinema Output Transform LUT for IPP2
# LUT Name = RWG_Log3G10 to REC709_BT1886 with MEDIUM_CONTRAST and R_4_VerySoft size_33 v1.13
# Generated by version 1.13
# Settings used in creation of this LUT are:
# Development Color Space = REC709
# Output Gamma Curve = BT1886
# Output Tonemap = MEDIUM_CONTRAST
# Highlight Rolloff = Rolloff 4 - very soft
# Resolution = 33 x 33 x 33
TITLE "RED IPP2 LUT to map REDWideGamutRGB/Log3G10 to REC709/BT1886/MEDIUM_CONTRAST/Rolloff 4 - very soft"
LUT_3D_SIZE 9
0.000000 0.000000 0.000000
0.087482 0.003505 0.003505
0.324592 0.016750 0.024617
0.622158 0.051254 0.072776
0.850878 0.115112 0.162556
0.978073 0.287036 0.389671
1.000001 0.575519 0.630893
1.000001 0.766479 0.796373
1.000001 0.883260 0.899456
0.003505 0.080725 0.003505
0.062664 0.073171 0.003505
0.320438 0.033714 0.019223
0.622302 0.059284 0.069835
0.851964 0.120160 0.161864
0.978817 0.292927 0.391775
1.000001 0.578772 0.633216
1.000001 0.768565 0.798131
1.000001 0.884611 0.900643
0.003505 0.308427 0.003897
0.003505 0.306515 0.003873
0.258980 0.286535 0.003721
0.614056 0.223915 0.044263
0.856225 0.190449 0.150006
0.983036 0.348426 0.402451
1.000001 0.601762 0.647869
1.000001 0.782370 0.809473
1.000001 0.893407 0.908331
0.003721 0.587747 0.009559
0.003761 0.587118 0.009522
0.009387 0.580633 0.008895
0.518093 0.556291 0.007156
0.834731 0.499656 0.095400
0.981082 0.497895 0.377743
1.000001 0.641636 0.655279
1.000001 0.798042 0.818990
1.000001 0.902267 0.915505
0.005907 0.785824 0.044467
0.006020 0.785566 0.044392
0.008516 0.783223 0.043499
0.142728 0.774663 0.039525
0.717847 0.754347 0.039565
0.955370 0.710297 0.250881
1.000001 0.720267 0.622234
1.000001 0.811875 0.810853
1.000001 0.903847 0.913388
0.028382 0.907203 0.166256
0.028523 0.907073 0.165984
0.031143 0.906042 0.163817
0.064388 0.903168 0.157788
0.518886 0.895760 0.148088
0.851583 0.880991 0.178649
1.000001 0.850482 0.539550
1.000001 0.857515 0.780022
1.000001 0.909434 0.902456
0.123577 0.973141 0.478378
0.123524 0.973069 0.477995
0.124675 0.972540 0.475207
0.147645 0.971412 0.469857
0.382717 0.968999 0.461461
0.744444 0.963179 0.455524
0.931760 0.953466 0.501740
1.000001 0.933380 0.726559
1.000001 0.936845 0.879630
0.455136 1.000001 0.681920
0.454683 1.000001 0.681657
0.452359 1.000001 0.679773
0.459947 1.000001 0.676546
0.522911 1.000001 0.672712
0.691905 1.000001 0.667406
0.873813 0.998685 0.667130
0.977265 0.992650 0.696409
1.000001 0.979370 0.845454
0.693616 1.000001 0.808690
0.693325 1.000001 0.808506
0.691376 1.000001 0.807188
0.689967 1.000001 0.805000
0.698929 1.000001 0.802732
0.744860 1.000001 0.799992
0.845213 1.000001 0.796863
0.944589 1.000001 0.798660
1.000001 1.000001 0.817947
0.003505 0.003505 0.074036
0.084988 0.003505 0.072695
0.324183 0.014305 0.048554
0.622081 0.049701 0.083827
0.850877 0.114248 0.168777
0.978091 0.286545 0.392096
1.000001 0.575538 0.631328
1.000001 0.766553 0.796504
1.000001 0.883321 0.899521
0.003505 0.065413 0.061621
0.058071 0.058073 0.058076
0.319894 0.028796 0.040648
0.622122 0.057399 0.080949
0.851891 0.119172 0.168232
0.978799 0.292267 0.394149
1.000001 0.578666 0.633556
1.000001 0.768553 0.798189
1.000001 0.884615 0.900659
0.003505 0.305209 0.004705
0.003505 0.304002 0.004598
0.258214 0.283641 0.004240
0.613857 0.220960 0.051375
0.856155 0.189011 0.155356
0.983021 0.347851 0.404538
1.000001 0.601679 0.648159
1.000001 0.782363 0.809524
1.000001 0.893413 0.908346
0.003721 0.586856 0.010950
0.003761 0.586659 0.010838
0.009236 0.580121 0.010195
0.517986 0.555686 0.008118
0.834652 0.499118 0.098466
0.981067 0.497633 0.379756
1.000001 0.641580 0.655530
1.000001 0.798042 0.819036
1.000001 0.902277 0.915521
0.005891 0.785513 0.045479
0.006010 0.785539 0.045438
0.008493 0.783186 0.044612
0.142446 0.774607 0.040687
0.717886 0.754276 0.040815
0.955350 0.710255 0.252848
1.000001 0.720254 0.622504
1.000001 0.811879 0.810901
1.000001 0.903858 0.913406
0.028309 0.907061 0.166849
0.028534 0.907107 0.166941
0.031150 0.906073 0.164828
0.064378 0.903196 0.158875
0.518885 0.895786 0.149211
0.850002 0.879458 0.178636
1.000001 0.850513 0.539903
1.000001 0.857535 0.780076
1.000001 0.909447 0.902475
0.123307 0.973065 0.478228
0.123632 0.973098 0.478413
0.124778 0.972568 0.475645
0.147744 0.971439 0.470333
0.382809 0.969026 0.461981
0.744486 0.963207 0.456069
0.931798 0.953494 0.502194
1.000001 0.933410 0.726641
1.000001 0.936865 0.879650
0.454541 1.000001 0.681690
0.454951 1.000001 0.681823
0.452624 1.000001 0.679942
0.460190 1.000001 0.676721
0.523074 1.000001 0.672894
0.691974 1.000001 0.667594
0.873850 0.998704 0.667317
0.977290 0.992670 0.696576
1.000001 0.979392 0.845491
0.693294 1.000001 0.808509
0.693474 1.000001 0.808604
0.691524 1.000001 0.807286
0.690112 1.000001 0.805099
0.699059 1.000001 0.802832
0.744950 1.000001 0.800094
0.845261 1.000001 0.796967
0.944616 1.000001 0.798760
1.000001 1.000001 0.818040
0.013767 0.004544 0.286496
0.040917 0.004426 0.286450
0.318844 0.004352 0.283626
0.620098 0.035087 0.255613
0.849893 0.103930 0.262518
0.977816 0.278510 0.419521
1.000001 0.574028 0.635403
1.000001 0.766259 0.797106
1.000001 0.883281 0.899635
0.007876 0.007254 0.285124
0.027156 0.006690 0.284488
0.314333 0.005712 0.281472
0.620080 0.040779 0.252698
0.850896 0.108491 0.261430
0.978522 0.284196 0.421246
1.000001 0.577174 0.637553
1.000001 0.768258 0.798774
1.000001 0.884574 0.900769
0.003505 0.266890 0.257527
0.003505 0.265414 0.256800
0.248767 0.248774 0.248793
0.610582 0.184797 0.216723
0.854539 0.171788 0.242687
0.982482 0.338976 0.429669
1.000001 0.599452 0.651056
1.000001 0.781481 0.809506
1.000001 0.892981 0.908092
0.003663 0.576766 0.058256
0.003663 0.576552 0.057698
0.007660 0.573118 0.052144
0.516037 0.547432 0.053821
0.832855 0.491810 0.147841
0.980501 0.493552 0.404245
1.000001 0.639941 0.657929
1.000001 0.797302 0.818974
1.000001 0.901909 0.915294
0.005688 0.782426 0.063306
0.005798 0.782450 0.063202
0.008166 0.782136 0.061981
0.138848 0.773300 0.059356
0.717854 0.752762 0.061402
0.954665 0.709317 0.280267
1.000001 0.719601 0.625075
1.000001 0.811340 0.810833
1.000001 0.903535 0.913188
0.027661 0.905877 0.178297
0.027890 0.905922 0.178354
0.031072 0.906139 0.178469
0.064065 0.903215 0.173803
0.518576 0.895755 0.164858
0.851921 0.880959 0.200051
1.000001 0.850639 0.543524
1.000001 0.857460 0.780004
1.000001 0.909241 0.902240
0.121322 0.972498 0.479125
0.121648 0.972531 0.479294
0.125413 0.972733 0.480398
0.148317 0.971595 0.475621
0.383259 0.969175 0.467875
0.744736 0.963351 0.462346
0.932047 0.953641 0.507339
1.000001 0.933624 0.726904
1.000001 0.936905 0.879380
0.450275 1.000001 0.680397
0.450691 1.000001 0.680528
0.454439 1.000001 0.681418
0.461834 1.000001 0.678281
0.524171 1.000001 0.674550
0.692428 1.000001 0.669347
0.874103 0.998825 0.669085
0.977463 0.992797 0.698119
1.000001 0.979554 0.845398
0.691004 1.000001 0.807290
0.691185 1.000001 0.807385
0.692559 1.000001 0.808035
0.691118 1.000001 0.805864
0.699962 1.000001 0.803615
0.745576 1.000001 0.800898
0.845584 1.000001 0.797788
0.944804 1.000001 0.799567
1.000001 1.000001 0.818772
0.036871 0.007715 0.555674
0.047961 0.007576 0.555955
0.281607 0.006362 0.556574
0.601053 0.007193 0.551089
0.839354 0.064755 0.521315
0.973287 0.228630 0.530674
1.000001 0.554619 0.652505
1.000001 0.757609 0.795281
1.000001 0.878583 0.896473
0.032374 0.009514 0.556470
0.043188 0.009240 0.556278
0.275318 0.007485 0.556870
0.600588 0.008303 0.551347
0.840245 0.067858 0.521481
0.973990 0.233360 0.531665
1.000001 0.557898 0.654281
1.000001 0.759629 0.796865
1.000001 0.879885 0.897595
0.007477 0.104262 0.554924
0.009934 0.101775 0.554751
0.193405 0.079175 0.552064
0.588197 0.053182 0.547178
0.842851 0.110829 0.517621
0.977856 0.282731 0.536174
1.000001 0.581234 0.665451
1.000001 0.772994 0.807066
1.000001 0.888349 0.904839
0.003505 0.531201 0.517682
0.003505 0.530869 0.517538
0.004316 0.526193 0.515222
0.504299 0.504309 0.504343
0.816938 0.450748 0.476829
0.974558 0.463187 0.519467
1.000001 0.623466 0.669905
1.000001 0.788092 0.815121
1.000001 0.896637 0.911321
0.004774 0.768867 0.360110
0.004846 0.768888 0.359762
0.006403 0.768499 0.356275
0.119442 0.763185 0.342714
0.715076 0.741220 0.363033
0.947463 0.701269 0.433040
1.000001 0.712268 0.637991
1.000001 0.804207 0.806709
1.000001 0.898651 0.909167
0.025137 0.901898 0.317281
0.025366 0.901945 0.317132
0.028565 0.902167 0.315688
0.061062 0.901356 0.309438
0.514912 0.893529 0.312670
0.851662 0.878524 0.353311
1.000001 0.849828 0.562994
1.000001 0.854978 0.775355
1.000001 0.905628 0.897847
0.116944 0.971136 0.503397
0.117273 0.971169 0.503490
0.121122 0.971373 0.504074
0.147866 0.971439 0.504253
0.381862 0.968946 0.500408
0.744593 0.963048 0.497513
0.932270 0.953323 0.536161
1.000001 0.933958 0.724300
1.000001 0.935880 0.874310
0.442712 1.000001 0.682527
0.443141 1.000001 0.682640
0.447061 1.000001 0.683409
0.463890 1.000001 0.684463
0.525425 1.000001 0.681436
0.692879 1.000001 0.676936
0.874394 0.998881 0.676926
0.977694 0.992861 0.704725
1.000001 0.979924 0.841360
0.687219 1.000001 0.806235
0.687399 1.000001 0.806324
0.688787 1.000001 0.806942
0.692625 1.000001 0.807867
0.701295 1.000001 0.805764
0.746484 1.000001 0.803203
0.846045 1.000001 0.800226
0.945075 1.000001 0.801999
1.000001 1.000001 0.820889
0.049170 0.009671 0.760669
0.055072 0.009569 0.760997
0.208449 0.008468 0.762438
0.583715 0.006776 0.761144
0.801847 0.013354 0.751365
0.960707 0.128384 0.718356
1.000001 0.483569 0.722552
1.000001 0.730259 0.800192
1.000001 0.864528 0.889475
0.046432 0.010711 0.761871
0.052519 0.010563 0.761828
0.200019 0.009268 0.763258
0.582501 0.007286 0.761927
0.802434 0.014301 0.752239
0.961410 0.131061 0.719219
1.000001 0.487486 0.723677
1.000001 0.732411 0.801520
1.000001 0.865888 0.890560
0.023192 0.034570 0.765876
0.026286 0.034136 0.765851
0.114955 0.029504 0.764710
0.560359 0.022009 0.763591
0.802880 0.029042 0.755701
0.965086 0.159408 0.723921
1.000001 0.515721 0.730869
1.000001 0.746682 0.810140
1.000001 0.874731 0.897585
0.005052 0.419138 0.756170
0.005339 0.418166 0.756154
0.017072 0.407850 0.755421
0.456082 0.371467 0.750650
0.779855 0.326874 0.744911
0.959559 0.353535 0.720083
1.000001 0.570311 0.734972
1.000001 0.763179 0.817174
1.000001 0.883306 0.903804
0.003663 0.731907 0.718661
0.003663 0.731891 0.718688
0.003972 0.731085 0.718469
0.079508 0.724044 0.714821
0.705294 0.705306 0.705343
0.927292 0.669281 0.686010
1.000001 0.684276 0.715758
1.000001 0.782629 0.809063
1.000001 0.884742 0.900581
0.017509 0.889846 0.622004
0.017699 0.889895 0.621927
0.020367 0.890115 0.621186
0.049356 0.889151 0.618022
0.499251 0.883597 0.609288
0.848831 0.867532 0.623712
0.995481 0.842892 0.660538
1.000001 0.846624 0.778959
1.000001 0.895372 0.888445
0.106569 0.967530 0.611953
0.106893 0.967565 0.611930
0.110702 0.967787 0.611700
0.137498 0.967855 0.610678
0.370450 0.966610 0.607054
0.741977 0.960344 0.611113
0.931698 0.950468 0.633902
1.000001 0.933235 0.735070
1.000001 0.932746 0.863648
0.431615 1.000001 0.706845
0.432068 1.000001 0.706906
0.436265 1.000001 0.707314
0.454677 1.000001 0.707795
0.524123 1.000001 0.707523
0.691926 1.000001 0.706019
0.874109 0.998254 0.707270
0.977691 0.992227 0.730324
1.000001 0.980304 0.834244
0.683050 1.000001 0.810500
0.683231 1.000001 0.810574
0.684644 1.000001 0.811082
0.688671 1.000001 0.811835
0.702038 1.000001 0.812347
0.746883 1.000001 0.810546
0.846194 1.000001 0.808233
0.945190 1.000001 0.810108
1.000001 1.000001 0.827749
0.045165 0.008030 0.900025
0.048117 0.007977 0.900297
0.106320 0.007401 0.901720
0.572866 0.006150 0.901473
0.802468 0.006125 0.896741
0.925522 0.024727 0.882654
1.000001 0.284646 0.849521
1.000001 0.671812 0.847841
1.000001 0.839913 0.892228
0.043479 0.008376 0.901075
0.046614 0.008314 0.901082
0.103282 0.007687 0.902496
0.571529 0.006336 0.902229
0.802647 0.006328 0.897455
0.926183 0.025475 0.883483
1.000001 0.289242 0.850313
1.000001 0.674347 0.848715
1.000001 0.841411 0.893146
0.027299 0.016288 0.905875
0.029236 0.016146 0.905893
0.071433 0.014562 0.905457
0.543129 0.011180 0.905009
0.796601 0.011609 0.899876
0.929378 0.034782 0.888145
1.000001 0.326510 0.855561
1.000001 0.691172 0.854563
1.000001 0.851133 0.899158
0.006107 0.179380 0.901331
0.006377 0.178046 0.901354
0.015317 0.163091 0.901019
0.373047 0.122844 0.898059
0.759718 0.096781 0.895157
0.924528 0.117326 0.887893
1.000001 0.425300 0.861345
1.000001 0.711054 0.861148
1.000001 0.860406 0.904952
0.004852 0.662970 0.883876
0.004930 0.662732 0.883916
0.006499 0.659896 0.883949
0.068013 0.647117 0.882217
0.671197 0.620289 0.877133
0.897581 0.598513 0.872160
1.000001 0.616649 0.855286
1.000001 0.739888 0.859777
1.000001 0.862458 0.903302
0.006171 0.863967 0.853042
0.005771 0.854627 0.843512
0.007036 0.864104 0.853328
0.022483 0.862566 0.852691
0.471924 0.855478 0.848846
0.841834 0.841845 0.841880
0.980223 0.820098 0.829560
1.000001 0.825799 0.842975
1.000001 0.877668 0.893277
0.080734 0.957932 0.796026
0.081010 0.957969 0.796016
0.084291 0.958201 0.795910
0.107788 0.958240 0.795293
0.335163 0.956779 0.792795
0.733104 0.951890 0.787000
0.929257 0.941330 0.796070
1.000001 0.927211 0.810634
1.000001 0.926505 0.870882
0.405094 1.000001 0.787919
0.405610 1.000001 0.787920
0.410404 1.000001 0.787906
0.431679 1.000001 0.787731
0.510573 1.000001 0.786879
0.686388 1.000001 0.784199
0.872037 0.995471 0.787965
0.976986 0.989342 0.801123
1.000001 0.979323 0.848028
0.676582 1.000001 0.834477
0.676768 1.000001 0.834513
0.678241 1.000001 0.834764
0.682526 1.000001 0.835110
0.697011 1.000001 0.835239
0.745560 1.000001 0.834719
0.845286 1.000001 0.834571
0.944786 1.000001 0.836873
1.000001 1.000001 0.850634
0.025366 0.004960 0.985310
0.026427 0.004945 0.985506
0.044802 0.004780 0.986647
0.551416 0.004270 0.986328
0.829288 0.004104 0.984126
0.939305 0.005135 0.975860
0.991566 0.045452 0.958953
1.000001 0.548242 0.928808
1.000001 0.797783 0.924711
0.024405 0.004994 0.986083
0.025590 0.004980 0.986103
0.043466 0.004814 0.987239
0.549764 0.004288 0.986905
0.829826 0.004130 0.984690
0.939771 0.005196 0.976378
0.992023 0.046207 0.959549
1.000001 0.551764 0.929385
1.000001 0.799552 0.925328
0.016068 0.005798 0.990271
0.016828 0.005774 0.990296
0.030970 0.005540 0.990215
0.518681 0.004687 0.989766
0.827513 0.004449 0.987407
0.939823 0.006529 0.978618
0.994702 0.054224 0.963259
1.000001 0.575087 0.933372
1.000001 0.810988 0.929504
0.004021 0.063197 0.984984
0.004051 0.062761 0.985019
0.004786 0.058406 0.985018
0.166601 0.040481 0.982396
0.752269 0.032751 0.980163
0.921558 0.038592 0.974986
0.995145 0.100701 0.965833
1.000001 0.603227 0.939492
1.000001 0.821395 0.934939
0.003505 0.580415 0.974308
0.003505 0.579802 0.974334
0.003721 0.572314 0.974270
0.033502 0.528344 0.971925
0.624495 0.473158 0.968660
0.885162 0.434041 0.965547
0.985691 0.459891 0.960280
1.000001 0.654751 0.942441
1.000001 0.824007 0.937482
0.006482 0.825561 0.955224
0.006532 0.825522 0.955265
0.007363 0.824966 0.955479
0.020578 0.821373 0.955131
0.347759 0.810470 0.952898
0.820828 0.792550 0.948567
0.961680 0.781594 0.945041
1.000001 0.786974 0.934980
1.000001 0.848391 0.934599
0.038206 0.941563 0.933331
0.038364 0.941597 0.933368
0.040322 0.941795 0.933606
0.055393 0.941678 0.933718
0.215921 0.939654 0.932675
0.722000 0.933604 0.929324
0.924744 0.924754 0.924785
1.000001 0.912264 0.917362
1.000001 0.912843 0.922190
0.331598 0.994393 0.900455
0.332259 0.994417 0.900464
0.338590 0.994578 0.900512
0.367582 0.994746 0.900477
0.469700 0.994473 0.899925
0.674600 0.992821 0.897844
0.866794 0.989026 0.894128
0.975122 0.982495 0.899376
1.000001 0.974419 0.904275
0.662740 1.000001 0.892747
0.662942 1.000001 0.892754
0.664531 1.000001 0.892797
0.669250 1.000001 0.892819
0.685392 1.000001 0.892655
0.738880 1.000001 0.891864
0.841828 1.000001 0.889928
0.943201 1.000001 0.892695
1.000001 1.000001 0.900196
0.006957 0.003663 1.000001
0.007091 0.003663 1.000001
0.009813 0.003663 1.000001
0.097836 0.003505 1.000001
0.889673 0.003505 1.000001
0.982234 0.003505 1.000001
1.000001 0.004516 1.000001
1.000001 0.082882 0.999991
1.000001 0.726082 0.974006
0.006712 0.003663 1.000001
0.006875 0.003663 1.000001
0.009397 0.003663 1.000001
0.094721 0.003505 1.000001
0.890845 0.003505 1.000001
0.983033 0.003505 1.000001
1.000001 0.004523 1.000001
1.000001 0.083901 1.000001
1.000001 0.728342 0.974400
0.005152 0.003663 1.000001
0.005226 0.003663 1.000001
0.006690 0.003663 1.000001
0.069483 0.003505 1.000001
0.895143 0.003505 1.000001
0.986703 0.003505 1.000001
1.000001 0.004915 1.000001
1.000001 0.093271 1.000001
1.000001 0.742833 0.977153
0.003663 0.004662 1.000001
0.003663 0.004643 1.000001
0.003721 0.004516 1.000001
0.015752 0.004118 1.000001
0.852133 0.003721 1.000001
0.969633 0.003897 1.000001
1.000001 0.020588 1.000001
1.000001 0.132374 1.000001
1.000001 0.754971 0.981771
0.003505 0.459435 1.000001
0.003505 0.458194 1.000001
0.003505 0.444595 1.000001
0.003505 0.355902 1.000001
0.513366 0.169855 1.000001
0.879609 0.142022 1.000001
0.984077 0.168095 1.000001
1.000001 0.354549 1.000001
1.000001 0.758634 0.985941
0.003505 0.808883 1.000001
0.003505 0.808723 1.000001
0.003505 0.806444 1.000001
0.003663 0.788530 1.000001
0.133379 0.755502 1.000001
0.796124 0.727663 1.000001
0.954423 0.712691 1.000001
1.000001 0.722292 0.996859
1.000001 0.800926 0.986281
0.019322 0.921155 0.992934
0.019385 0.921159 0.992963
0.020326 0.921128 0.993144
0.028621 0.920390 0.993229
0.106823 0.916906 0.992503
0.676270 0.908546 0.990340
0.912709 0.897577 0.987172
0.995215 0.891919 0.984941
1.000001 0.891843 0.979155
0.185576 0.984613 0.978670
0.185959 0.984637 0.978696
0.189834 0.984789 0.978866
0.211401 0.984917 0.979063
0.349448 0.984478 0.978904
0.642182 0.982327 0.977712
0.861934 0.977768 0.975166
0.972371 0.972379 0.972405
1.000001 0.965131 0.967964
0.633057 1.000001 0.959263
0.633282 1.000001 0.959274
0.635078 1.000001 0.959347
0.640591 1.000001 0.959429
0.659843 1.000001 0.959361
0.722381 1.000001 0.958784
0.836577 1.000001 0.957145
0.940113 1.000001 0.954868
1.000001 1.000001 0.957923
0.003663 0.003505 1.000001
0.003663 0.003505 1.000001
0.003721 0.003505 1.000001
0.005624 0.003505 1.000001
0.865419 0.003505 1.000001
1.000001 0.003505 1.000001
1.000001 0.003505 1.000001
1.000001 0.004434 1.000001
1.000001 0.153497 1.000001
0.003663 0.003505 1.000001
0.003663 0.003505 1.000001
0.003721 0.003505 1.000001
0.005465 0.003505 1.000001
0.863596 0.003505 1.000001
1.000001 0.003505 1.000001
1.000001 0.003505 1.000001
1.000001 0.004434 1.000001
1.000001 0.155292 1.000001
0.003505 0.003505 1.000001
0.003505 0.003505 1.000001
0.003663 0.003505 1.000001
0.004523 0.003505 1.000001
0.843993 0.003505 1.000001
1.000001 0.003505 1.000001
1.000001 0.003505 1.000001
1.000001 0.004571 1.000001
1.000001 0.170273 1.000001
0.003505 0.003505 1.000001
0.003505 0.003505 1.000001
0.003505 0.003505 1.000001
0.003663 0.003505 1.000001
0.725144 0.003505 1.000001
1.000001 0.003505 1.000001
1.000001 0.003505 1.000001
1.000001 0.012288 1.000001
1.000001 0.217285 1.000001
0.003505 0.015746 1.000001
0.003505 0.015422 1.000001
0.003505 0.013139 1.000001
0.003505 0.008759 1.000001
0.020691 0.004410 1.000001
0.965297 0.003990 1.000001
1.000001 0.018736 1.000001
1.000001 0.091955 1.000001
1.000001 0.393122 1.000001
0.003505 0.842275 1.000001
0.003505 0.842150 1.000001
0.003505 0.840312 1.000001
0.003505 0.825776 1.000001
0.003505 0.727722 1.000001
0.752483 0.611277 1.000001
0.950244 0.585057 1.000001
1.000001 0.608839 1.000001
1.000001 0.686520 1.000001
0.003505 0.923630 1.000001
0.003505 0.923621 1.000001
0.003505 0.923012 1.000001
0.003505 0.915429 1.000001
0.019907 0.895799 1.000001
0.570740 0.880664 1.000001
0.899412 0.865684 1.000001
0.990876 0.858709 1.000001
1.000001 0.862352 1.000001
0.073373 0.973507 1.000001
0.073444 0.973518 1.000001
0.074465 0.973577 1.000001
0.082571 0.973495 1.000001
0.136130 0.972580 1.000001
0.539829 0.969374 1.000001
0.840694 0.963463 1.000001
0.965405 0.957015 1.000001
1.000001 0.953929 1.000001
0.560499 1.000001 1.000001
0.560772 1.000001 1.000001
0.563021 1.000001 1.000001
0.570597 1.000001 1.000001
0.598376 1.000001 1.000001
0.684233 1.000001 1.000001
0.824019 1.000001 1.000001
0.937754 1.000001 1.000001
0.999994 1.000001 1.000001
