luts/RED_709_C4R3.cube
# RED Digital Cinema Output Transform LUT for IPP2
# LUT Name = RWG_Log3G10 to REC709_BT1886 with NO_CONTRAST and R_3_Soft size_33 v1.13
# Generated by version 1.13
# Settings used in creation of this LUT are:
# Development Color Space = REC709
# Output Gamma Curve = BT1886
# Output Tonemap = NO_CONTRAST
# Highlight Rolloff = Rolloff 3 - soft
# Resolution = 33 x 33 x 33
TITLE "RED IPP2 LUT to map REDWideGamutRGB/Log3G10 to REC709/BT1886/NO_CONTRAST/Rolloff 3 - soft"
LUT_3D_SIZE 9
0.000000 0.000000 0.000000
0.188065 0.003505 0.003505
0.432664 0.007747 0.011917
0.672435 0.033147 0.048466
0.856758 0.082541 0.117010
0.963373 0.187741 0.269991
1.000003 0.485699 0.571512
1.000003 0.763901 0.800241
1.000003 0.913984 0.927509
0.003505 0.180021 0.003505
0.135075 0.161329 0.003505
0.418564 0.117431 0.005121
0.677372 0.089804 0.037421
0.865574 0.120450 0.113688
0.968844 0.224747 0.285635
1.000003 0.524023 0.595556
1.000003 0.783378 0.815888
1.000003 0.923101 0.935284
0.003505 0.419590 0.003663
0.004092 0.408582 0.003505
0.339697 0.384004 0.003505
0.657395 0.331491 0.018448
0.865122 0.277624 0.095573
0.971630 0.322007 0.284346
1.000003 0.567022 0.612920
1.000003 0.800537 0.828528
1.000003 0.930669 0.941649
0.003663 0.643484 0.006823
0.004021 0.638558 0.006587
0.051721 0.628223 0.005969
0.560597 0.605993 0.005285
0.839788 0.554751 0.058302
0.967155 0.520840 0.238171
1.000003 0.624985 0.609848
1.000003 0.813190 0.833514
1.000003 0.934994 0.944911
0.004752 0.808677 0.030439
0.005399 0.806470 0.029852
0.013213 0.802597 0.028389
0.257923 0.794004 0.025429
0.738082 0.776312 0.025012
0.946601 0.734653 0.156405
1.000003 0.728068 0.565166
1.000003 0.828528 0.826427
1.000003 0.936062 0.944094
0.015859 0.913828 0.105478
0.017036 0.912788 0.104034
0.022883 0.911356 0.101885
0.065244 0.908574 0.097638
0.533049 0.902245 0.091696
0.861958 0.889839 0.105243
0.995643 0.860555 0.459778
1.000003 0.869547 0.799850
1.000003 0.937784 0.938632
0.072659 0.971917 0.377087
0.072988 0.971434 0.372458
0.077155 0.970870 0.367231
0.100941 0.970026 0.360168
0.285781 0.968243 0.348568
0.741525 0.964123 0.340156
0.938373 0.956374 0.409708
1.000003 0.938190 0.743676
1.000003 0.950793 0.925270
0.356033 0.999943 0.688203
0.350993 0.999738 0.685655
0.350803 0.999516 0.682981
0.372568 0.999247 0.680025
0.463996 0.998807 0.676250
0.664928 0.997803 0.670611
0.873773 0.995447 0.667867
0.980752 0.991121 0.704001
1.000003 0.981176 0.897267
0.747707 1.000003 0.857655
0.745270 1.000003 0.856295
0.743089 1.000003 0.854887
0.742428 1.000003 0.853416
0.748116 1.000003 0.851810
0.776182 1.000003 0.849826
0.852397 1.000003 0.847055
0.949324 1.000003 0.846265
1.000003 1.000003 0.865039
0.003505 0.003505 0.152696
0.183178 0.003505 0.152647
0.431609 0.005214 0.138499
0.672340 0.026555 0.127365
0.856958 0.076967 0.164895
0.963588 0.184241 0.303332
1.000003 0.485556 0.578698
1.000003 0.764757 0.801745
1.000003 0.914503 0.928023
0.003505 0.141940 0.132763
0.124363 0.124365 0.124374
0.416131 0.068944 0.093420
0.676286 0.073007 0.101701
0.865203 0.112318 0.157956
0.968790 0.219899 0.317359
1.000003 0.522771 0.600938
1.000003 0.783451 0.816622
1.000003 0.923231 0.935453
0.003505 0.401492 0.013580
0.003825 0.395341 0.010416
0.336060 0.368536 0.009089
0.656113 0.316402 0.051921
0.864746 0.265663 0.128741
0.971589 0.316181 0.312816
1.000003 0.566128 0.617469
1.000003 0.800653 0.829171
1.000003 0.930805 0.941812
0.003505 0.636515 0.015672
0.003917 0.635262 0.014583
0.048105 0.624469 0.013527
0.560000 0.601727 0.011597
0.839366 0.550542 0.077748
0.967100 0.518144 0.259933
1.000003 0.624398 0.614133
1.000003 0.813323 0.834119
1.000003 0.935134 0.945074
0.004662 0.805955 0.038060
0.005326 0.806135 0.037584
0.012815 0.802164 0.036451
0.255591 0.793452 0.033424
0.738420 0.775652 0.033307
0.946541 0.734111 0.169537
1.000003 0.727911 0.569931
1.000003 0.828661 0.827048
1.000003 0.936201 0.944260
0.015456 0.912664 0.110718
0.017031 0.912996 0.110970
0.022827 0.911546 0.109136
0.064950 0.908747 0.105107
0.532918 0.902398 0.099212
0.862363 0.889981 0.114006
0.995646 0.860748 0.466033
1.000003 0.869719 0.800548
1.000003 0.937916 0.938806
0.071337 0.971401 0.377521
0.073449 0.971614 0.379575
0.077585 0.971048 0.374710
0.101339 0.970202 0.368042
0.286248 0.968419 0.356829
0.741866 0.964302 0.348607
0.938646 0.956562 0.416617
1.000003 0.938394 0.744631
1.000003 0.950924 0.925462
0.348384 0.999728 0.686162
0.354396 0.999829 0.687452
0.354089 0.999607 0.684808
0.375523 0.999338 0.681890
0.465876 0.998899 0.678166
0.665649 0.997898 0.672590
0.874075 0.995548 0.669854
0.980900 0.991231 0.705694
1.000003 0.981294 0.897537
0.744994 1.000003 0.856317
0.746530 1.000003 0.857026
0.744341 1.000003 0.855621
0.743651 1.000003 0.854153
0.749247 1.000003 0.852552
0.777052 1.000003 0.850576
0.852849 1.000003 0.847815
0.949511 1.000003 0.847016
1.000003 1.000003 0.865703
0.005558 0.003663 0.371137
0.161500 0.003663 0.373540
0.425938 0.003721 0.370335
0.668711 0.015052 0.351431
0.854770 0.062871 0.332416
0.962803 0.171128 0.391802
1.000003 0.477709 0.594951
1.000003 0.763110 0.802906
1.000003 0.914050 0.927858
0.003505 0.032809 0.373439
0.074049 0.021392 0.370280
0.409181 0.014647 0.366116
0.671887 0.044226 0.339826
0.862819 0.093024 0.325347
0.967999 0.204760 0.402061
1.000003 0.515817 0.614873
1.000003 0.781875 0.817433
1.000003 0.922781 0.935250
0.003505 0.353188 0.338177
0.003505 0.345476 0.334543
0.324290 0.324299 0.324326
0.649358 0.274203 0.295848
0.861355 0.228202 0.291304
0.970479 0.294067 0.397297
1.000003 0.558901 0.629023
1.000003 0.798396 0.829119
1.000003 0.930012 0.941285
0.003505 0.619368 0.185505
0.003721 0.617913 0.178825
0.038436 0.611172 0.164747
0.556078 0.586482 0.178925
0.835598 0.535935 0.188431
0.965855 0.507507 0.341423
1.000003 0.619396 0.624821
1.000003 0.811363 0.833969
1.000003 0.934416 0.944578
0.004442 0.800315 0.083888
0.005028 0.800493 0.082060
0.011543 0.799097 0.078269
0.248078 0.789914 0.078013
0.737716 0.771657 0.082645
0.945096 0.731040 0.222748
1.000003 0.725849 0.581903
1.000003 0.827185 0.826867
1.000003 0.935537 0.943772
0.014712 0.910856 0.136856
0.016290 0.911191 0.136557
0.022352 0.911172 0.135379
0.063698 0.908279 0.133297
0.531507 0.901821 0.128692
0.862513 0.889327 0.149404
0.995164 0.860528 0.482578
1.000003 0.869207 0.800356
1.000003 0.937375 0.938290
0.069746 0.970768 0.390605
0.071866 0.970981 0.392149
0.077744 0.971127 0.393249
0.101370 0.970266 0.388534
0.285757 0.968468 0.379535
0.741979 0.964336 0.372744
0.938867 0.956592 0.435721
1.000003 0.938557 0.744977
1.000003 0.950724 0.924850
0.340577 0.999494 0.685473
0.346464 0.999594 0.686691
0.357126 0.999684 0.687832
0.378197 0.999412 0.685118
0.467532 0.998973 0.681631
0.666258 0.997971 0.676324
0.874340 0.995624 0.673731
0.981039 0.991314 0.708900
1.000003 0.981405 0.896955
0.742223 1.000003 0.855113
0.743759 1.000003 0.855809
0.745569 1.000003 0.856483
0.744851 1.000003 0.855037
0.750353 1.000003 0.853462
0.777899 1.000003 0.851517
0.853286 1.000003 0.848792
0.949692 1.000003 0.847999
1.000003 1.000003 0.864233
0.020707 0.005038 0.594731
0.114891 0.004769 0.598041
0.405216 0.004298 0.597953
0.651258 0.005033 0.592767
0.845828 0.037252 0.567757
0.958843 0.136637 0.552569
1.000003 0.443488 0.636197
1.000003 0.753205 0.803468
1.000003 0.910440 0.925561
0.008586 0.017647 0.605265
0.060776 0.014516 0.604250
0.377867 0.010438 0.603926
0.651574 0.011989 0.598406
0.853029 0.057231 0.570959
0.964028 0.164125 0.559532
1.000003 0.484807 0.651170
1.000003 0.772393 0.817067
1.000003 0.919311 0.932935
0.003761 0.251981 0.597507
0.007914 0.240028 0.596584
0.281894 0.212520 0.591915
0.626428 0.171733 0.586996
0.849952 0.147061 0.559234
0.966285 0.237223 0.557083
1.000003 0.532133 0.661697
1.000003 0.789340 0.828034
1.000003 0.926652 0.938953
0.003505 0.576584 0.560320
0.003505 0.574255 0.559424
0.021977 0.565576 0.554986
0.544524 0.544536 0.544575
0.820549 0.494369 0.516532
0.960403 0.471043 0.528346
1.000003 0.598315 0.657440
1.000003 0.801978 0.831842
1.000003 0.930686 0.941850
0.003990 0.785971 0.416988
0.004334 0.786104 0.414184
0.008478 0.784480 0.408127
0.304940 0.767757 0.438544
0.734188 0.758342 0.412192
0.938697 0.720045 0.438160
1.000003 0.716922 0.618696
1.000003 0.819962 0.824495
1.000003 0.932012 0.941016
0.012784 0.906689 0.306730
0.014277 0.907045 0.304429
0.020158 0.907016 0.300516
0.059362 0.905704 0.291749
0.525824 0.898854 0.299568
0.861830 0.886030 0.334722
0.992869 0.858793 0.533033
1.000003 0.866269 0.797669
1.000003 0.934409 0.935322
0.067011 0.969664 0.449148
0.069131 0.969884 0.449584
0.075136 0.970032 0.449616
0.100042 0.969923 0.448244
0.281772 0.968056 0.445783
0.741260 0.963842 0.443862
0.938902 0.956053 0.492670
1.000003 0.938565 0.743920
1.000003 0.949350 0.921317
0.331776 0.999184 0.690819
0.337513 0.999287 0.691839
0.348303 0.999376 0.692783
0.315213 0.995938 0.666041
0.468345 0.998976 0.690882
0.666437 0.997965 0.686530
0.874468 0.995608 0.684526
0.981145 0.991298 0.717665
1.000003 0.981497 0.893272
0.739322 1.000003 0.854605
0.740861 1.000003 0.855272
0.742701 1.000003 0.855916
0.745969 1.000003 0.856522
0.751372 1.000003 0.855045
0.778667 1.000003 0.853213
0.853672 1.000003 0.850612
0.949853 1.000003 0.849875
1.000003 1.000003 0.868114
0.036052 0.006998 0.772070
0.086250 0.006625 0.775117
0.371437 0.005868 0.776166
0.639055 0.005196 0.774348
0.817664 0.008556 0.766572
0.949897 0.080107 0.738410
1.000003 0.338126 0.731082
1.000003 0.727151 0.813317
1.000003 0.901641 0.921193
0.023572 0.014675 0.783197
0.061051 0.013196 0.783067
0.336153 0.010875 0.783992
0.633706 0.008720 0.781900
0.822886 0.015207 0.774471
0.955099 0.097279 0.745863
1.000003 0.389277 0.740369
1.000003 0.747883 0.824595
1.000003 0.910974 0.928491
0.007756 0.089430 0.784216
0.020805 0.081560 0.784202
0.217234 0.066445 0.782097
0.597789 0.051505 0.780539
0.818053 0.052253 0.774784
0.956854 0.143654 0.748267
1.000003 0.451525 0.747110
1.000003 0.766330 0.833840
1.000003 0.918696 0.934465
0.003972 0.483543 0.772114
0.005135 0.477224 0.772148
0.038883 0.462196 0.770508
0.501453 0.431320 0.765776
0.792411 0.394043 0.760947
0.948944 0.370746 0.738350
1.000003 0.540438 0.745698
1.000003 0.780611 0.837204
1.000003 0.922896 0.937289
0.003505 0.752757 0.738774
0.003663 0.752577 0.739000
0.004631 0.750168 0.737905
0.188758 0.742129 0.733636
0.724986 0.724998 0.725036
0.923729 0.688357 0.704539
1.000003 0.688953 0.724462
1.000003 0.801721 0.830322
1.000003 0.923758 0.935807
0.008436 0.896106 0.640002
0.009466 0.896469 0.639196
0.014159 0.896391 0.637555
0.048927 0.894862 0.633301
0.508607 0.889819 0.623989
0.859060 0.875840 0.638144
0.987356 0.851323 0.666443
1.000003 0.858401 0.804968
1.000003 0.927472 0.929679
0.060412 0.966925 0.601121
0.062465 0.967163 0.600593
0.068373 0.967323 0.599755
0.093175 0.967202 0.597838
0.266882 0.966183 0.592897
0.737884 0.961678 0.598413
0.938351 0.953677 0.624566
1.000003 0.937630 0.757364
1.000003 0.946165 0.914595
0.318667 0.998588 0.717681
0.324238 0.998695 0.718227
0.334955 0.998789 0.718705
0.368230 0.998839 0.718975
0.466147 0.998733 0.718577
0.665083 0.997677 0.717133
0.874111 0.995263 0.717005
0.981132 0.990929 0.744317
1.000003 0.981514 0.886779
0.736005 1.000003 0.856964
0.737555 1.000003 0.857545
0.739435 1.000003 0.858106
0.742849 1.000003 0.858629
0.752090 1.000003 0.859050
0.779151 1.000003 0.857627
0.853870 1.000003 0.855467
0.949940 1.000003 0.854974
1.000003 1.000003 0.872274
0.041983 0.007622 0.895976
0.069723 0.007298 0.898186
0.297784 0.006535 0.899200
0.628413 0.005835 0.898781
0.816049 0.005688 0.895438
0.923803 0.017236 0.885424
0.998429 0.183840 0.857626
1.000003 0.668157 0.857775
1.000003 0.885681 0.920217
0.031975 0.011356 0.904379
0.055303 0.010607 0.904521
0.252336 0.009046 0.905442
0.621109 0.007710 0.904915
0.818310 0.007616 0.901344
0.928777 0.022729 0.892050
1.000003 0.209463 0.864027
1.000003 0.693097 0.865069
1.000003 0.896000 0.926827
0.013689 0.041050 0.906464
0.024089 0.038474 0.906682
0.130133 0.032510 0.905602
0.565295 0.027013 0.905147
0.805690 0.023608 0.902349
0.929899 0.041642 0.895417
1.000003 0.253450 0.869185
1.000003 0.715480 0.871410
1.000003 0.904528 0.932332
0.005363 0.293982 0.902498
0.007641 0.280588 0.902718
0.041235 0.246054 0.901834
0.434354 0.194980 0.899592
0.771380 0.155157 0.897476
0.923040 0.153876 0.892453
1.000003 0.377218 0.871057
1.000003 0.733653 0.874984
1.000003 0.909099 0.935071
0.004385 0.687427 0.888947
0.004945 0.685438 0.889283
0.010280 0.680005 0.888956
0.116391 0.666874 0.887165
0.692137 0.642365 0.883074
0.901015 0.619011 0.879100
0.994484 0.620903 0.863492
1.000003 0.764051 0.872784
1.000003 0.910206 0.933958
0.004449 0.873558 0.863136
0.004662 0.873830 0.863517
0.005774 0.873517 0.863537
0.024865 0.871327 0.862434
0.482823 0.864839 0.858888
0.852656 0.852667 0.852699
0.977459 0.829685 0.839798
1.000003 0.839248 0.858453
1.000003 0.915206 0.928018
0.044940 0.960026 0.802533
0.046670 0.960281 0.802379
0.051773 0.960444 0.802047
0.073708 0.960279 0.801104
0.234942 0.959077 0.798337
0.727896 0.955544 0.792457
0.936441 0.946806 0.802267
1.000003 0.932920 0.824764
1.000003 0.940578 0.913166
0.291060 0.997009 0.794618
0.296287 0.997128 0.794616
0.306519 0.997233 0.794556
0.339574 0.997289 0.794317
0.449803 0.997172 0.793481
0.658780 0.996509 0.791048
0.872247 0.993902 0.794252
0.980757 0.989439 0.810299
1.000003 0.980999 0.888313
0.731136 1.000003 0.869687
0.732724 1.000003 0.870059
0.734674 1.000003 0.870413
0.738285 1.000003 0.870731
0.748189 1.000003 0.870948
0.778628 1.000003 0.870843
0.853406 1.000003 0.870054
0.949768 1.000003 0.870354
1.000003 1.000003 0.884899
0.032274 0.005794 0.971536
0.044430 0.005620 0.972856
0.119950 0.005264 0.973638
0.621161 0.004740 0.973312
0.829831 0.004564 0.972076
0.931679 0.005306 0.967644
0.981716 0.033205 0.956679
1.000003 0.518173 0.932223
1.000003 0.855621 0.936954
0.025104 0.006442 0.976629
0.035862 0.006243 0.976788
0.099287 0.005764 0.977516
0.614702 0.005052 0.977118
0.833510 0.004835 0.975833
0.935179 0.006010 0.971251
0.984673 0.038472 0.960844
1.000003 0.555707 0.936423
1.000003 0.868035 0.941568
0.012551 0.013189 0.978856
0.018040 0.012412 0.979068
0.059054 0.010748 0.978706
0.552160 0.008232 0.978196
0.817682 0.007657 0.976763
0.930558 0.012753 0.971916
0.986399 0.051883 0.963809
1.000003 0.589561 0.940363
1.000003 0.878229 0.945641
0.004352 0.103353 0.975156
0.004873 0.098668 0.975362
0.012260 0.087906 0.975030
0.256937 0.067209 0.973410
0.751522 0.056062 0.972387
0.916832 0.054120 0.969807
0.985462 0.101730 0.964284
1.000003 0.618902 0.943849
1.000003 0.883451 0.948372
0.003761 0.585880 0.969356
0.003917 0.580071 0.969543
0.005754 0.563098 0.969182
0.070618 0.525218 0.967873
0.642722 0.475439 0.965921
0.888018 0.430767 0.963972
0.979159 0.440433 0.960241
1.000003 0.675483 0.945235
1.000003 0.884804 0.949181
0.005430 0.833761 0.957226
0.005798 0.833304 0.957504
0.007724 0.831820 0.957581
0.026857 0.827364 0.957094
0.352996 0.817060 0.955501
0.830898 0.799923 0.952456
0.963183 0.787064 0.949646
1.000003 0.797769 0.940108
1.000003 0.893435 0.947074
0.018866 0.946439 0.939559
0.019777 0.946675 0.939830
0.022701 0.946786 0.940020
0.036337 0.946450 0.939933
0.150126 0.944743 0.939017
0.713989 0.940162 0.936458
0.932481 0.932489 0.932514
1.000003 0.919670 0.925297
1.000003 0.929092 0.938470
0.230300 0.993050 0.905767
0.234546 0.993182 0.905791
0.243051 0.993297 0.905778
0.270897 0.993353 0.905650
0.393998 0.993201 0.905134
0.643059 0.992404 0.903493
0.866883 0.990240 0.900134
0.979595 0.985347 0.906112
1.000003 0.978318 0.920584
0.720739 1.000003 0.907640
0.722428 1.000003 0.907735
0.724526 1.000003 0.907815
0.728475 1.000003 0.907863
0.739408 1.000003 0.907818
0.772838 1.000003 0.907461
0.850855 1.000003 0.906303
0.948815 1.000003 0.908053
1.000003 1.000003 0.916895
0.011213 0.003873 1.000003
0.013725 0.003825 1.000003
0.027784 0.003761 1.000003
0.235230 0.003663 1.000003
0.876737 0.003505 1.000003
0.962988 0.003663 1.000003
0.994737 0.004208 1.000003
1.000003 0.066284 0.993841
1.000003 0.790211 0.975193
0.008012 0.003825 1.000003
0.010114 0.003825 1.000003
0.020956 0.003761 1.000003
0.188184 0.003663 1.000003
0.884839 0.003505 1.000003
0.968294 0.003505 1.000003
0.997156 0.004250 1.000003
1.000003 0.073263 0.995927
1.000003 0.807411 0.977592
0.005231 0.003990 1.000003
0.005884 0.003972 1.000003
0.011728 0.003897 1.000003
0.122016 0.003721 1.000003
0.880798 0.003663 1.000003
0.968609 0.003663 1.000003
0.996966 0.004965 1.000003
1.000003 0.086183 0.997621
1.000003 0.821299 0.979912
0.003663 0.008854 1.000003
0.003721 0.008229 1.000003
0.004092 0.007375 1.000003
0.035080 0.005897 1.000003
0.818451 0.004692 1.000003
0.947487 0.005126 1.000003
0.988762 0.021107 1.000003
1.000003 0.121173 0.998543
1.000003 0.827658 0.982236
0.003505 0.356408 1.000003
0.003505 0.341348 1.000003
0.003505 0.310439 1.000003
0.003825 0.233417 1.000003
0.496491 0.139980 1.000003
0.878651 0.117776 1.000003
0.977102 0.127504 1.000003
1.000003 0.274853 0.997872
1.000003 0.829265 0.984377
0.003505 0.801984 1.000003
0.003505 0.800206 1.000003
0.003505 0.794526 1.000003
0.004079 0.772174 1.000003
0.127885 0.737619 0.999604
0.798641 0.705382 0.998209
0.956209 0.684032 0.996819
1.000003 0.701035 0.994439
1.000003 0.846858 0.985234
0.010090 0.924978 0.992479
0.010497 0.924938 0.992637
0.012137 0.924659 0.992747
0.020092 0.923556 0.992701
0.077164 0.920219 0.992240
0.641937 0.913005 0.991057
0.919628 0.902303 0.989089
0.994814 0.895961 0.987348
1.000003 0.906094 0.982147
0.121842 0.985728 0.981675
0.124062 0.985862 0.981825
0.128908 0.985972 0.981957
0.145557 0.985998 0.982036
0.225765 0.985732 0.981931
0.585357 0.984588 0.981290
0.859810 0.981741 0.979671
0.977394 0.977399 0.977417
1.000003 0.971005 0.973795
0.693421 1.000003 0.964579
0.695336 1.000003 0.964629
0.697762 1.000003 0.964670
0.702446 1.000003 0.964690
0.715594 1.000003 0.964646
0.755366 1.000003 0.964380
0.844236 1.000003 0.963487
0.946146 1.000003 0.961725
1.000003 1.000003 0.964934
0.003721 0.003505 1.000003
0.003721 0.003505 1.000003
0.003917 0.003505 1.000003
0.006952 0.003505 1.000003
0.634601 0.003505 1.000003
1.000003 0.003505 1.000003
1.000003 0.003505 1.000003
1.000003 0.003505 1.000003
1.000003 0.144558 1.000003
0.003663 0.003505 1.000003
0.003663 0.003505 1.000003
0.003721 0.003505 1.000003
0.005339 0.003505 1.000003
0.527070 0.003505 1.000003
1.000003 0.003505 1.000003
1.000003 0.003505 1.000003
1.000003 0.003505 1.000003
1.000003 0.158700 1.000003
0.003505 0.003505 1.000003
0.003505 0.003505 1.000003
0.003505 0.003505 1.000003
0.004250 0.003505 1.000003
0.322931 0.003505 1.000003
1.000003 0.003505 1.000003
1.000003 0.003505 1.000003
1.000003 0.003505 1.000003
1.000003 0.178941 1.000003
0.003505 0.003505 1.000003
0.003505 0.003505 1.000003
0.003505 0.003505 1.000003
0.003663 0.003505 1.000003
0.122553 0.003505 1.000003
1.000003 0.003505 1.000003
1.000003 0.003505 1.000003
1.000003 0.003721 1.000003
1.000003 0.218665 1.000003
0.003505 0.004176 1.000003
0.003505 0.004051 1.000003
0.003505 0.003936 1.000003
0.003505 0.003793 1.000003
0.005733 0.003505 1.000003
0.987533 0.003505 1.000003
1.000003 0.003505 1.000003
1.000003 0.038033 1.000003
1.000003 0.342842 1.000003
0.003505 0.815154 1.000003
0.003505 0.812995 1.000003
0.003505 0.807277 1.000003
0.003505 0.786747 1.000003
0.003505 0.686036 1.000003
0.701487 0.351838 1.000003
0.953235 0.295589 1.000003
1.000003 0.378180 1.000003
1.000003 0.651693 1.000003
0.003505 0.941814 1.000003
0.003505 0.941724 1.000003
0.003505 0.940474 1.000003
0.003505 0.934400 1.000003
0.003505 0.904884 1.000003
0.289413 0.872809 1.000003
0.900950 0.853468 1.000003
0.991599 0.843879 1.000003
1.000003 0.857381 1.000003
0.033605 0.975583 1.000003
0.033831 0.975622 1.000003
0.035037 0.975614 1.000003
0.040527 0.975437 1.000003
0.067254 0.974695 1.000003
0.278376 0.972488 1.000003
0.821943 0.968009 1.000003
0.970648 0.961994 1.000003
1.000003 0.959190 1.000003
0.602357 1.000003 1.000003
0.604900 1.000003 1.000003
0.608328 1.000003 1.000003
0.615588 1.000003 1.000003
0.636866 1.000003 1.000003
0.699022 1.000003 1.000003
0.822248 1.000003 1.000003
0.942873 1.000003 1.000003
0.999999 1.000003 1.000003
