luts/RED_709_C4R2.cube
# RED Digital Cinema Output Transform LUT for IPP2
# LUT Name = RWG_Log3G10 to REC709_BT1886 with NO_CONTRAST and R_2_Medium size_33 v1.13
# Generated by version 1.13
# Settings used in creation of this LUT are:
# Development Color Space = REC709
# Output Gamma Curve = BT1886
# Output Tonemap = NO_CONTRAST
# Highlight Rolloff = Rolloff 2 - medium
# Resolution = 33 x 33 x 33
TITLE "RED IPP2 LUT to map REDWideGamutRGB/Log3G10 to REC709/BT1886/NO_CONTRAST/Rolloff 2 - medium"
LUT_3D_SIZE 5
0.000000 0.000000 0.000000
0.437902 0.007747 0.011917
0.909579 0.082541 0.117010
1.000003 0.504082 0.611709
1.000003 0.952756 0.961809
0.003505 0.422858 0.003663
0.339697 0.384307 0.003505
0.916341 0.277624 0.095573
1.000003 0.606219 0.661431
1.000003 0.963852 0.970731
0.004752 0.868061 0.030439
0.013213 0.862507 0.028389
0.799812 0.837773 0.025012
1.000003 0.789503 0.603946
1.000003 0.967275 0.972214
0.072659 0.987688 0.377186
0.077155 0.987158 0.367231
0.285781 0.985805 0.348568
0.968715 0.979375 0.411814
1.000003 0.976181 0.960344
0.809581 1.000003 0.910312
0.804911 1.000003 0.908048
0.809994 1.000003 0.905513
0.905998 1.000003 0.901558
1.000003 1.000003 0.916274
0.005558 0.003663 0.371150
0.430099 0.003721 0.370342
0.907952 0.062871 0.332416
1.000003 0.493814 0.640060
1.000003 0.952801 0.962035
0.003505 0.353188 0.338177
0.324290 0.324299 0.324326
0.913313 0.228202 0.291304
1.000003 0.596248 0.680296
1.000003 0.963430 0.970508
0.004442 0.860407 0.083888
0.011543 0.859281 0.078269
0.799438 0.833274 0.082645
1.000003 0.787198 0.624341
1.000003 0.966945 0.972020
0.069746 0.987105 0.391211
0.077744 0.987288 0.394007
0.285757 0.985922 0.379693
0.969021 0.979498 0.441495
1.000003 0.976141 0.960068
0.804033 1.000003 0.908233
0.807424 1.000003 0.909355
0.812243 1.000003 0.906876
0.906731 1.000003 0.903008
1.000003 1.000003 0.915629
0.036052 0.006998 0.833675
0.371453 0.005868 0.837633
0.876148 0.008556 0.828319
1.000003 0.338126 0.792621
1.000003 0.944084 0.957642
0.007756 0.089430 0.845332
0.217234 0.066445 0.843316
0.876496 0.052253 0.836300
1.000003 0.460540 0.808979
1.000003 0.955965 0.966270
0.003505 0.814651 0.800519
0.004631 0.812057 0.799632
0.786300 0.786313 0.786353
1.000003 0.747880 0.785754
1.000003 0.959347 0.967115
0.060412 0.985117 0.647435
0.068373 0.985325 0.645804
0.266882 0.984726 0.637596
0.968702 0.977844 0.675103
1.000003 0.973455 0.953175
0.797686 1.000003 0.909748
0.801194 1.000003 0.910679
0.813984 1.000003 0.911447
0.907212 1.000003 0.908524
1.000003 1.000003 0.922006
0.032274 0.005794 0.987495
0.119950 0.005264 0.988552
0.886865 0.004564 0.987769
0.992435 0.033205 0.979547
1.000003 0.908650 0.967833
0.012551 0.013189 0.991093
0.059054 0.010748 0.991022
0.876164 0.007657 0.990088
0.994549 0.051883 0.983463
1.000003 0.926639 0.973142
0.003761 0.629149 0.986382
0.005754 0.601409 0.986292
0.696121 0.490890 0.984588
0.991237 0.447088 0.981526
1.000003 0.931665 0.975239
0.018866 0.973618 0.969449
0.022701 0.973825 0.969733
0.150126 0.972604 0.969114
0.965012 0.965017 0.965033
1.000003 0.962835 0.968776
0.781866 1.000003 0.948346
0.785822 1.000003 0.948469
0.801167 1.000003 0.948471
0.904722 1.000003 0.947404
1.000003 1.000003 0.954745
0.003721 0.003505 1.000003
0.003917 0.003505 1.000003
0.686765 0.003505 1.000003
1.000003 0.003505 1.000003
1.000003 0.144558 1.000003
0.003505 0.003505 1.000003
0.003505 0.003505 1.000003
0.322931 0.003505 1.000003
1.000003 0.003505 1.000003
1.000003 0.178941 1.000003
0.003505 0.004176 1.000003
0.003505 0.003936 1.000003
0.005733 0.003505 1.000003
1.000003 0.003505 1.000003
1.000003 0.342842 1.000003
0.003505 0.970831 1.000003
0.003505 0.970012 1.000003
0.003505 0.946399 1.000003
0.943587 0.906881 1.000003
1.000003 0.910088 1.000003
0.648908 1.000003 1.000003
0.656000 1.000003 1.000003
0.689382 1.000003 1.000003
0.880218 1.000003 1.000003
1.000001 1.000003 1.000003
