luts/RED_709_C1R4.cube
# RED Digital Cinema Output Transform LUT for IPP2
# LUT Name = RWG_Log3G10 to REC709_BT1886 with HIGH_CONTRAST and R_4_VerySoft size_33 v1.13
# Generated by version 1.13
# Settings used in creation of this LUT are:
# Development Color Space = REC709
# Output Gamma Curve = BT1886
# Output Tonemap = HIGH_CONTRAST
# Highlight Rolloff = Rolloff 4 - very soft
# Resolution = 33 x 33 x 33
TITLE "RED IPP2 LUT to map REDWideGamutRGB/Log3G10 to REC709/BT1886/HIGH_CONTRAST/Rolloff 4 - very soft"
LUT_3D_SIZE 5
0.000000 0.000000 0.000000
0.293598 0.014927 0.021996
0.913108 0.161446 0.230175
1.000001 0.727390 0.762170
1.000001 0.883408 0.899586
0.003505 0.278051 0.003825
0.232932 0.256491 0.003761
0.918645 0.211861 0.228088
1.000001 0.742764 0.774523
1.000001 0.892206 0.907290
0.010215 0.842066 0.075905
0.012652 0.840530 0.074878
0.778315 0.812315 0.073174
1.000001 0.805270 0.762544
1.000001 0.904574 0.910201
0.357918 1.000001 0.640340
0.355445 0.999980 0.638330
0.553745 0.997436 0.627563
0.968235 0.985037 0.656591
1.000001 0.968950 0.854518
0.693601 1.000001 0.808681
0.691659 1.000001 0.807394
0.710591 1.000001 0.801749
0.923345 1.000001 0.797145
1.000001 1.000001 0.817957
0.012232 0.004393 0.258435
0.288026 0.004240 0.255777
0.912693 0.153722 0.291565
1.000001 0.727221 0.763166
1.000001 0.883497 0.899793
0.003505 0.240664 0.232411
0.224716 0.224722 0.224739
0.917805 0.201213 0.287878
1.000001 0.741964 0.774856
1.000001 0.891911 0.907141
0.009853 0.840200 0.087523
0.012451 0.840310 0.087020
0.778542 0.811848 0.088667
1.000001 0.805032 0.762789
1.000001 0.904392 0.910083
0.352536 0.999964 0.639072
0.357704 1.000001 0.640021
0.554453 0.997564 0.629543
0.967495 0.984376 0.654931
1.000001 0.969102 0.854448
0.691364 1.000001 0.807469
0.692676 1.000001 0.808111
0.711393 1.000001 0.802500
0.923554 1.000001 0.797915
1.000001 1.000001 0.818651
0.050076 0.009528 0.823415
0.128445 0.008682 0.825036
0.859267 0.017158 0.811197
1.000001 0.660399 0.796339
1.000001 0.856409 0.888260
0.030135 0.021992 0.828729
0.086197 0.019647 0.828095
0.862113 0.026940 0.816006
1.000001 0.677628 0.803682
1.000001 0.865535 0.895033
0.003990 0.791917 0.779461
0.004288 0.791773 0.779594
0.766799 0.766811 0.766848
1.000001 0.770447 0.795567
1.000001 0.879164 0.895402
0.314026 0.996507 0.712455
0.319665 0.996669 0.712548
0.549793 0.996043 0.710360
0.968379 0.983239 0.733046
1.000001 0.969073 0.840729
0.680988 1.000001 0.816408
0.682346 1.000001 0.816825
0.713172 1.000001 0.817898
0.923919 1.000001 0.816099
1.000001 1.000001 0.833981
0.009994 0.003825 1.000001
0.014278 0.003761 1.000001
0.922422 0.003505 1.000001
1.000001 0.071485 0.992138
1.000001 0.747710 0.962149
0.006965 0.003825 1.000001
0.009940 0.003825 1.000001
0.926652 0.003505 1.000001
1.000001 0.079429 0.994899
1.000001 0.761316 0.965146
0.003505 0.675991 1.000001
0.003505 0.671724 1.000001
0.683048 0.534950 1.000001
1.000001 0.554906 0.993247
1.000001 0.785677 0.975434
0.127026 0.976157 0.969695
0.129725 0.976324 0.969881
0.442449 0.975012 0.969400
0.962869 0.962877 0.962905
1.000001 0.953330 0.957421
0.642699 1.000001 0.944177
0.644338 1.000001 0.944234
0.684805 1.000001 0.944028
0.918835 1.000001 0.939984
1.000001 1.000001 0.944494
0.003663 0.003505 1.000001
0.003721 0.003505 1.000001
1.000001 0.003505 1.000001
1.000001 0.003505 1.000001
1.000001 0.153687 1.000001
0.003505 0.003505 1.000001
0.003663 0.003505 1.000001
1.000001 0.003505 1.000001
1.000001 0.003505 1.000001
1.000001 0.167719 1.000001
0.003505 0.619115 1.000001
0.003505 0.610782 1.000001
0.471972 0.127083 1.000001
1.000001 0.177169 1.000001
1.000001 0.524057 1.000001
0.035963 0.960445 1.000001
0.036476 0.960473 1.000001
0.157169 0.957214 1.000001
0.952891 0.940580 1.000001
1.000001 0.936634 1.000001
0.560528 1.000001 1.000001
0.562637 1.000001 1.000001
0.623291 1.000001 1.000001
0.914609 1.000001 1.000001
0.999994 1.000001 1.000001
