luts/RED_709_C1R3.cube
# RED Digital Cinema Output Transform LUT for IPP2
# LUT Name = RWG_Log3G10 to REC709_BT1886 with HIGH_CONTRAST and R_3_Soft size_33 v1.13
# Generated by version 1.13
# Settings used in creation of this LUT are:
# Development Color Space = REC709
# Output Gamma Curve = BT1886
# Output Tonemap = HIGH_CONTRAST
# Highlight Rolloff = Rolloff 3 - soft
# Resolution = 33 x 33 x 33
TITLE "RED IPP2 LUT to map REDWideGamutRGB/Log3G10 to REC709/BT1886/HIGH_CONTRAST/Rolloff 3 - soft"
LUT_3D_SIZE 9
0.000000 0.000000 0.000000
0.077286 0.003505 0.003505
0.293889 0.014927 0.021996
0.704474 0.056896 0.080590
0.943249 0.161446 0.230175
1.000003 0.519651 0.598648
1.000003 0.780746 0.814362
1.000003 0.880171 0.898563
1.000003 0.920412 0.933030
0.003505 0.071047 0.003505
0.054375 0.064113 0.003505
0.289960 0.028941 0.017400
0.704767 0.062669 0.078490
0.943835 0.165146 0.230499
1.000003 0.523203 0.600747
1.000003 0.782505 0.815759
1.000003 0.881280 0.899492
1.000003 0.921237 0.933733
0.003505 0.278052 0.003825
0.003505 0.276386 0.003825
0.232932 0.256491 0.003761
0.700821 0.181936 0.057696
0.947342 0.211861 0.228088
1.000003 0.552474 0.615633
1.000003 0.795761 0.825990
1.000003 0.889495 0.906307
1.000003 0.927325 0.938890
0.003793 0.663236 0.011699
0.003825 0.662765 0.011671
0.006001 0.657633 0.011132
0.585175 0.628314 0.008582
0.937328 0.552100 0.162096
1.000003 0.639040 0.617555
1.000003 0.817492 0.836456
1.000003 0.900824 0.914293
1.000003 0.935405 0.945180
0.010215 0.886394 0.075905
0.010348 0.886267 0.075815
0.012652 0.885084 0.074878
0.105497 0.879195 0.069391
0.829525 0.860477 0.073174
1.000003 0.820839 0.512796
1.000003 0.854176 0.814717
1.000003 0.907434 0.906741
1.000003 0.936835 0.941078
0.075991 0.972794 0.389238
0.076024 0.972750 0.388820
0.077338 0.972374 0.385352
0.110803 0.971124 0.374961
0.630846 0.967138 0.356245
0.940070 0.957783 0.423849
1.000003 0.939957 0.747178
1.000003 0.942048 0.878099
1.000003 0.951523 0.924912
0.365717 1.000003 0.691457
0.365234 1.000003 0.691222
0.362743 0.999991 0.689316
0.389948 0.999576 0.684686
0.596406 0.998613 0.677792
0.877244 0.995826 0.673136
0.981345 0.991585 0.708642
1.000003 0.984076 0.835754
1.000003 0.981796 0.896894
0.647254 1.000003 0.807432
0.646952 1.000003 0.807271
0.644760 1.000003 0.805973
0.645877 1.000003 0.802944
0.696985 1.000003 0.799194
0.852463 1.000003 0.794367
0.961637 1.000003 0.798507
0.995928 1.000003 0.818352
1.000003 0.999711 0.867032
0.746919 1.000003 0.857235
0.746689 1.000003 0.857107
0.744940 1.000003 0.856082
0.743434 1.000003 0.853720
0.764066 1.000003 0.851005
0.855362 1.000003 0.847479
0.950774 1.000003 0.846836
0.988715 1.000003 0.854542
1.000003 1.000003 0.865478
0.003505 0.003505 0.065016
0.074999 0.003505 0.063746
0.293487 0.012856 0.041840
0.704419 0.055759 0.088479
0.943256 0.160915 0.234257
1.000003 0.519590 0.599303
1.000003 0.780800 0.814484
1.000003 0.880217 0.898619
1.000003 0.920449 0.933069
0.003505 0.056935 0.053391
0.050053 0.050054 0.050057
0.289448 0.024916 0.035325
0.704630 0.061345 0.086520
0.943810 0.164525 0.234675
1.000003 0.523016 0.601323
1.000003 0.782487 0.815823
1.000003 0.881279 0.899509
1.000003 0.921240 0.933742
0.003505 0.275207 0.004410
0.003505 0.274134 0.004326
0.233157 0.255668 0.004051
0.700675 0.179290 0.063507
0.947319 0.211121 0.231856
1.000003 0.552323 0.616131
1.000003 0.795749 0.826045
1.000003 0.889497 0.906323
1.000003 0.927329 0.938899
0.003761 0.662583 0.012747
0.003825 0.662458 0.012667
0.005962 0.657293 0.012163
0.585108 0.627889 0.009445
0.937301 0.551766 0.164351
1.000003 0.638959 0.617985
1.000003 0.817488 0.836504
1.000003 0.900829 0.914308
1.000003 0.935411 0.945189
0.010186 0.886248 0.076554
0.010343 0.886276 0.076553
0.012641 0.885091 0.075657
0.105404 0.879195 0.070234
0.829561 0.860469 0.074137
1.000003 0.820846 0.513360
1.000003 0.854183 0.814770
1.000003 0.907440 0.906758
1.000003 0.936842 0.941088
0.075862 0.972747 0.389275
0.076069 0.972766 0.389467
0.077381 0.972390 0.386036
0.110840 0.971140 0.375740
0.630876 0.967153 0.357113
0.940094 0.957799 0.424553
1.000003 0.939975 0.747260
1.000003 0.942061 0.878120
1.000003 0.951533 0.924924
0.365006 1.000003 0.691265
0.365552 1.000003 0.691385
0.363054 1.000000 0.689483
0.390208 0.999584 0.684862
0.596500 0.998622 0.677980
0.877272 0.995835 0.673329
0.981359 0.991595 0.708807
1.000003 0.984088 0.835799
1.000003 0.981807 0.896914
0.646903 1.000003 0.807279
0.647113 1.000003 0.807362
0.644920 1.000003 0.806064
0.646028 1.000003 0.803038
0.697088 1.000003 0.799291
0.852499 1.000003 0.794467
0.961653 1.000003 0.798603
0.995937 1.000003 0.818439
1.000003 0.999718 0.867082
0.746665 1.000003 0.857109
0.746806 1.000003 0.857175
0.745058 1.000003 0.856151
0.743546 1.000003 0.853789
0.764158 1.000003 0.851075
0.855404 1.000003 0.847551
0.950791 1.000003 0.846907
0.988724 1.000003 0.854609
1.000003 1.000003 0.865541
0.012232 0.004393 0.258435
0.034418 0.004307 0.258354
0.288153 0.004240 0.255777
0.702906 0.043788 0.223885
0.942939 0.153722 0.291789
1.000003 0.517220 0.606595
1.000003 0.780579 0.815306
1.000003 0.880214 0.898843
1.000003 0.920483 0.933189
0.007385 0.006442 0.257104
0.023309 0.006035 0.256572
0.283972 0.005302 0.253848
0.703086 0.048324 0.221408
0.943491 0.157205 0.292021
1.000003 0.520680 0.608512
1.000003 0.782267 0.816629
1.000003 0.881276 0.899727
1.000003 0.921273 0.933859
0.003505 0.240664 0.232411
0.003505 0.239427 0.231802
0.224716 0.224722 0.224739
0.698172 0.144804 0.189439
0.946724 0.201213 0.288001
1.000003 0.549279 0.622041
1.000003 0.794987 0.826301
1.000003 0.889138 0.906215
1.000003 0.927096 0.938777
0.003721 0.654848 0.039155
0.003761 0.654714 0.038903
0.005491 0.652352 0.036141
0.583742 0.621773 0.034804
0.936616 0.546951 0.198210
1.000003 0.637227 0.622991
1.000003 0.816908 0.836670
1.000003 0.900545 0.914209
1.000003 0.935228 0.945088
0.009853 0.884802 0.087523
0.010009 0.884830 0.087494
0.012451 0.884896 0.087020
0.104124 0.878890 0.082760
0.829736 0.860061 0.088667
1.000003 0.820705 0.520095
1.000003 0.853963 0.814949
1.000003 0.907249 0.906658
1.000003 0.936697 0.940989
0.074766 0.972340 0.392895
0.074976 0.972359 0.393064
0.077650 0.972493 0.394286
0.111028 0.971233 0.385312
0.631007 0.967239 0.368115
0.940276 0.957887 0.433309
1.000003 0.940112 0.747734
1.000003 0.942108 0.877998
1.000003 0.951523 0.924799
0.359269 0.999983 0.690107
0.359820 0.999992 0.690223
0.365458 1.000003 0.691118
0.392194 0.999645 0.686632
0.597205 0.998683 0.679919
0.877481 0.995900 0.675360
0.980878 0.991197 0.706897
1.000003 0.984187 0.835965
1.000003 0.981892 0.896837
0.644083 1.000003 0.806152
0.644294 1.000003 0.806234
0.646179 1.000003 0.806871
0.647213 1.000003 0.803878
0.697888 1.000003 0.800175
0.852775 1.000003 0.795392
0.961774 1.000003 0.799500
0.996005 1.000003 0.819236
1.000003 0.999779 0.867404
0.744640 1.000003 0.856149
0.744781 1.000003 0.856214
0.745977 1.000003 0.856724
0.744436 1.000003 0.854377
0.764869 1.000003 0.851682
0.855724 1.000003 0.848180
0.950925 1.000003 0.847534
0.988801 1.000003 0.855201
1.000003 1.000003 0.866090
0.039432 0.008180 0.628188
0.047264 0.008070 0.628440
0.238127 0.006983 0.629382
0.677982 0.007760 0.622665
0.935494 0.103179 0.581898
1.000003 0.474385 0.658154
1.000003 0.767800 0.815509
1.000003 0.873448 0.895575
1.000003 0.915794 0.930169
0.036067 0.009490 0.628956
0.043953 0.009300 0.628813
0.232554 0.007885 0.629738
0.677768 0.008613 0.622997
0.936024 0.105667 0.582288
1.000003 0.478252 0.659451
1.000003 0.769542 0.816718
1.000003 0.874533 0.896439
1.000003 0.916601 0.930836
0.012103 0.057942 0.629493
0.015022 0.056935 0.629367
0.152313 0.046620 0.627197
0.669733 0.033466 0.621244
0.938957 0.137062 0.582359
1.000003 0.510439 0.668591
1.000003 0.782681 0.825579
1.000003 0.882571 0.902779
1.000003 0.922548 0.935734
0.003505 0.600305 0.584879
0.003505 0.589476 0.574479
0.003761 0.596535 0.583068
0.569445 0.569458 0.569496
0.925504 0.498731 0.539413
1.000003 0.610438 0.666954
1.000003 0.804527 0.833936
1.000003 0.893428 0.909817
1.000003 0.930211 0.941436
0.007609 0.875851 0.367389
0.007719 0.875881 0.367112
0.009614 0.875936 0.364326
0.091820 0.872845 0.348725
0.828114 0.852734 0.382274
0.998794 0.816398 0.580244
1.000003 0.847975 0.811666
1.000003 0.901818 0.901892
1.000003 0.932339 0.937140
0.070575 0.970746 0.468490
0.070789 0.970766 0.468518
0.073545 0.970903 0.468634
0.109190 0.970813 0.466799
0.629200 0.966664 0.463022
0.939733 0.956486 0.520915
1.000003 0.940183 0.746672
1.000003 0.941066 0.872085
1.000003 0.949758 0.920038
0.344746 0.999514 0.696554
0.345299 0.999523 0.696644
0.351151 0.999593 0.697337
0.394996 0.999683 0.698523
0.597888 0.998702 0.693736
0.877730 0.995903 0.690401
0.981643 0.991672 0.722752
1.000003 0.984529 0.832798
1.000003 0.982059 0.891964
0.637434 1.000003 0.806055
0.637650 1.000003 0.806129
0.639591 1.000003 0.806702
0.649503 1.000003 0.807846
0.699362 1.000003 0.804655
0.853254 1.000003 0.800348
0.962000 1.000003 0.804381
0.996138 1.000003 0.823383
1.000003 0.999992 0.866685
0.739981 1.000003 0.855110
0.740123 1.000003 0.855171
0.741336 1.000003 0.855649
0.746257 1.000003 0.856629
0.766296 1.000003 0.854166
0.856348 1.000003 0.850895
0.951187 1.000003 0.850321
0.988954 1.000003 0.857795
1.000003 1.000003 0.868421
0.050076 0.009528 0.870278
0.053589 0.009463 0.870489
0.128445 0.008682 0.871697
0.658251 0.006820 0.870935
0.900843 0.017158 0.859481
1.000003 0.262212 0.824012
1.000003 0.712637 0.846103
1.000003 0.847492 0.894511
1.000003 0.898471 0.924240
0.048316 0.010107 0.871073
0.052017 0.010019 0.871061
0.124992 0.009151 0.872262
0.657396 0.007109 0.871479
0.901279 0.017808 0.860101
1.000003 0.265693 0.824654
1.000003 0.714725 0.846889
1.000003 0.848719 0.895248
1.000003 0.899371 0.924870
0.030135 0.021992 0.874916
0.032431 0.021810 0.874914
0.086197 0.019647 0.874365
0.638306 0.014760 0.873471
0.903195 0.026940 0.863753
1.000003 0.299711 0.829321
1.000003 0.730549 0.852748
1.000003 0.857814 0.900705
1.000003 0.906006 0.929521
0.005598 0.422910 0.868189
0.005831 0.421890 0.868191
0.013268 0.409580 0.867837
0.495891 0.349295 0.863964
0.889170 0.283470 0.857805
1.000003 0.477788 0.832626
1.000003 0.758426 0.859530
1.000003 0.870155 0.907031
1.000003 0.914455 0.934968
0.003990 0.842071 0.830590
0.004021 0.842085 0.830622
0.004288 0.841939 0.830714
0.051260 0.837217 0.828312
0.818740 0.818751 0.818785
0.988962 0.786674 0.803555
1.000003 0.822172 0.845401
1.000003 0.882074 0.899298
1.000003 0.917035 0.929806
0.054743 0.964346 0.741841
0.054937 0.964369 0.741806
0.057443 0.964524 0.741471
0.090840 0.964398 0.739567
0.614060 0.961460 0.731869
0.938813 0.951169 0.748120
1.000003 0.936900 0.797631
1.000003 0.936445 0.870325
1.000003 0.943621 0.911321
0.315538 0.998104 0.765931
0.316068 0.998115 0.765944
0.321694 0.998193 0.766024
0.369794 0.998293 0.765900
0.591941 0.997849 0.763834
0.876427 0.994845 0.766448
0.981437 0.990526 0.786298
1.000003 0.984481 0.841294
1.000003 0.981874 0.885254
0.627491 1.000003 0.826669
0.627716 1.000003 0.826708
0.629769 1.000003 0.827007
0.640681 1.000003 0.827554
0.698581 1.000003 0.827414
0.852727 1.000003 0.826148
0.961903 1.000003 0.830108
0.996137 1.000003 0.845043
1.000003 1.000003 0.872238
0.734012 1.000003 0.864109
0.734156 1.000003 0.864151
0.735409 1.000003 0.864477
0.740695 1.000003 0.865132
0.766647 1.000003 0.865426
0.856312 1.000003 0.863757
0.951190 1.000003 0.863835
0.988988 1.000003 0.870337
1.000003 1.000003 0.879463
0.033292 0.005904 0.976693
0.034524 0.005881 0.976805
0.055608 0.005659 0.977545
0.657505 0.004786 0.977354
0.911383 0.004940 0.973783
0.984800 0.036914 0.960909
1.000003 0.547513 0.936697
1.000003 0.787404 0.933991
1.000003 0.863088 0.940880
0.032365 0.005975 0.977130
0.033719 0.005952 0.977139
0.054382 0.005726 0.977875
0.656817 0.004819 0.977674
0.911659 0.004985 0.974091
0.985055 0.037475 0.961275
1.000003 0.550912 0.937078
1.000003 0.789034 0.934397
1.000003 0.864219 0.941297
0.023184 0.007458 0.979828
0.024129 0.007425 0.979839
0.041408 0.007056 0.979776
0.639410 0.005543 0.979487
0.910987 0.005952 0.975745
0.986729 0.044044 0.963839
1.000003 0.576729 0.940021
1.000003 0.801078 0.937509
1.000003 0.872540 0.944448
0.004326 0.125281 0.976164
0.004368 0.124689 0.976178
0.005351 0.117920 0.976154
0.310270 0.081556 0.974070
0.875952 0.064630 0.971736
0.986102 0.115072 0.965403
1.000003 0.625596 0.945727
1.000003 0.817076 0.942945
1.000003 0.882739 0.949291
0.004717 0.774699 0.963407
0.004752 0.774551 0.963426
0.005426 0.772729 0.963498
0.043582 0.760182 0.962595
0.783500 0.728193 0.959089
0.971068 0.708015 0.955350
1.000003 0.754654 0.944452
1.000003 0.839391 0.943335
1.000003 0.887833 0.949040
0.020429 0.948024 0.941252
0.020525 0.948045 0.941276
0.021827 0.948177 0.941447
0.041451 0.947790 0.941400
0.577183 0.943558 0.939057
0.934074 0.934082 0.934107
1.000003 0.921562 0.927031
1.000003 0.922125 0.930790
1.000003 0.930009 0.939212
0.239185 0.993450 0.908099
0.239605 0.993462 0.908101
0.244107 0.993553 0.908108
0.284649 0.993660 0.907946
0.562217 0.993089 0.906567
0.870263 0.990538 0.902508
0.980083 0.985731 0.908323
1.000003 0.980975 0.912009
1.000003 0.978870 0.921663
0.601492 1.000003 0.902488
0.601747 1.000003 0.902490
0.604095 1.000003 0.902501
0.616897 1.000003 0.902441
0.684469 1.000003 0.901814
0.848216 1.000003 0.899448
0.960593 1.000003 0.902940
0.995632 1.000003 0.909115
1.000003 0.998761 0.915190
0.721440 1.000003 0.909124
0.721597 1.000003 0.909132
0.722959 1.000003 0.909192
0.728860 1.000003 0.909272
0.758236 1.000003 0.909031
0.853422 1.000003 0.907656
0.950113 1.000003 0.909456
0.988530 1.000003 0.913257
1.000003 1.000003 0.918068
0.009994 0.003825 1.000003
0.010236 0.003825 1.000003
0.014278 0.003761 1.000003
0.330140 0.003663 1.000003
0.950103 0.003505 1.000003
0.997314 0.004220 1.000003
1.000003 0.071485 0.995670
1.000003 0.666674 0.981625
1.000003 0.800540 0.977458
0.009626 0.003825 1.000003
0.009915 0.003825 1.000003
0.013843 0.003761 1.000003
0.322288 0.003663 1.000003
0.950636 0.003505 1.000003
0.997509 0.004230 1.000003
1.000003 0.072196 0.995856
1.000003 0.669260 0.981834
1.000003 0.802105 0.977677
0.006965 0.003825 1.000003
0.007104 0.003825 1.000003
0.009940 0.003825 1.000003
0.251435 0.003663 1.000003
0.953165 0.003505 1.000003
0.998372 0.004442 1.000003
1.000003 0.079429 0.997216
1.000003 0.688234 0.983469
1.000003 0.813552 0.979383
0.003505 0.012328 1.000003
0.003505 0.012223 1.000003
0.003663 0.011257 1.000003
0.044286 0.007186 1.000003
0.914613 0.005663 1.000003
0.988691 0.026098 1.000003
1.000003 0.130184 0.998926
1.000003 0.712540 0.987176
1.000003 0.826510 0.983104
0.003505 0.728859 1.000003
0.003505 0.728536 1.000003
0.003505 0.724441 1.000003
0.003990 0.676322 1.000003
0.736130 0.575082 1.000003
0.965946 0.536150 0.998977
1.000003 0.597716 0.996294
1.000003 0.760802 0.989372
1.000003 0.836341 0.985825
0.010786 0.926998 0.992877
0.010832 0.926993 0.992892
0.011512 0.926895 0.992991
0.022834 0.925433 0.992970
0.420465 0.918112 0.991839
0.921562 0.904748 0.989393
0.995026 0.898572 0.987688
1.000003 0.898485 0.984285
1.000003 0.907545 0.982631
0.127026 0.986268 0.982265
0.127247 0.986280 0.982278
0.129725 0.986370 0.982381
0.147527 0.984101 0.980035
0.467254 0.985566 0.982079
0.863479 0.982187 0.980155
0.977922 0.977928 0.977945
1.000003 0.973564 0.975191
1.000003 0.971670 0.974377
0.538254 1.000003 0.970613
0.538573 1.000003 0.970621
0.541552 1.000003 0.970675
0.558551 1.000003 0.970747
0.647043 1.000003 0.970483
0.840776 1.000003 0.969051
0.957901 0.999287 0.966996
0.994589 0.997107 0.968722
1.000003 0.995375 0.967884
0.693966 1.000003 0.965484
0.694145 1.000003 0.965489
0.695706 1.000003 0.965523
0.702693 1.000003 0.965563
0.737934 1.000003 0.965382
0.846960 1.000003 0.964338
0.947482 1.000003 0.962592
0.987413 1.000003 0.964173
1.000003 1.000003 0.965701
0.004298 0.003505 1.000003
0.004326 0.003505 1.000003
0.004605 0.003505 1.000003
0.037324 0.003505 1.000003
0.985804 0.003505 1.000003
1.000003 0.003505 1.000003
1.000003 0.013501 1.000003
1.000003 0.113808 1.000003
1.000003 0.633431 0.999661
0.004250 0.003505 1.000003
0.004279 0.003505 1.000003
0.004551 0.003505 1.000003
0.036123 0.003505 1.000003
0.986372 0.003505 1.000003
1.000003 0.003505 1.000003
1.000003 0.013647 1.000003
1.000003 0.114830 1.000003
1.000003 0.636605 0.999781
0.003917 0.003505 1.000003
0.003917 0.003505 1.000003
0.004130 0.003505 1.000003
0.026226 0.003505 1.000003
0.989935 0.003505 1.000003
1.000003 0.003505 1.000003
1.000003 0.015595 1.000003
1.000003 0.124465 1.000003
1.000003 0.659974 1.000003
0.003505 0.003663 1.000003
0.003505 0.003663 1.000003
0.003505 0.003663 1.000003
0.004975 0.003505 1.000003
0.979516 0.003505 1.000003
1.000003 0.003505 1.000003
1.000003 0.036957 1.000003
1.000003 0.176329 1.000003
1.000003 0.692962 1.000003
0.003505 0.706789 1.000003
0.003505 0.706353 1.000003
0.003505 0.701211 1.000003
0.003505 0.647330 1.000003
0.657857 0.283318 1.000003
0.965432 0.238919 1.000003
1.000003 0.351141 1.000003
1.000003 0.556780 1.000003
1.000003 0.745392 1.000003
0.003505 0.923622 1.000003
0.003505 0.923589 1.000003
0.003505 0.922933 1.000003
0.004188 0.913136 1.000003
0.186806 0.897454 1.000003
0.911598 0.878866 1.000003
0.992926 0.871135 1.000003
1.000003 0.874016 1.000003
1.000003 0.883124 1.000003
0.068758 0.980000 1.000003
0.068838 0.980007 1.000003
0.069893 0.980052 1.000003
0.082718 0.979968 1.000003
0.264794 0.978607 1.000003
0.844456 0.974205 0.999949
0.973937 0.969070 0.998444
1.000003 0.967056 0.997771
1.000003 0.965025 0.996609
0.419726 0.999372 0.996644
0.420170 0.999379 0.996652
0.424423 0.999438 0.996720
0.450840 0.999525 0.996838
0.583363 0.999282 0.996745
0.828625 0.997853 0.995920
0.956660 0.995441 0.994564
0.993634 0.993639 0.993652
1.000003 0.991979 0.992553
0.653050 1.000003 0.992097
0.653256 1.000003 0.992104
0.655084 1.000003 0.992156
0.663687 1.000003 0.992248
0.707888 1.000003 0.992193
0.836779 1.000003 0.991553
0.945972 1.000003 0.990313
0.986276 1.000003 0.989416
1.000003 1.000003 0.989990
0.003663 0.003505 1.000003
0.003663 0.003505 1.000003
0.003721 0.003505 1.000003
0.007296 0.003505 1.000003
1.000003 0.003505 1.000003
1.000003 0.003505 1.000003
1.000003 0.003505 1.000003
1.000003 0.055243 1.000003
1.000003 0.153687 1.000003
0.003663 0.003505 1.000003
0.003663 0.003505 1.000003
0.003721 0.003505 1.000003
0.007061 0.003505 1.000003
1.000003 0.003505 1.000003
1.000003 0.003505 1.000003
1.000003 0.003505 1.000003
1.000003 0.055685 1.000003
1.000003 0.155071 1.000003
0.003505 0.003505 1.000003
0.003505 0.003505 1.000003
0.003663 0.003505 1.000003
0.005518 0.003505 1.000003
1.000003 0.003505 1.000003
1.000003 0.003505 1.000003
1.000003 0.003505 1.000003
1.000003 0.060122 1.000003
1.000003 0.167719 1.000003
0.003505 0.003505 1.000003
0.003505 0.003505 1.000003
0.003505 0.003505 1.000003
0.003663 0.003505 1.000003
1.000003 0.003505 1.000003
1.000003 0.003505 1.000003
1.000003 0.003917 1.000003
1.000003 0.089031 1.000003
1.000003 0.226762 1.000003
0.003505 0.668685 1.000003
0.003505 0.667904 1.000003
0.003505 0.659646 1.000003
0.003505 0.589803 1.000003
0.502131 0.127083 1.000003
0.968977 0.110870 1.000003
1.000003 0.177169 1.000003
1.000003 0.370282 1.000003
1.000003 0.562623 1.000003
0.003505 0.942958 1.000003
0.003505 0.942944 1.000003
0.003505 0.942523 1.000003
0.003505 0.934117 1.000003
0.083125 0.883373 1.000003
0.903719 0.858235 1.000003
0.991868 0.849014 1.000003
1.000003 0.852909 1.000003
1.000003 0.861270 1.000003
0.035963 0.976353 1.000003
0.035989 0.976357 1.000003
0.036476 0.976372 1.000003
0.044425 0.976150 1.000003
0.157169 0.974241 1.000003
0.827701 0.968862 1.000003
0.971378 0.963005 1.000003
1.000003 0.960784 1.000003
1.000003 0.960255 1.000003
0.267979 0.997144 1.000003
0.268254 0.997150 1.000003
0.271175 0.997197 1.000003
0.295872 0.997246 1.000003
0.493458 0.996901 1.000003
0.810893 0.995191 1.000003
0.952941 0.992449 1.000003
0.992164 0.990458 1.000003
1.000003 0.989694 1.000003
0.604046 1.000003 1.000003
0.604284 1.000003 1.000003
0.606414 1.000003 1.000003
0.617107 1.000003 1.000003
0.673194 1.000003 1.000003
0.825970 1.000003 1.000003
0.944364 1.000003 1.000003
0.985969 1.000003 1.000003
0.999999 1.000003 1.000003
