luts/RED_709_C1R3.cube
# RED Digital Cinema Output Transform LUT for IPP2
# LUT Name = RWG_Log3G10 to REC709_BT1886 with HIGH_CONTRAST and R_3_Soft size_33 v1.13
# Generated by version 1.13
# Settings used in creation of this LUT are:
# Development Color Space = REC709
# Output Gamma Curve = BT1886
# Output Tonemap = HIGH_CONTRAST
# Highlight Rolloff = Rolloff 3 - soft
# Resolution = 33 x 33 x 33
TITLE "RED IPP2 LUT to map REDWideGamutRGB/Log3G10 to REC709/BT1886/HIGH_CONTRAST/Rolloff 3 - soft"
LUT_3D_SIZE 5
0.000000 0.000000 0.000000
0.293889 0.014927 0.021996
0.943249 0.161446 0.230175
1.000003 0.780746 0.814362
1.000003 0.920412 0.933030
0.003505 0.278052 0.003825
0.232932 0.256491 0.003761
0.947342 0.211861 0.228088
1.000003 0.795761 0.825990
1.000003 0.927325 0.938890
0.010215 0.886394 0.075905
0.012652 0.885084 0.074878
0.829525 0.860477 0.073174
1.000003 0.854176 0.814717
1.000003 0.936835 0.941078
0.365717 1.000003 0.691457
0.362743 0.999991 0.689316
0.596406 0.998613 0.677792
0.981345 0.991585 0.708642
1.000003 0.981796 0.896894
0.746919 1.000003 0.857235
0.744940 1.000003 0.856082
0.764066 1.000003 0.851005
0.950774 1.000003 0.846836
1.000003 1.000003 0.865478
0.012232 0.004393 0.258435
0.288153 0.004240 0.255777
0.942939 0.153722 0.291789
1.000003 0.780579 0.815306
1.000003 0.920483 0.933189
0.003505 0.240664 0.232411
0.224716 0.224722 0.224739
0.946724 0.201213 0.288001
1.000003 0.794987 0.826301
1.000003 0.927096 0.938777
0.009853 0.884802 0.087523
0.012451 0.884896 0.087020
0.829736 0.860061 0.088667
1.000003 0.853963 0.814949
1.000003 0.936697 0.940989
0.359269 0.999983 0.690107
0.365458 1.000003 0.691118
0.597205 0.998683 0.679919
0.980878 0.991197 0.706897
1.000003 0.981892 0.896837
0.744640 1.000003 0.856149
0.745977 1.000003 0.856724
0.764869 1.000003 0.851682
0.950925 1.000003 0.847534
1.000003 1.000003 0.866090
0.050076 0.009528 0.870278
0.128445 0.008682 0.871697
0.900843 0.017158 0.859481
1.000003 0.712637 0.846103
1.000003 0.898471 0.924240
0.030135 0.021992 0.874916
0.086197 0.019647 0.874365
0.903195 0.026940 0.863753
1.000003 0.730549 0.852748
1.000003 0.906006 0.929521
0.003990 0.842071 0.830590
0.004288 0.841939 0.830714
0.818740 0.818751 0.818785
1.000003 0.822172 0.845401
1.000003 0.917035 0.929806
0.315538 0.998104 0.765931
0.321694 0.998193 0.766024
0.591941 0.997849 0.763834
0.981437 0.990526 0.786298
1.000003 0.981874 0.885254
0.734012 1.000003 0.864109
0.735409 1.000003 0.864477
0.766647 1.000003 0.865426
0.951190 1.000003 0.863835
1.000003 1.000003 0.879463
0.009994 0.003825 1.000003
0.014278 0.003761 1.000003
0.950103 0.003505 1.000003
1.000003 0.071485 0.995670
1.000003 0.800540 0.977458
0.006965 0.003825 1.000003
0.009940 0.003825 1.000003
0.953165 0.003505 1.000003
1.000003 0.079429 0.997216
1.000003 0.813552 0.979383
0.003505 0.728859 1.000003
0.003505 0.724441 1.000003
0.736130 0.575082 1.000003
1.000003 0.597716 0.996294
1.000003 0.836341 0.985825
0.127026 0.986268 0.982265
0.129725 0.986370 0.982381
0.467254 0.985566 0.982079
0.977922 0.977928 0.977945
1.000003 0.971670 0.974377
0.693966 1.000003 0.965484
0.695706 1.000003 0.965523
0.737934 1.000003 0.965382
0.947482 1.000003 0.962592
1.000003 1.000003 0.965701
0.003663 0.003505 1.000003
0.003721 0.003505 1.000003
1.000003 0.003505 1.000003
1.000003 0.003505 1.000003
1.000003 0.153687 1.000003
0.003505 0.003505 1.000003
0.003663 0.003505 1.000003
1.000003 0.003505 1.000003
1.000003 0.003505 1.000003
1.000003 0.167719 1.000003
0.003505 0.668685 1.000003
0.003505 0.659646 1.000003
0.502131 0.127083 1.000003
1.000003 0.177169 1.000003
1.000003 0.562623 1.000003
0.035963 0.976353 1.000003
0.036476 0.976372 1.000003
0.157169 0.974241 1.000003
0.971378 0.963005 1.000003
1.000003 0.960255 1.000003
0.604046 1.000003 1.000003
0.606414 1.000003 1.000003
0.673194 1.000003 1.000003
0.944364 1.000003 1.000003
0.999999 1.000003 1.000003
