luts/RED_709_C4R2.cube
# RED Digital Cinema Output Transform LUT for IPP2
# LUT Name = RWG_Log3G10 to REC709_BT1886 with NO_CONTRAST and R_2_Medium size_33 v1.13
# Generated by version 1.13
# Settings used in creation of this LUT are:
# Development Color Space = REC709
# Output Gamma Curve = BT1886
# Output Tonemap = NO_CONTRAST
# Highlight Rolloff = Rolloff 2 - medium
# Resolution = 33 x 33 x 33
TITLE "RED IPP2 LUT to map REDWideGamutRGB/Log3G10 to REC709/BT1886/NO_CONTRAST/Rolloff 2 - medium"
LUT_3D_SIZE 33
0.000000 0.000000 0.000000
0.000000 0.000000 0.000000
0.000001 0.000000 0.000000
0.123464 0.003505 0.003505
0.188065 0.003505 0.003505
0.246462 0.003505 0.003663
0.305459 0.004006 0.004472
0.368656 0.005243 0.006831
0.437902 0.007747 0.011917
0.513908 0.012167 0.018789
0.587559 0.017721 0.026758
0.660685 0.024651 0.036568
0.729690 0.033147 0.048466
0.786952 0.042684 0.061723
0.835737 0.053997 0.077383
0.876443 0.067143 0.095587
0.909579 0.082541 0.117010
0.936055 0.100994 0.142937
0.956611 0.123563 0.175132
0.971885 0.151360 0.215609
0.983229 0.187741 0.269991
0.991213 0.236368 0.342061
0.996544 0.302863 0.425065
1.000003 0.396399 0.521710
1.000003 0.504082 0.611709
1.000003 0.608416 0.691721
1.000003 0.695215 0.758614
1.000003 0.767660 0.814868
1.000003 0.825699 0.860338
1.000003 0.870654 0.895879
1.000003 0.905991 0.924067
1.000003 0.932504 0.945393
1.000003 0.952756 0.961809
0.000000 0.000000 0.000000
0.000000 0.000000 0.000000
0.000000 0.000000 0.000000
0.115895 0.003505 0.003505
0.184245 0.003505 0.003505
0.244079 0.003825 0.003505
0.304100 0.004965 0.004141
0.368212 0.007475 0.005997
0.438371 0.011947 0.010271
0.515228 0.017381 0.016910
0.589918 0.023476 0.024835
0.663787 0.030824 0.034720
0.732661 0.039600 0.046703
0.789819 0.049345 0.060199
0.838492 0.060473 0.076308
0.878955 0.073383 0.095032
0.911762 0.088585 0.117061
0.937868 0.106945 0.143710
0.958054 0.129589 0.176807
0.972992 0.157706 0.218461
0.984041 0.194786 0.274531
0.991783 0.244697 0.348294
0.996927 0.313401 0.432800
1.000003 0.408323 0.530170
1.000003 0.516101 0.619417
1.000003 0.618229 0.698449
1.000003 0.703140 0.764309
1.000003 0.773946 0.819546
1.000003 0.830615 0.864093
1.000003 0.874463 0.898847
1.000003 0.908892 0.926363
1.000003 0.934696 0.947150
1.000003 0.954386 0.963128
0.000000 0.000000 0.000000
0.000000 0.000000 0.000000
0.000000 0.000000 0.000000
0.100000 0.003505 0.003505
0.176090 0.003990 0.003505
0.238366 0.006245 0.003505
0.299863 0.010627 0.003825
0.365136 0.016125 0.005135
0.436343 0.021715 0.008335
0.514319 0.027446 0.014447
0.590527 0.033640 0.022220
0.665542 0.040985 0.032111
0.734622 0.049534 0.044193
0.792064 0.058725 0.058123
0.840802 0.069241 0.074686
0.881147 0.081592 0.093950
0.913717 0.096340 0.116613
0.939520 0.114401 0.144024
0.959385 0.136962 0.178069
0.974022 0.165288 0.220951
0.984799 0.203004 0.278778
0.992317 0.254195 0.354269
0.997287 0.325187 0.440363
1.000003 0.420911 0.538344
1.000003 0.528214 0.626886
1.000003 0.627991 0.704975
1.000003 0.710952 0.769834
1.000003 0.780102 0.824082
1.000003 0.835408 0.867732
1.000003 0.878164 0.901720
1.000003 0.911704 0.928584
1.000003 0.936817 0.948848
1.000003 0.955961 0.964402
0.003505 0.115746 0.003505
0.003505 0.111387 0.003505
0.003505 0.105297 0.003505
0.061084 0.096280 0.003505
0.160758 0.080729 0.003505
0.227582 0.061897 0.003505
0.291395 0.048875 0.003663
0.358268 0.046316 0.004360
0.430788 0.047135 0.006504
0.510315 0.049582 0.011423
0.588823 0.053253 0.018912
0.665724 0.058369 0.028816
0.735527 0.064849 0.041090
0.793544 0.072359 0.055439
0.842552 0.081481 0.072426
0.882935 0.092691 0.092226
0.915384 0.106546 0.115538
0.940971 0.123971 0.143735
0.960578 0.146194 0.178763
0.974957 0.174548 0.222914
0.985494 0.212781 0.282548
0.992808 0.265210 0.359827
0.997619 0.338527 0.447606
1.000003 0.434261 0.546117
1.000003 0.540421 0.634028
1.000003 0.637678 0.711232
1.000003 0.718618 0.775136
1.000003 0.786096 0.828437
1.000003 0.840048 0.871225
1.000003 0.881733 0.904477
1.000003 0.914410 0.930714
1.000003 0.938854 0.950475
1.000003 0.957469 0.965622
0.003505 0.180021 0.003505
0.003505 0.177138 0.003505
0.003505 0.173343 0.003505
0.003793 0.168140 0.003505
0.135075 0.161329 0.003505
0.210741 0.151115 0.003505
0.278243 0.140949 0.003505
0.347422 0.129930 0.003825
0.421699 0.117431 0.005121
0.503229 0.102797 0.008427
0.584854 0.093022 0.015315
0.664273 0.089315 0.025085
0.735163 0.089804 0.037421
0.794083 0.093207 0.052081
0.843615 0.099326 0.069431
0.884229 0.108281 0.089736
0.916702 0.120450 0.113688
0.942181 0.136658 0.142680
0.961607 0.158117 0.178710
0.975781 0.186197 0.224157
0.986117 0.224747 0.285635
0.993253 0.278316 0.364803
0.997921 0.353397 0.454380
1.000003 0.448598 0.553399
1.000003 0.552808 0.640785
1.000003 0.647327 0.717182
1.000003 0.726154 0.780191
1.000003 0.791932 0.832595
1.000003 0.844536 0.874562
1.000003 0.885170 0.907110
1.000003 0.917005 0.932748
1.000003 0.940803 0.952028
1.000003 0.958912 0.966786
0.003505 0.236874 0.003505
0.003505 0.234419 0.003505
0.003505 0.231284 0.003505
0.003505 0.227092 0.003505
0.057065 0.221745 0.003505
0.186838 0.215225 0.003505
0.260151 0.205574 0.003505
0.332456 0.196064 0.003505
0.408881 0.186224 0.004230
0.492580 0.175709 0.006260
0.578133 0.163721 0.011645
0.660775 0.149186 0.021019
0.733212 0.134227 0.033217
0.793445 0.127368 0.048010
0.843819 0.126826 0.065619
0.884908 0.131215 0.086357
0.917589 0.140164 0.110905
0.943095 0.154094 0.140668
0.962437 0.174041 0.177691
0.976475 0.201332 0.224434
0.986655 0.239847 0.287760
0.993645 0.294363 0.368962
0.998190 0.369984 0.460477
1.000003 0.464207 0.560060
1.000003 0.565472 0.647065
1.000003 0.656980 0.722763
1.000003 0.733568 0.784958
1.000003 0.797603 0.836527
1.000003 0.848862 0.877722
1.000003 0.888464 0.909606
1.000003 0.919484 0.934677
1.000003 0.942660 0.953501
1.000003 0.960282 0.967889
0.003505 0.294218 0.003505
0.003505 0.291933 0.003505
0.003505 0.289088 0.003505
0.003505 0.285353 0.003505
0.008068 0.280680 0.003505
0.133646 0.275010 0.003505
0.234348 0.266262 0.003505
0.312462 0.258104 0.003505
0.391629 0.248223 0.003721
0.477472 0.238136 0.004862
0.567934 0.227097 0.008292
0.654691 0.214276 0.016790
0.729260 0.200359 0.028585
0.791325 0.185981 0.043249
0.842940 0.172440 0.060952
0.884812 0.166909 0.082000
0.917931 0.169408 0.107047
0.943636 0.178985 0.137506
0.963018 0.196036 0.175461
0.977005 0.221609 0.223446
0.987090 0.259461 0.288561
0.993972 0.314549 0.371976
0.998421 0.388724 0.465587
1.000003 0.481381 0.565890
1.000003 0.578476 0.652718
1.000003 0.666638 0.727867
1.000003 0.740838 0.789356
1.000003 0.803080 0.840174
1.000003 0.852993 0.880662
1.000003 0.891587 0.911933
1.000003 0.921822 0.936478
1.000003 0.944406 0.954877
1.000003 0.961569 0.968920
0.003505 0.355634 0.003505
0.003505 0.353401 0.003505
0.003505 0.350690 0.003505
0.003505 0.347204 0.003505
0.004656 0.342917 0.003505
0.042002 0.337721 0.003505
0.185318 0.331485 0.003505
0.285984 0.324014 0.003505
0.368903 0.313029 0.003505
0.457196 0.302247 0.004037
0.553165 0.290841 0.006026
0.645192 0.277925 0.012586
0.722711 0.264279 0.023596
0.787290 0.250256 0.037825
0.840674 0.236450 0.055398
0.883725 0.224291 0.076568
0.917582 0.216074 0.101957
0.943706 0.216702 0.132974
0.963288 0.228013 0.171732
0.977333 0.250063 0.220833
0.987398 0.286063 0.287597
0.994223 0.339980 0.373439
0.998605 0.410376 0.469345
1.000003 0.500271 0.570667
1.000003 0.592031 0.657600
1.000003 0.676408 0.732399
1.000003 0.748006 0.793323
1.000003 0.808373 0.843496
1.000003 0.856929 0.883358
1.000003 0.894534 0.914075
1.000003 0.924014 0.938139
1.000003 0.946036 0.956149
1.000003 0.962766 0.969875
0.003505 0.422858 0.003663
0.003505 0.420606 0.003663
0.003505 0.417939 0.003663
0.003505 0.414615 0.003663
0.004092 0.410572 0.003505
0.012418 0.405669 0.003505
0.110711 0.399772 0.003505
0.234516 0.392688 0.003505
0.339697 0.384307 0.003505
0.431146 0.372045 0.003663
0.532528 0.359531 0.004668
0.631121 0.345741 0.008745
0.712831 0.331491 0.018448
0.780796 0.316794 0.031898
0.836621 0.302071 0.049045
0.881365 0.288417 0.070079
0.916341 0.277624 0.095573
0.943167 0.272258 0.126918
0.963153 0.275718 0.166247
0.977399 0.291183 0.216220
0.987543 0.322007 0.284346
0.994376 0.370046 0.372784
0.998732 0.435648 0.471196
1.000003 0.520664 0.574008
1.000003 0.606219 0.661431
1.000003 0.686289 0.736157
1.000003 0.755031 0.796713
1.000003 0.813425 0.846387
1.000003 0.860611 0.885731
1.000003 0.897253 0.915974
1.000003 0.926018 0.939620
1.000003 0.947518 0.957286
1.000003 0.963852 0.970731
0.003505 0.497404 0.003850
0.003505 0.495162 0.003825
0.003505 0.492589 0.003825
0.003663 0.489461 0.003825
0.003936 0.485635 0.003761
0.006414 0.480940 0.003761
0.033783 0.475260 0.003721
0.168225 0.468409 0.003721
0.284816 0.460265 0.003663
0.398364 0.450698 0.003663
0.502354 0.436613 0.003917
0.611005 0.421290 0.006146
0.698550 0.405819 0.013395
0.771055 0.389852 0.025660
0.830215 0.373644 0.042014
0.877328 0.358036 0.062580
0.913928 0.344482 0.087863
0.941831 0.335129 0.119212
0.962490 0.333085 0.158761
0.977124 0.341782 0.209213
0.987477 0.365086 0.278224
0.994402 0.405969 0.369297
0.998787 0.465644 0.470448
1.000003 0.542930 0.575432
1.000003 0.621269 0.663876
1.000003 0.696382 0.738911
1.000003 0.761930 0.799363
1.000003 0.818210 0.848733
1.000003 0.864000 0.887701
1.000003 0.899706 0.917574
1.000003 0.927801 0.940881
1.000003 0.948826 0.958262
1.000003 0.964805 0.971469
0.003505 0.570707 0.004316
0.003505 0.568853 0.004298
0.003505 0.566811 0.004279
0.003663 0.564350 0.004250
0.003917 0.561351 0.004220
0.005103 0.557674 0.004165
0.014404 0.553173 0.004104
0.069793 0.547645 0.004051
0.218547 0.540928 0.003990
0.338228 0.532818 0.003917
0.463760 0.523069 0.003850
0.574959 0.507955 0.004494
0.678223 0.490649 0.008807
0.756862 0.472988 0.019354
0.820578 0.454832 0.034474
0.870994 0.436876 0.054160
0.909915 0.420294 0.078831
0.939405 0.406869 0.109758
0.961106 0.399403 0.149040
0.976385 0.401374 0.199398
0.987123 0.416813 0.268567
0.994259 0.449610 0.361996
0.998745 0.501507 0.466149
1.000003 0.567594 0.574234
1.000003 0.637533 0.664447
1.000003 0.706860 0.740325
1.000003 0.768756 0.801044
1.000003 0.822715 0.850375
1.000003 0.867054 0.889157
1.000003 0.901843 0.918798
1.000003 0.929319 0.941868
1.000003 0.949924 0.959038
1.000003 0.965600 0.972064
0.003505 0.637006 0.005196
0.003505 0.635522 0.005166
0.003663 0.633919 0.005139
0.003721 0.632008 0.005098
0.003917 0.629693 0.005038
0.004692 0.626862 0.004965
0.008331 0.623396 0.004873
0.029410 0.619126 0.004774
0.124850 0.613917 0.004662
0.269681 0.607594 0.004544
0.397708 0.599943 0.004434
0.533035 0.590884 0.004352
0.637724 0.576645 0.005480
0.735130 0.559903 0.013173
0.806289 0.542746 0.026715
0.861593 0.524672 0.045144
0.903753 0.506447 0.068732
0.935505 0.489476 0.098717
0.958743 0.476561 0.137117
0.975010 0.471673 0.186617
0.986377 0.478819 0.254924
0.993883 0.502060 0.349758
0.998570 0.541302 0.457135
1.000003 0.594802 0.569420
1.000003 0.655177 0.662425
1.000003 0.717790 0.739886
1.000003 0.775478 0.801389
1.000003 0.826850 0.851052
1.000003 0.869666 0.889914
1.000003 0.903564 0.919511
1.000003 0.930487 0.942484
1.000003 0.950743 0.959546
1.000003 0.966183 0.972466
0.003663 0.696995 0.006823
0.003663 0.695818 0.006783
0.003721 0.694567 0.006738
0.003793 0.693097 0.006674
0.004021 0.691333 0.006587
0.004585 0.689186 0.006473
0.006515 0.686563 0.006331
0.016034 0.683327 0.006162
0.051721 0.679365 0.005969
0.183518 0.674534 0.005771
0.323929 0.668651 0.005573
0.462246 0.661633 0.005406
0.598335 0.653232 0.005285
0.695235 0.640070 0.007341
0.786118 0.624028 0.019216
0.848590 0.607892 0.036050
0.895429 0.591130 0.058302
0.930227 0.574511 0.086972
0.955467 0.559828 0.123947
0.973025 0.550092 0.171815
0.985237 0.548797 0.238171
0.993268 0.560084 0.332623
0.998258 0.585795 0.443445
1.000003 0.626022 0.560857
1.000003 0.675592 0.657800
1.000003 0.730258 0.737658
1.000003 0.782852 0.800486
1.000003 0.831104 0.850857
1.000003 0.872140 0.890054
1.000003 0.905057 0.919783
1.000003 0.931421 0.942784
1.000003 0.951359 0.959826
1.000003 0.966604 0.972705
0.003721 0.749749 0.009898
0.003761 0.748817 0.009832
0.003825 0.747841 0.009760
0.003936 0.746713 0.009659
0.004154 0.745377 0.009522
0.004643 0.743765 0.009340
0.005943 0.741802 0.009109
0.010863 0.739385 0.008829
0.027887 0.736417 0.008508
0.083534 0.732783 0.008158
0.238939 0.728332 0.007802
0.382610 0.722986 0.007475
0.532759 0.716534 0.007218
0.657754 0.708939 0.007091
0.746613 0.696883 0.011004
0.829843 0.681776 0.027125
0.883644 0.666887 0.047743
0.922818 0.651544 0.074777
0.950878 0.636778 0.109914
0.970238 0.624682 0.155597
0.983620 0.617775 0.219140
0.992372 0.619869 0.310587
0.997786 0.633804 0.425064
1.000003 0.661166 0.548171
1.000003 0.699281 0.650361
1.000003 0.744915 0.733557
1.000003 0.791437 0.798337
1.000003 0.835881 0.849832
1.000003 0.874746 0.889634
1.000003 0.906501 0.919669
1.000003 0.932238 0.942819
1.000003 0.951850 0.959920
1.000003 0.966914 0.972814
0.003897 0.795646 0.014896
0.003972 0.794911 0.014816
0.004037 0.794149 0.014730
0.004165 0.793285 0.014614
0.004393 0.792276 0.014458
0.004846 0.791073 0.014247
0.005871 0.789621 0.013973
0.008848 0.787838 0.013625
0.018463 0.785648 0.013202
0.044830 0.782958 0.012709
0.128854 0.779646 0.012163
0.295126 0.775643 0.011615
0.449111 0.770774 0.011121
0.598139 0.764990 0.010787
0.711220 0.758188 0.010765
0.791437 0.747319 0.016630
0.866479 0.733321 0.037301
0.912343 0.719718 0.062543
0.944461 0.705950 0.095544
0.966333 0.693329 0.138520
0.981328 0.683416 0.198364
0.991082 0.679271 0.284721
0.997093 0.683911 0.401350
1.000003 0.699782 0.530286
1.000003 0.726492 0.639364
1.000003 0.762284 0.727091
1.000003 0.801716 0.794618
1.000003 0.841509 0.847770
1.000003 0.877666 0.888525
1.000003 0.907978 0.919087
1.000003 0.932967 0.942533
1.000003 0.952220 0.959792
1.000003 0.967109 0.972771
0.004220 0.834927 0.021590
0.004288 0.834348 0.021492
0.004385 0.833752 0.021390
0.004530 0.833089 0.021259
0.004774 0.832328 0.021087
0.005226 0.831433 0.020860
0.006134 0.830365 0.020565
0.008342 0.829062 0.020188
0.014537 0.827467 0.019719
0.029411 0.825505 0.019160
0.068773 0.823078 0.018519
0.191252 0.820127 0.017840
0.357413 0.816510 0.017177
0.521317 0.812179 0.016647
0.658000 0.807035 0.016405
0.758538 0.801029 0.016700
0.829945 0.791367 0.024316
0.897026 0.778484 0.050562
0.935406 0.766252 0.081437
0.960900 0.754304 0.121480
0.978144 0.743422 0.177061
0.989275 0.735772 0.257213
0.996106 0.733970 0.372472
1.000003 0.740590 0.506291
1.000003 0.756885 0.624105
1.000003 0.782654 0.717791
1.000003 0.814191 0.789053
1.000003 0.848436 0.844524
1.000003 0.881210 0.886649
1.000003 0.909678 0.918000
1.000003 0.933713 0.941912
1.000003 0.952522 0.959436
1.000003 0.967216 0.972572
0.004752 0.868061 0.030439
0.004846 0.867605 0.030318
0.004960 0.867138 0.030194
0.005126 0.866628 0.030043
0.005399 0.866053 0.029852
0.005875 0.865388 0.029607
0.006759 0.864604 0.029293
0.008667 0.863658 0.028892
0.013213 0.862507 0.028389
0.022840 0.861093 0.027777
0.044990 0.859339 0.027055
0.101689 0.857195 0.026257
0.257923 0.854550 0.025429
0.426080 0.851355 0.024682
0.589956 0.847527 0.024176
0.711775 0.843010 0.024157
0.799812 0.837773 0.025012
0.863151 0.829203 0.034915
0.922077 0.817498 0.067888
0.953216 0.806822 0.105210
0.973715 0.796299 0.156405
0.986768 0.787282 0.229765
0.994726 0.781720 0.339160
0.999517 0.781779 0.475617
1.000003 0.789503 0.603946
1.000003 0.805898 0.705160
1.000003 0.829187 0.781300
1.000003 0.857095 0.839884
1.000003 0.885730 0.883894
1.000003 0.911834 0.916351
1.000003 0.934611 0.940928
1.000003 0.952833 0.958842
1.000003 0.967275 0.972214
0.005670 0.895850 0.042160
0.005794 0.895491 0.042008
0.005930 0.895126 0.041852
0.006134 0.894734 0.041674
0.006454 0.894298 0.041457
0.006990 0.893803 0.041188
0.007939 0.893229 0.040852
0.009805 0.892546 0.040427
0.013487 0.891723 0.039897
0.020423 0.890716 0.039243
0.034651 0.889467 0.038456
0.066326 0.887936 0.037556
0.148956 0.886033 0.036572
0.325841 0.883717 0.035608
0.502363 0.880916 0.034812
0.651996 0.877580 0.034428
0.758924 0.873669 0.034824
0.835621 0.869124 0.036601
0.891144 0.861608 0.049325
0.941658 0.851254 0.089908
0.967355 0.841769 0.137192
0.983232 0.832794 0.203770
0.992785 0.825585 0.302907
0.998509 0.821653 0.439942
1.000003 0.823101 0.578180
1.000003 0.831530 0.688554
1.000003 0.846842 0.770884
1.000003 0.867903 0.833545
1.000003 0.891641 0.880079
1.000003 0.914746 0.914039
1.000003 0.935844 0.939531
1.000003 0.953254 0.957983
1.000003 0.967336 0.971685
0.007341 0.918852 0.057675
0.007508 0.918571 0.057478
0.007687 0.918286 0.057280
0.007941 0.917984 0.057061
0.008342 0.917653 0.056806
0.008997 0.917284 0.056503
0.010110 0.916864 0.056136
0.011983 0.916372 0.055683
0.015095 0.915786 0.055123
0.020530 0.915075 0.054434
0.030693 0.914198 0.053593
0.050970 0.913120 0.052608
0.096390 0.911775 0.051488
0.217463 0.910124 0.050317
0.399554 0.908110 0.049228
0.576019 0.905688 0.048451
0.707074 0.902819 0.048336
0.800336 0.899446 0.049431
0.866306 0.895544 0.052649
0.913568 0.889156 0.068266
0.957631 0.879831 0.119883
0.978088 0.871642 0.180531
0.990011 0.864212 0.269049
0.997069 0.858396 0.401774
1.000003 0.855912 0.546601
1.000003 0.858363 0.667481
1.000003 0.866723 0.757337
1.000003 0.880980 0.825159
1.000003 0.899276 0.874981
1.000003 0.918731 0.910935
1.000003 0.937634 0.937649
1.000003 0.953915 0.956823
1.000003 0.967471 0.970969
0.010544 0.937396 0.077921
0.010767 0.937176 0.077664
0.010995 0.936952 0.077405
0.011304 0.936719 0.077130
0.011776 0.936467 0.076821
0.012497 0.936190 0.076467
0.013602 0.935880 0.076054
0.015328 0.935523 0.075559
0.018078 0.935104 0.074959
0.022622 0.934603 0.074229
0.030542 0.933989 0.073338
0.045038 0.933236 0.072279
0.074173 0.932294 0.071041
0.139229 0.931132 0.069686
0.299067 0.929701 0.068319
0.482746 0.927964 0.067148
0.643225 0.925884 0.066499
0.756759 0.923413 0.066883
0.836740 0.920520 0.069118
0.891935 0.917244 0.074447
0.933366 0.911619 0.095252
0.970234 0.903419 0.161073
0.985983 0.896527 0.240530
0.995015 0.890270 0.364313
0.999919 0.885840 0.510460
1.000003 0.884481 0.642211
1.000003 0.887557 0.740557
1.000003 0.895811 0.814543
1.000003 0.908629 0.868448
1.000003 0.923980 0.906940
1.000003 0.940179 0.935231
1.000003 0.954962 0.955338
1.000003 0.967766 0.970055
0.015859 0.952649 0.105478
0.016075 0.952477 0.105133
0.016294 0.952304 0.104787
0.016585 0.952124 0.104426
0.017036 0.951933 0.104034
0.017727 0.951725 0.103602
0.018775 0.951497 0.103114
0.020386 0.951239 0.102549
0.022883 0.950941 0.101885
0.026845 0.950591 0.101092
0.033392 0.950166 0.100133
0.044585 0.949648 0.098993
0.065244 0.949002 0.097638
0.106258 0.948201 0.096106
0.201050 0.947208 0.094468
0.382082 0.945991 0.092899
0.564139 0.944517 0.091696
0.702193 0.942747 0.091328
0.799403 0.940650 0.092550
0.866479 0.938246 0.096476
0.913800 0.935448 0.105243
0.949038 0.930651 0.132419
0.979470 0.923618 0.217576
0.991866 0.917705 0.329843
0.998379 0.912667 0.470817
1.000003 0.909264 0.612431
1.000003 0.908759 0.719861
1.000003 0.912175 0.801034
1.000003 0.919858 0.859977
1.000003 0.930825 0.901717
1.000003 0.943796 0.932068
1.000003 0.956615 0.953408
1.000003 0.968350 0.968876
0.023562 0.964841 0.143242
0.023760 0.964708 0.142765
0.023961 0.964574 0.142285
0.024221 0.964435 0.141793
0.024638 0.964290 0.141274
0.025288 0.964135 0.140715
0.026277 0.963966 0.140106
0.027788 0.963779 0.139423
0.030092 0.963567 0.138646
0.033653 0.963322 0.137744
0.039319 0.963028 0.136676
0.048529 0.962675 0.135417
0.064454 0.962236 0.133917
0.093475 0.961693 0.132189
0.152153 0.961016 0.130268
0.290592 0.960179 0.128290
0.472363 0.959154 0.126513
0.637126 0.957909 0.125363
0.754020 0.956416 0.125546
0.835097 0.954684 0.128111
0.892532 0.952642 0.134920
0.931962 0.950307 0.149108
0.961101 0.946341 0.184558
0.986700 0.940188 0.303163
0.995983 0.935323 0.434679
1.000003 0.931194 0.580098
1.000003 0.928728 0.695846
1.000003 0.928831 0.784634
1.000003 0.932328 0.849388
1.000003 0.939135 0.895083
1.000003 0.948613 0.928033
1.000003 0.959053 0.950953
1.000003 0.969362 0.967390
0.034460 0.974346 0.195756
0.034625 0.974244 0.195071
0.034792 0.974140 0.194381
0.035007 0.974034 0.193683
0.035377 0.973923 0.192957
0.035972 0.973806 0.192195
0.036893 0.973681 0.191384
0.038305 0.973544 0.190502
0.040448 0.973392 0.189530
0.043712 0.973219 0.188436
0.048781 0.973015 0.187174
0.056739 0.972773 0.185716
0.069863 0.972476 0.183993
0.092329 0.972110 0.182000
0.133878 0.971653 0.179736
0.221033 0.971083 0.177295
0.387974 0.970381 0.174889
0.565419 0.969516 0.172899
0.702083 0.968468 0.171992
0.798208 0.967236 0.173194
0.867021 0.965766 0.178218
0.914659 0.964063 0.189894
0.946702 0.962153 0.212905
0.971605 0.958737 0.265176
0.991999 0.953545 0.407342
0.999004 0.949451 0.548765
1.000003 0.946220 0.670124
1.000003 0.944459 0.765887
1.000003 0.945038 0.836752
1.000003 0.948406 0.886957
1.000003 0.954527 0.923024
1.000003 0.962362 0.947901
1.000003 0.970922 0.965555
0.050314 0.981914 0.274777
0.050425 0.981836 0.273730
0.050538 0.981756 0.272679
0.050689 0.981675 0.271619
0.050989 0.981592 0.270534
0.051509 0.981504 0.269411
0.052344 0.981412 0.268243
0.053648 0.981312 0.267002
0.055636 0.981203 0.265673
0.058653 0.981081 0.264222
0.063276 0.980940 0.262599
0.070373 0.980776 0.260772
0.081698 0.980577 0.258656
0.100217 0.980333 0.256226
0.132344 0.980030 0.253449
0.193245 0.979653 0.250374
0.322760 0.979183 0.247165
0.492221 0.978599 0.244144
0.645098 0.977881 0.241950
0.755693 0.977026 0.241621
0.836557 0.975992 0.244808
0.893448 0.974779 0.254263
0.932205 0.973402 0.274252
0.958029 0.971090 0.301676
0.979191 0.969032 0.365519
0.995939 0.964566 0.521664
1.000003 0.961263 0.644125
1.000003 0.958687 0.745020
1.000003 0.957506 0.821794
1.000003 0.958326 0.876946
1.000003 0.961500 0.916703
1.000003 0.966676 0.944011
1.000003 0.973203 0.963219
0.072659 0.987688 0.377186
0.072690 0.987629 0.376029
0.072722 0.987568 0.374861
0.072783 0.987507 0.373685
0.072988 0.987444 0.372483
0.073409 0.987378 0.371248
0.074137 0.987310 0.369974
0.075319 0.987236 0.368639
0.077155 0.987158 0.367231
0.079960 0.987071 0.365723
0.084248 0.986973 0.364070
0.090758 0.986860 0.362246
0.100941 0.986726 0.360168
0.117101 0.986564 0.357794
0.143939 0.986364 0.355068
0.191517 0.986116 0.351971
0.285781 0.985805 0.348568
0.435539 0.985416 0.345039
0.591665 0.984932 0.341836
0.712093 0.984348 0.339797
0.803323 0.983631 0.340156
0.869282 0.982780 0.344868
0.915160 0.981800 0.356224
0.947342 0.980653 0.377639
0.968715 0.979375 0.411814
0.985753 0.977010 0.474628
0.998726 0.973304 0.621638
1.000003 0.970580 0.724232
1.000003 0.968602 0.805507
1.000003 0.967881 0.865411
1.000003 0.968875 0.909142
1.000003 0.971722 0.939258
1.000003 0.976181 0.960344
0.105456 0.992187 0.488432
0.105364 0.992142 0.487180
0.105271 0.992096 0.485911
0.105201 0.992050 0.484630
0.105271 0.992003 0.483329
0.105555 0.991955 0.481995
0.106145 0.991904 0.480631
0.107181 0.991850 0.479220
0.108860 0.991794 0.477756
0.111478 0.991732 0.476218
0.115515 0.991664 0.474569
0.121637 0.991587 0.472794
0.131127 0.991497 0.470821
0.145921 0.991391 0.468615
0.169784 0.991261 0.466113
0.210187 0.991100 0.463272
0.284313 0.990899 0.460087
0.408271 0.990646 0.456608
0.550745 0.990329 0.453058
0.672186 0.989942 0.449965
0.769353 0.989459 0.448070
0.842700 0.988876 0.448770
0.895436 0.988196 0.453892
0.933398 0.987391 0.466191
0.959147 0.986480 0.488418
0.976701 0.985433 0.523038
0.990331 0.983537 0.578994
1.000003 0.980400 0.704945
1.000003 0.978214 0.788437
1.000003 0.976732 0.852323
1.000003 0.976320 0.900095
1.000003 0.977336 0.933377
1.000003 0.979871 0.956720
0.153260 0.995543 0.591492
0.152976 0.995509 0.590453
0.152691 0.995475 0.589402
0.152421 0.995441 0.588341
0.152291 0.995406 0.587265
0.152381 0.995370 0.586169
0.152786 0.995332 0.585052
0.153648 0.995293 0.583902
0.155165 0.995253 0.582716
0.157634 0.995209 0.581483
0.161524 0.995161 0.580180
0.167483 0.995108 0.578798
