luts/RED_709_C2R3.cube
# RED Digital Cinema Output Transform LUT for IPP2
# LUT Name = RWG_Log3G10 to REC709_BT1886 with MEDIUM_CONTRAST and R_3_Soft size_33 v1.13
# Generated by version 1.13
# Settings used in creation of this LUT are:
# Development Color Space = REC709
# Output Gamma Curve = BT1886
# Output Tonemap = MEDIUM_CONTRAST
# Highlight Rolloff = Rolloff 3 - soft
# Resolution = 33 x 33 x 33
TITLE "RED IPP2 LUT to map REDWideGamutRGB/Log3G10 to REC709/BT1886/MEDIUM_CONTRAST/Rolloff 3 - soft"
LUT_3D_SIZE 9
0.000000 0.000000 0.000000
0.087482 0.003505 0.003505
0.327138 0.016750 0.024617
0.671972 0.051254 0.072776
0.893847 0.115112 0.162556
0.987433 0.287140 0.404086
1.000003 0.620820 0.681367
1.000003 0.818438 0.846134
1.000003 0.920295 0.932930
0.003505 0.080725 0.003505
0.062664 0.073171 0.003505
0.322543 0.033714 0.019223
0.672127 0.059284 0.069835
0.894758 0.120160 0.161864
0.987883 0.293195 0.406620
1.000003 0.624440 0.683854
1.000003 0.820403 0.847731
1.000003 0.921365 0.933840
0.003505 0.309505 0.003897
0.003505 0.307463 0.003873
0.258980 0.286629 0.003721
0.663204 0.223915 0.044263
0.898318 0.190449 0.150006
0.990406 0.354404 0.419462
1.000003 0.649803 0.699447
1.000003 0.833287 0.857942
1.000003 0.928260 0.939674
0.003721 0.634386 0.009559
0.003761 0.633691 0.009522
0.009387 0.626507 0.008895
0.555772 0.599277 0.007156
0.880110 0.534464 0.095400
0.989244 0.532419 0.389696
1.000003 0.692836 0.707263
1.000003 0.847650 0.866389
1.000003 0.935080 0.945027
0.005907 0.836478 0.044467
0.006020 0.836240 0.044392
0.008516 0.834077 0.043499
0.142728 0.826121 0.039525
0.771305 0.806912 0.039565
0.973025 0.763772 0.250881
1.000003 0.773707 0.672054
1.000003 0.860084 0.859174
1.000003 0.936283 0.943457
0.028382 0.938824 0.166256
0.028523 0.938726 0.165984
0.031143 0.937947 0.163817
0.064388 0.935767 0.157788
0.556683 0.930084 0.148088
0.894439 0.918492 0.178649
1.000003 0.893514 0.580321
1.000003 0.899391 0.831111
1.000003 0.940503 0.935225
0.123577 0.984412 0.509646
0.123524 0.984368 0.509198
0.124675 0.984040 0.505929
0.147645 0.983339 0.499645
0.395701 0.981827 0.489757
0.797387 0.978122 0.482747
0.956817 0.971761 0.536882
1.000003 0.957964 0.779927
1.000003 0.960403 0.917407
0.482288 1.000003 0.734971
0.481753 1.000003 0.734701
0.479003 1.000003 0.732761
0.487972 1.000003 0.729433
0.561308 1.000003 0.725466
0.745191 1.000003 0.719954
0.912737 0.999293 0.719666
0.986943 0.995959 0.749771
1.000003 0.988217 0.889272
0.746933 1.000003 0.857243
0.746637 1.000003 0.857078
0.744652 1.000003 0.855897
0.743214 1.000003 0.853934
0.752325 1.000003 0.851892
0.797790 1.000003 0.849417
0.889067 1.000003 0.846580
0.965766 1.000003 0.848210
1.000003 1.000003 0.865469
0.003505 0.003505 0.074036
0.084988 0.003505 0.072695
0.326685 0.014305 0.048554
0.671889 0.049701 0.083827
0.893846 0.114248 0.168777
0.987445 0.286639 0.407007
1.000003 0.620841 0.681833
1.000003 0.818507 0.846253
1.000003 0.920343 0.932980
0.003505 0.065413 0.061621
0.058071 0.058073 0.058076
0.321946 0.028796 0.040648
0.671933 0.057399 0.080949
0.894697 0.119172 0.168232
0.987873 0.292513 0.409478
1.000003 0.624322 0.684218
1.000003 0.820391 0.847783
1.000003 0.921368 0.933852
0.003505 0.306073 0.004705
0.003505 0.304792 0.004598
0.258214 0.283685 0.004240
0.662988 0.220960 0.051375
0.898259 0.189011 0.155356
0.990398 0.353727 0.421968
1.000003 0.649711 0.699754
1.000003 0.833281 0.857988
1.000003 0.928265 0.939685
0.003721 0.633402 0.010950
0.003761 0.633184 0.010838
0.009236 0.625938 0.010195
0.555649 0.598595 0.008118
0.880042 0.533839 0.098466
0.989235 0.532115 0.392127
1.000003 0.692777 0.707528
1.000003 0.847650 0.866430
1.000003 0.935088 0.945039
0.005891 0.836191 0.045479
0.006010 0.836215 0.045438
0.008493 0.834042 0.044612
0.142446 0.826068 0.040687
0.771344 0.806844 0.040815
0.973012 0.763730 0.252848
1.000003 0.773695 0.672345
1.000003 0.860089 0.859217
1.000003 0.936291 0.943470
0.028309 0.938717 0.166849
0.028534 0.938752 0.166941
0.031150 0.937971 0.164828
0.064378 0.935788 0.158875
0.556683 0.930103 0.149211
0.893111 0.917269 0.178636
1.000003 0.893540 0.580723
1.000003 0.899407 0.831161
1.000003 0.940513 0.935239
0.123307 0.984366 0.509471
0.123632 0.984386 0.509688
0.124778 0.984058 0.506442
0.147744 0.983356 0.500205
0.395812 0.981844 0.490371
0.797428 0.978140 0.483391
0.956844 0.971780 0.537408
1.000003 0.957986 0.780008
1.000003 0.960417 0.917423
0.481584 1.000003 0.734734
0.482070 1.000003 0.734872
0.479316 1.000003 0.732935
0.488258 1.000003 0.729613
0.561496 1.000003 0.725654
0.745261 1.000003 0.720150
0.912767 0.999303 0.719861
0.986959 0.995970 0.749940
1.000003 0.988230 0.889303
0.746605 1.000003 0.857080
0.746789 1.000003 0.857165
0.744803 1.000003 0.855985
0.743363 1.000003 0.854023
0.752457 1.000003 0.851982
0.797877 1.000003 0.849509
0.889108 1.000003 0.846674
0.965785 1.000003 0.848301
1.000003 1.000003 0.865551
0.013767 0.004544 0.286590
0.040917 0.004426 0.286542
0.320793 0.004352 0.283670
0.669747 0.035087 0.255613
0.893019 0.103930 0.262518
0.987277 0.278512 0.439926
1.000003 0.619158 0.686193
1.000003 0.818229 0.846800
1.000003 0.920312 0.933068
0.007876 0.007254 0.285192
0.027156 0.006690 0.284545
0.315872 0.005712 0.281491
0.669728 0.040779 0.252698
0.893862 0.108491 0.261430
0.987705 0.284249 0.441988
1.000003 0.622662 0.688488
1.000003 0.820114 0.848314
1.000003 0.921336 0.933936
0.003505 0.266890 0.257527
0.003505 0.265414 0.256800
0.248767 0.248774 0.248793
0.659428 0.184797 0.216723
0.896912 0.171788 0.242687
0.990078 0.343404 0.452046
1.000003 0.647272 0.702814
1.000003 0.832464 0.857971
1.000003 0.927929 0.939494
0.003663 0.622208 0.058256
0.003663 0.621970 0.057698
0.007660 0.618144 0.052144
0.553404 0.589268 0.053821
0.878492 0.525340 0.147841
0.988896 0.527368 0.421617
1.000003 0.691032 0.710047
1.000003 0.846978 0.866375
1.000003 0.934808 0.944871
0.005688 0.833339 0.063306
0.005798 0.833362 0.063202
0.008166 0.833070 0.061981
0.138848 0.824846 0.059356
0.771312 0.805395 0.061402
0.972558 0.762790 0.280277
1.000003 0.773047 0.675116
1.000003 0.859608 0.859156
1.000003 0.936046 0.943308
0.027661 0.937822 0.178297
0.027890 0.937857 0.178354
0.031072 0.938021 0.178469
0.064065 0.935802 0.173803
0.556327 0.930080 0.164858
0.894722 0.918467 0.200051
1.000003 0.893646 0.584837
1.000003 0.899344 0.831095
1.000003 0.940358 0.935060
0.121322 0.984014 0.510522
0.121648 0.984034 0.510719
0.125413 0.984160 0.512013
0.148317 0.983453 0.506414
0.396355 0.981938 0.497314
0.797670 0.978233 0.490801
0.957020 0.971878 0.543366
1.000003 0.958137 0.780267
1.000003 0.960445 0.917208
0.476536 1.000003 0.733405
0.477029 1.000003 0.733539
0.481464 1.000003 0.734455
0.490197 1.000003 0.731224
0.562754 1.000003 0.727368
0.745724 1.000003 0.721972
0.912972 0.999368 0.721700
0.987063 0.996042 0.751505
1.000003 0.988328 0.889225
0.744273 1.000003 0.855989
0.744458 1.000003 0.856074
0.745858 1.000003 0.856656
0.744389 1.000003 0.854709
0.753370 1.000003 0.852688
0.798482 1.000003 0.850236
0.889382 1.000003 0.847419
0.965913 1.000003 0.849032
1.000003 1.000003 0.866197
0.036871 0.007715 0.598582
0.047961 0.007576 0.598898
0.281628 0.006362 0.599595
0.649026 0.007193 0.593406
0.884079 0.064755 0.559476
0.984503 0.228630 0.570199
1.000003 0.597392 0.704343
1.000003 0.810027 0.845141
1.000003 0.916570 0.930634
0.032374 0.009514 0.599479
0.043188 0.009240 0.599263
0.275318 0.007485 0.599929
0.648516 0.008303 0.593698
0.884841 0.067858 0.559666
0.984937 0.233360 0.571332
1.000003 0.601087 0.706213
1.000003 0.811950 0.846581
1.000003 0.917610 0.931499
0.007477 0.104262 0.597736
0.009934 0.101775 0.597542
0.193405 0.079175 0.594508
0.634884 0.053182 0.588981
0.887062 0.110829 0.555229
0.987302 0.282764 0.576477
1.000003 0.627174 0.717916
1.000003 0.824560 0.855788
1.000003 0.924310 0.937036
0.003505 0.570803 0.555298
0.003505 0.570422 0.555133
0.004316 0.565072 0.552466
0.539847 0.539860 0.539898
0.864578 0.477096 0.507831
0.985287 0.491793 0.557352
1.000003 0.673382 0.722553
1.000003 0.838564 0.862969
1.000003 0.930762 0.941916
0.004774 0.820687 0.368368
0.004846 0.820707 0.367947
0.006403 0.820340 0.363739
0.119442 0.815324 0.347724
0.768546 0.794265 0.371908
0.967725 0.754692 0.456063
1.000003 0.765744 0.688956
1.000003 0.853220 0.855468
1.000003 0.932312 0.940302
0.025137 0.934799 0.319082
0.025366 0.934835 0.318919
0.028565 0.935004 0.317344
0.061062 0.934385 0.310589
0.552110 0.928355 0.314071
0.894505 0.916523 0.360192
1.000003 0.892965 0.606815
1.000003 0.897278 0.826767
1.000003 0.937634 0.931694
0.116944 0.983167 0.538802
0.117273 0.983187 0.538911
0.121122 0.983315 0.539587
0.147866 0.983355 0.539795
0.394670 0.981794 0.535337
0.797532 0.978038 0.531975
0.957179 0.971666 0.576462
1.000003 0.958373 0.777699
1.000003 0.959727 0.913138
0.467566 1.000003 0.735595
0.468076 1.000003 0.735711
0.472727 1.000003 0.736501
0.492622 1.000003 0.737583
0.564192 1.000003 0.734474
0.746183 1.000003 0.729835
0.913206 0.999399 0.729825
0.987204 0.996078 0.758177
1.000003 0.988550 0.885792
0.740406 1.000003 0.855043
0.740591 1.000003 0.855123
0.742009 1.000003 0.855677
0.745925 1.000003 0.856505
0.754718 1.000003 0.854620
0.799359 1.000003 0.852316
0.889772 1.000003 0.849629
0.966099 1.000003 0.851230
1.000003 1.000003 0.868061
0.049170 0.009671 0.812938
0.055072 0.009569 0.813250
0.208449 0.008468 0.814616
0.629925 0.006776 0.813389
0.851093 0.013354 0.804055
0.976524 0.128384 0.771810
1.000003 0.515722 0.775971
1.000003 0.783566 0.849598
1.000003 0.905180 0.925192
0.046432 0.010711 0.814079
0.052519 0.010563 0.814038
0.200019 0.009268 0.815393
0.628579 0.007286 0.814132
0.851623 0.014301 0.804894
0.976980 0.131061 0.772667
1.000003 0.520298 0.777083
1.000003 0.785677 0.850798
1.000003 0.906295 0.926042
0.023192 0.034570 0.817869
0.026286 0.034136 0.817844
0.114955 0.029504 0.816767
0.603856 0.022009 0.815708
0.852025 0.029042 0.808207
0.979345 0.159408 0.777325
1.000003 0.553041 0.784165
1.000003 0.799550 0.858537
1.000003 0.913478 0.931492
0.005052 0.439468 0.808654
0.005339 0.438305 0.808639
0.017072 0.425944 0.807939
0.483406 0.382112 0.803369
0.830956 0.329682 0.797839
0.975776 0.360460 0.773525
1.000003 0.615010 0.788181
1.000003 0.815319 0.864787
1.000003 0.920332 0.936250
0.003663 0.785183 0.772114
0.003663 0.785167 0.772141
0.003972 0.784377 0.771923
0.079508 0.777446 0.768292
0.758750 0.758762 0.758799
0.953624 0.721904 0.739169
1.000003 0.737391 0.769226
1.000003 0.833527 0.857576
1.000003 0.921468 0.933792
0.017509 0.925483 0.671806
0.017699 0.925522 0.671723
0.020367 0.925693 0.670922
0.049356 0.924939 0.667502
0.533993 0.920562 0.658020
0.892125 0.907639 0.673648
0.997539 0.887097 0.712782
1.000003 0.890262 0.830124
1.000003 0.929784 0.924385
0.106569 0.980900 0.660920
0.106893 0.980922 0.660895
0.110702 0.981062 0.660645
0.137498 0.981105 0.659533
0.380883 0.980316 0.655586
0.794999 0.976287 0.660006
0.956773 0.969755 0.684588
1.000003 0.957863 0.788277
1.000003 0.957516 0.904458
0.454365 1.000003 0.760309
0.454905 1.000003 0.760370
0.459902 1.000003 0.760780
0.481745 1.000003 0.761263
0.562699 1.000003 0.760990
0.745212 1.000003 0.759479
0.912976 0.999059 0.760736
0.987202 0.995721 0.783630
1.000003 0.988779 0.879691
0.736133 1.000003 0.858859
0.736318 1.000003 0.858925
0.737769 1.000003 0.859378
0.741891 1.000003 0.860049
0.755468 1.000003 0.860505
0.799743 1.000003 0.858900
0.889899 1.000003 0.856833
0.966178 1.000003 0.858510
1.000003 1.000003 0.874064
0.045165 0.008030 0.933367
0.048117 0.007977 0.933575
0.106320 0.007401 0.934663
0.617862 0.006150 0.934474
0.851653 0.006125 0.930841
0.952350 0.024727 0.919815
1.000003 0.284706 0.892706
1.000003 0.724532 0.891291
1.000003 0.884556 0.927343
0.043479 0.008376 0.934171
0.046614 0.008314 0.934175
0.103282 0.007687 0.935255
0.616370 0.006336 0.935052
0.851815 0.006328 0.931392
0.952827 0.025475 0.920472
1.000003 0.289399 0.893372
1.000003 0.727159 0.892027
1.000003 0.885835 0.928057
0.027299 0.016288 0.937821
0.029236 0.016146 0.937835
0.071433 0.014562 0.937505
0.584388 0.011180 0.937165
0.846341 0.011609 0.933253
0.955120 0.034782 0.924150
1.000003 0.329275 0.897765
1.000003 0.744444 0.896933
1.000003 0.894061 0.932701
0.006107 0.179380 0.934366
0.006377 0.178046 0.934384
0.015317 0.163091 0.934127
0.384021 0.122844 0.931857
0.812035 0.096781 0.929617
0.951631 0.117326 0.923952
1.000003 0.446831 0.902561
1.000003 0.764530 0.902398
1.000003 0.901786 0.937122
0.004852 0.715327 0.920783
0.004930 0.715078 0.920815
0.006499 0.712110 0.920841
0.068013 0.698651 0.919468
0.723894 0.669954 0.915409
0.931489 0.646242 0.911401
1.000003 0.666016 0.897536
1.000003 0.792971 0.901266
1.000003 0.903479 0.935869
0.006171 0.904720 0.895661
0.005771 0.896986 0.887624
0.007036 0.904833 0.895901
0.022483 0.903568 0.895367
0.502075 0.897695 0.892138
0.886196 0.886205 0.886235
0.988730 0.867365 0.875638
1.000003 0.872363 0.887168
1.000003 0.915838 0.928159
0.080734 0.974713 0.845818
0.081010 0.974737 0.845810
0.084291 0.974889 0.845713
0.107788 0.974914 0.845151
0.339037 0.973955 0.842873
0.786355 0.970709 0.837560
0.955033 0.963524 0.845859
1.000003 0.953567 0.858979
1.000003 0.953059 0.910365
0.422637 1.000003 0.838406
0.423256 1.000003 0.838406
0.429008 1.000003 0.838393
0.454441 1.000003 0.838232
0.547103 1.000003 0.837449
0.739555 1.000003 0.834979
0.911302 0.997533 0.838448
0.986773 0.994081 0.850440
1.000003 0.988189 0.891448
0.729470 1.000003 0.879891
0.729662 1.000003 0.879923
0.731182 1.000003 0.880138
0.735594 1.000003 0.880437
0.750382 1.000003 0.880548
0.798466 1.000003 0.880100
0.889130 1.000003 0.879972
0.965901 1.000003 0.881953
1.000003 1.000003 0.893642
0.025366 0.004960 0.991745
0.026427 0.004945 0.991860
0.044802 0.004780 0.992525
0.593775 0.004270 0.992339
0.875402 0.004104 0.991050
0.962120 0.005135 0.986086
0.995347 0.045452 0.975381
1.000003 0.590186 0.954712
1.000003 0.847414 0.951764
0.024405 0.004994 0.992197
0.025590 0.004980 0.992208
0.043466 0.004814 0.992868
0.591908 0.004288 0.992675
0.875869 0.004130 0.991382
0.962443 0.005196 0.986403
0.995606 0.046207 0.975770
1.000003 0.594170 0.955125
1.000003 0.849019 0.952209
0.016068 0.005798 0.994612
0.016828 0.005774 0.994626
0.030970 0.005540 0.994580
0.556448 0.004687 0.994323
0.873858 0.004449 0.992966
0.962480 0.006529 0.987764
0.997106 0.054224 0.978173
1.000003 0.620338 0.957959
1.000003 0.859294 0.955209
0.004021 0.063197 0.991554
0.004051 0.062761 0.991574
0.004786 0.058406 0.991574
0.166601 0.040481 0.990027
0.804923 0.032751 0.988694
0.949474 0.038592 0.985551
0.997352 0.100701 0.979822
1.000003 0.651406 0.962250
1.000003 0.868506 0.959065
0.003505 0.626265 0.985133
0.003505 0.625583 0.985149
0.003721 0.617246 0.985110
0.033502 0.567534 0.983658
0.674492 0.503524 0.981613
0.921800 0.457256 0.979639
0.991967 0.487905 0.976246
1.000003 0.706709 0.964291
1.000003 0.870797 0.960849
0.006482 0.872156 0.972928
0.006532 0.872121 0.972956
0.007363 0.871635 0.973097
0.020578 0.868487 0.972867
0.353619 0.858832 0.971383
0.868008 0.842649 0.968474
0.977154 0.832569 0.966075
1.000003 0.837536 0.959094
1.000003 0.891754 0.958825
0.038206 0.963685 0.957930
0.038364 0.963709 0.957956
0.040322 0.963845 0.958125
0.055393 0.963764 0.958204
0.215921 0.962362 0.957466
0.775425 0.958123 0.955081
0.951788 0.951795 0.951817
1.000003 0.942620 0.946398
1.000003 0.943051 0.949934
0.334990 0.996935 0.933696
0.335738 0.996948 0.933702
0.342960 0.997038 0.933739
0.377414 0.997131 0.933713
0.499461 0.996979 0.933290
0.727421 0.996055 0.931692
0.907036 0.993899 0.928820
0.985634 0.990086 0.932869
1.000003 0.985202 0.936608
0.715086 1.000003 0.927747
0.715298 1.000003 0.927752
0.716956 1.000003 0.927785
0.721872 1.000003 0.927803
0.738536 1.000003 0.927675
0.791991 1.000003 0.927060
0.886191 1.000003 0.925547
0.964814 1.000003 0.927706
1.000003 1.000003 0.933498
0.006957 0.003663 1.000003
0.007091 0.003663 1.000003
0.009813 0.003663 1.000003
0.097836 0.003505 1.000003
0.925348 0.003505 1.000003
0.989930 0.003505 1.000003
1.000003 0.004516 1.000003
1.000003 0.082882 0.999997
1.000003 0.779458 0.984947
0.006712 0.003663 1.000003
0.006875 0.003663 1.000003
0.009397 0.003663 1.000003
0.094721 0.003505 1.000003
0.926264 0.003505 1.000003
0.990405 0.003505 1.000003
1.000003 0.004523 1.000003
1.000003 0.083901 1.000003
1.000003 0.781683 0.985190
0.005152 0.003663 1.000003
0.005226 0.003663 1.000003
0.006690 0.003663 1.000003
0.069483 0.003505 1.000003
0.929606 0.003505 1.000003
0.992558 0.003505 1.000003
1.000003 0.004915 1.000003
1.000003 0.093271 1.000003
1.000003 0.795828 0.986875
0.003663 0.004662 1.000003
0.003663 0.004643 1.000003
0.003721 0.004516 1.000003
0.015752 0.004118 1.000003
0.894900 0.003721 1.000003
0.982225 0.003897 1.000003
1.000003 0.020588 1.000003
1.000003 0.132374 1.000003
1.000003 0.807509 0.989655
0.003505 0.487367 1.000003
0.003505 0.485902 1.000003
0.003505 0.469801 1.000003
0.003505 0.363291 1.000003
0.550326 0.169855 1.000003
0.917390 0.142022 1.000003
0.991021 0.168095 1.000003
1.000003 0.361671 1.000003
1.000003 0.811003 0.992114
0.003505 0.857415 1.000003
0.003505 0.857272 1.000003
0.003505 0.855231 1.000003
0.003663 0.838967 1.000003
0.133379 0.808017 1.000003
0.845908 0.781015 1.000003
0.972397 0.766167 1.000003
1.000003 0.775714 0.998297
1.000003 0.850261 0.992312
0.019322 0.949180 0.996119
0.019385 0.949183 0.996135
0.020326 0.949160 0.996237
0.028621 0.948621 0.996284
0.106823 0.946062 0.995876
0.729148 0.939835 0.994651
0.942951 0.931486 0.992830
0.997391 0.927102 0.991529
1.000003 0.927043 0.988087
0.185576 0.991337 0.987795
0.185959 0.991350 0.987810
0.189834 0.991439 0.987913
0.211401 0.991515 0.988032
0.355609 0.991257 0.987936
0.693417 0.989986 0.987215
0.903047 0.987248 0.985661
0.983935 0.983940 0.983956
1.000003 0.979373 0.981174
0.683684 1.000003 0.975583
0.683925 1.000003 0.975591
0.685846 1.000003 0.975638
0.691725 1.000003 0.975691
0.712054 1.000003 0.975647
0.775802 1.000003 0.975270
0.881698 1.000003 0.974195
0.962681 1.000003 0.972693
1.000003 1.000003 0.974707
0.003663 0.003505 1.000003
0.003663 0.003505 1.000003
0.003721 0.003505 1.000003
0.005624 0.003505 1.000003
0.905911 0.003505 1.000003
1.000003 0.003505 1.000003
1.000003 0.003505 1.000003
1.000003 0.004434 1.000003
1.000003 0.153497 1.000003
0.003663 0.003505 1.000003
0.003663 0.003505 1.000003
0.003721 0.003505 1.000003
0.005465 0.003505 1.000003
0.904415 0.003505 1.000003
1.000003 0.003505 1.000003
1.000003 0.003505 1.000003
1.000003 0.004434 1.000003
1.000003 0.155292 1.000003
0.003505 0.003505 1.000003
0.003505 0.003505 1.000003
0.003663 0.003505 1.000003
0.004523 0.003505 1.000003
0.888032 0.003505 1.000003
1.000003 0.003505 1.000003
1.000003 0.003505 1.000003
1.000003 0.004571 1.000003
1.000003 0.170273 1.000003
0.003505 0.003505 1.000003
0.003505 0.003505 1.000003
0.003505 0.003505 1.000003
0.003663 0.003505 1.000003
0.778532 0.003505 1.000003
1.000003 0.003505 1.000003
1.000003 0.003505 1.000003
1.000003 0.012288 1.000003
1.000003 0.217285 1.000003
0.003505 0.015746 1.000003
0.003505 0.015422 1.000003
0.003505 0.013139 1.000003
0.003505 0.008759 1.000003
0.020691 0.004410 1.000003
0.979479 0.003990 1.000003
1.000003 0.018736 1.000003
1.000003 0.091955 1.000003
1.000003 0.408242 1.000003
0.003505 0.886572 1.000003
0.003505 0.886465 1.000003
0.003505 0.884898 1.000003
0.003505 0.872344 1.000003
0.003505 0.781073 1.000003
0.805128 0.660185 1.000003
0.969605 0.631411 1.000003
1.000003 0.657531 1.000003
1.000003 0.739691 1.000003
0.003505 0.950981 1.000003
0.003505 0.950974 1.000003
0.003505 0.950532 1.000003
0.003505 0.944971 1.000003
0.019907 0.930114 1.000003
0.615489 0.918231 1.000003
0.932897 0.906129 1.000003
0.994956 0.900381 1.000003
1.000003 0.903391 1.000003
0.073373 0.984639 1.000003
0.073444 0.984646 1.000003
0.074465 0.984682 1.000003
0.082571 0.984631 1.000003
0.136130 0.984065 1.000003
0.580639 0.982063 1.000003
0.885224 0.978304 1.000003
0.979549 0.974110 1.000003
1.000003 0.972069 1.000003
0.604013 1.000003 1.000003
0.604320 1.000003 1.000003
0.606845 1.000003 1.000003
0.615330 1.000003 1.000003
0.646091 1.000003 1.000003
0.737347 1.000003 1.000003
0.870807 1.000003 1.000003
0.961039 1.000003 1.000003
0.999999 1.000003 1.000003
