luts/RED_709_C2R4.cube
# RED Digital Cinema Output Transform LUT for IPP2
# LUT Name = RWG_Log3G10 to REC709_BT1886 with MEDIUM_CONTRAST and R_4_VerySoft size_33 v1.13
# Generated by version 1.13
# Settings used in creation of this LUT are:
# Development Color Space = REC709
# Output Gamma Curve = BT1886
# Output Tonemap = MEDIUM_CONTRAST
# Highlight Rolloff = Rolloff 4 - very soft
# Resolution = 33 x 33 x 33
TITLE "RED IPP2 LUT to map REDWideGamutRGB/Log3G10 to REC709/BT1886/MEDIUM_CONTRAST/Rolloff 4 - very soft"
LUT_3D_SIZE 33
0.000000 0.000000 0.000000
0.000001 0.000000 0.000000
0.000926 0.000000 0.000000
0.058523 0.003505 0.003505
0.087482 0.003505 0.003505
0.130036 0.003721 0.003972
0.183099 0.005422 0.006950
0.248745 0.009890 0.014896
0.324592 0.016750 0.024617
0.400627 0.024072 0.034897
0.474002 0.031814 0.045713
0.547313 0.040588 0.057938
0.622158 0.051254 0.072776
0.688646 0.063096 0.089251
0.749204 0.077117 0.108815
0.803375 0.094105 0.132682
0.850878 0.115112 0.162556
0.891962 0.141854 0.201282
0.926681 0.176729 0.253045
0.954927 0.222658 0.319968
0.978073 0.287036 0.389671
0.996236 0.367491 0.456836
1.000001 0.443341 0.519261
1.000001 0.513330 0.578003
1.000001 0.575519 0.630893
1.000001 0.632200 0.679567
1.000001 0.681969 0.722629
1.000001 0.726846 0.761695
1.000001 0.766479 0.796373
1.000001 0.800876 0.826596
1.000001 0.831685 0.853767
1.000001 0.858674 0.877643
1.000001 0.883260 0.899456
0.000000 0.000001 0.000000
0.000000 0.000000 0.000000
0.000062 0.000000 0.000000
0.053512 0.003505 0.003505
0.084700 0.003505 0.003505
0.128394 0.004079 0.003825
0.182006 0.006423 0.006420
0.247954 0.011711 0.014039
0.324047 0.018473 0.023817
0.400281 0.025631 0.034187
0.473800 0.033206 0.045095
0.547265 0.041815 0.057422
0.622195 0.052324 0.072354
0.688744 0.064039 0.088915
0.749341 0.077956 0.108560
0.803534 0.094863 0.132507
0.851043 0.115815 0.162466
0.892123 0.142529 0.201288
0.926830 0.177413 0.253174
0.955058 0.223396 0.320220
0.978184 0.287882 0.389987
0.996327 0.368271 0.457185
1.000001 0.443981 0.519621
1.000001 0.513877 0.578360
1.000001 0.575999 0.631238
1.000001 0.632626 0.679894
1.000001 0.682351 0.722936
1.000001 0.727189 0.761979
1.000001 0.766788 0.796634
1.000001 0.801154 0.826835
1.000001 0.831936 0.853984
1.000001 0.858899 0.877840
1.000001 0.883461 0.899632
0.000000 0.000095 0.000000
0.000000 0.000052 0.000000
0.000007 0.000025 0.000000
0.045164 0.003505 0.003505
0.080585 0.003761 0.003505
0.126047 0.005418 0.003663
0.180459 0.008993 0.005808
0.246836 0.014772 0.012906
0.323276 0.021140 0.022739
0.399788 0.027944 0.033222
0.473514 0.035207 0.044260
0.547189 0.043551 0.056722
0.622235 0.053822 0.071781
0.688868 0.065351 0.088455
0.749520 0.079118 0.108209
0.803743 0.095910 0.132266
0.851263 0.116782 0.162338
0.892337 0.143456 0.201291
0.927027 0.178349 0.253341
0.955233 0.224405 0.320553
0.978333 0.289031 0.390409
0.996450 0.369327 0.457652
1.000001 0.444844 0.520103
1.000001 0.514613 0.578839
1.000001 0.576644 0.631701
1.000001 0.633199 0.680333
1.000001 0.682864 0.723347
1.000001 0.727650 0.762360
1.000001 0.767203 0.796984
1.000001 0.801528 0.827156
1.000001 0.832272 0.854275
1.000001 0.859200 0.878103
1.000001 0.883730 0.899868
0.003505 0.051380 0.003505
0.003505 0.049531 0.003505
0.003505 0.046814 0.003505
0.027412 0.042697 0.003505
0.074314 0.033569 0.003505
0.122672 0.016773 0.003505
0.178269 0.016616 0.005152
0.245259 0.020266 0.011447
0.322182 0.025414 0.021309
0.399095 0.031416 0.031939
0.473110 0.038104 0.043147
0.547070 0.046012 0.055786
0.622275 0.055915 0.071009
0.689022 0.067169 0.087833
0.749750 0.080719 0.107732
0.804015 0.097345 0.131933
0.851549 0.118103 0.162158
0.892617 0.144718 0.201284
0.927287 0.179620 0.253553
0.955463 0.225770 0.320988
0.978529 0.290576 0.390963
0.996611 0.370732 0.458266
1.000001 0.445992 0.520740
1.000001 0.515590 0.579471
1.000001 0.577498 0.632312
1.000001 0.633957 0.680912
1.000001 0.683544 0.723890
1.000001 0.728260 0.762863
1.000001 0.767752 0.797447
1.000001 0.802022 0.827578
1.000001 0.832716 0.854660
1.000001 0.859598 0.878451
1.000001 0.884085 0.900181
0.003505 0.080725 0.003505
0.003505 0.079729 0.003505
0.003505 0.078328 0.003505
0.003505 0.076355 0.003505
0.062664 0.073171 0.003505
0.117089 0.063461 0.003505
0.174732 0.042868 0.004457
0.242733 0.032975 0.009419
0.320438 0.033714 0.019223
0.397989 0.037587 0.030037
0.472455 0.043013 0.041477
0.546853 0.050054 0.054371
0.622302 0.059284 0.069835
0.689226 0.070057 0.086881
0.750071 0.083240 0.106995
0.804403 0.099591 0.131412
0.851964 0.120160 0.161864
0.893025 0.146674 0.201251
0.927666 0.181579 0.253848
0.955800 0.227864 0.321616
0.978817 0.292927 0.391775
0.996848 0.372843 0.459173
1.000001 0.447712 0.521679
1.000001 0.517047 0.580405
1.000001 0.578772 0.633216
1.000001 0.635084 0.681771
1.000001 0.684553 0.724694
1.000001 0.729165 0.763608
1.000001 0.768565 0.798131
1.000001 0.802755 0.828205
1.000001 0.833374 0.855229
1.000001 0.860189 0.878967
1.000001 0.884611 0.900643
0.003505 0.122073 0.003505
0.003505 0.121474 0.003505
0.003505 0.120642 0.003505
0.003505 0.119493 0.003505
0.004999 0.117691 0.003505
0.101522 0.113204 0.003505
0.165554 0.103299 0.003721
0.236290 0.088319 0.006316
0.315953 0.066792 0.014743
0.395117 0.057997 0.025755
0.470706 0.057670 0.037624
0.546165 0.061355 0.051054
0.622212 0.068309 0.067041
0.689573 0.077590 0.084585
0.750714 0.089698 0.105188
0.805222 0.105271 0.130098
0.852858 0.125305 0.161074
0.893919 0.151520 0.201061
0.928504 0.186386 0.254412
0.956549 0.232953 0.322966
0.979459 0.298536 0.393569
0.997379 0.377751 0.461197
1.000001 0.451683 0.523790
1.000001 0.520396 0.582510
1.000001 0.581684 0.635256
1.000001 0.637654 0.683709
1.000001 0.686847 0.726512
1.000001 0.731221 0.765293
1.000001 0.770411 0.799681
1.000001 0.804415 0.829623
1.000001 0.834864 0.856517
1.000001 0.861526 0.880133
1.000001 0.885803 0.901690
0.003505 0.172851 0.003505
0.003505 0.172431 0.003505
0.003505 0.171850 0.003505
0.003505 0.171052 0.003505
0.003663 0.169813 0.003505
0.022457 0.166783 0.003505
0.145910 0.161039 0.003505
0.223174 0.150109 0.004130
0.306724 0.136802 0.008508
0.389128 0.120351 0.018945
0.466920 0.100036 0.031141
0.544361 0.089762 0.045275
0.621538 0.089062 0.062031
0.689743 0.093983 0.080358
0.751469 0.103236 0.101756
0.806343 0.116859 0.127488
0.854167 0.135586 0.159345
0.895274 0.161022 0.200346
0.929802 0.195642 0.254974
0.957727 0.242575 0.324912
0.980477 0.308762 0.396351
0.998224 0.386256 0.464420
1.000001 0.458478 0.527193
1.000001 0.526060 0.585927
1.000001 0.586565 0.638581
1.000001 0.641933 0.686875
1.000001 0.690650 0.729484
1.000001 0.734616 0.768051
1.000001 0.773452 0.802217
1.000001 0.807147 0.831944
1.000001 0.837314 0.858627
1.000001 0.863720 0.882043
1.000001 0.887757 0.903404
0.003505 0.235254 0.003663
0.003505 0.234922 0.003663
0.003505 0.234464 0.003663
0.003505 0.233837 0.003663
0.003505 0.232872 0.003663
0.004220 0.230525 0.003663
0.073889 0.226131 0.003663
0.198358 0.218822 0.003505
0.289201 0.206572 0.004605
0.377695 0.193237 0.010609
0.459448 0.178416 0.022238
0.540177 0.160714 0.036798
0.619278 0.139798 0.054309
0.688949 0.130051 0.073575
0.751722 0.131030 0.096001
0.807297 0.139533 0.122839
0.855533 0.154981 0.155912
0.896825 0.178406 0.198335
0.931367 0.212088 0.254758
0.959191 0.259185 0.326825
0.981769 0.325386 0.399685
0.999312 0.398981 0.468525
1.000001 0.468434 0.531646
1.000001 0.534195 0.590463
1.000001 0.593464 0.643031
1.000001 0.647909 0.691132
1.000001 0.695914 0.733493
1.000001 0.739287 0.771777
1.000001 0.777618 0.805650
1.000001 0.810879 0.835088
1.000001 0.840652 0.861486
1.000001 0.866707 0.884631
1.000001 0.890414 0.905729
0.003505 0.308427 0.003897
0.003505 0.308157 0.003897
0.003505 0.307787 0.003897
0.003505 0.307286 0.003897
0.003505 0.306515 0.003873
0.003721 0.304640 0.003850
0.007657 0.301119 0.003825
0.130357 0.295236 0.003761
0.258980 0.286535 0.003721
0.358080 0.272512 0.005183
0.446403 0.258033 0.012728
0.532018 0.241927 0.026577
0.614056 0.223915 0.044263
0.686007 0.206008 0.064249
0.750453 0.189786 0.087641
0.807211 0.183557 0.115615
0.856225 0.190449 0.150006
0.897972 0.208733 0.194018
0.932715 0.239616 0.252484
0.960558 0.285826 0.327397
0.983036 0.348426 0.402451
1.000001 0.415618 0.472526
1.000001 0.481088 0.536261
1.000001 0.544230 0.595312
1.000001 0.601762 0.647869
1.000001 0.654952 0.695810
1.000001 0.702028 0.737928
1.000001 0.744655 0.775916
1.000001 0.782370 0.809473
1.000001 0.815114 0.838596
1.000001 0.844427 0.864682
1.000001 0.870076 0.887527
1.000001 0.893407 0.908331
0.003505 0.383356 0.004352
0.003505 0.383154 0.004352
0.003505 0.382877 0.004352
0.003505 0.382503 0.004343
0.003505 0.381928 0.004334
0.003663 0.380530 0.004316
0.004442 0.377909 0.004279
0.024840 0.373528 0.004208
0.188027 0.367044 0.004092
0.325101 0.356161 0.004165
0.425418 0.344148 0.005997
0.517947 0.329034 0.016181
0.604243 0.312183 0.032792
0.679531 0.294712 0.052799
0.746481 0.277522 0.076715
0.805084 0.263596 0.105511
0.855407 0.257283 0.140970
0.898030 0.263464 0.186364
0.933300 0.286419 0.246696
0.961400 0.325287 0.325000
0.983954 0.377141 0.403308
1.000001 0.436059 0.475276
1.000001 0.496142 0.540037
1.000001 0.555712 0.599590
1.000001 0.610913 0.652307
1.000001 0.662478 0.700202
1.000001 0.708409 0.742150
1.000001 0.750157 0.779896
1.000001 0.787181 0.813174
1.000001 0.819366 0.842010
1.000001 0.848196 0.867801
1.000001 0.873428 0.890361
1.000001 0.896376 0.910883
0.003505 0.456165 0.005170
0.003505 0.456013 0.005170
0.003505 0.455805 0.005166
0.003505 0.455523 0.005161
0.003663 0.455090 0.005152
0.003663 0.454038 0.005130
0.004037 0.452066 0.005085
0.007437 0.448766 0.004985
0.065105 0.443865 0.004841
0.251534 0.437084 0.004662
0.393309 0.428166 0.004465
0.494503 0.414106 0.007662
0.587871 0.398796 0.021220
0.667883 0.382944 0.040054
0.738433 0.366737 0.063649
0.799773 0.351762 0.092576
0.852136 0.340937 0.128454
0.896236 0.338363 0.174550
0.932521 0.348412 0.235994
0.961257 0.372965 0.317606
0.984177 0.411752 0.400672
1.000001 0.460579 0.475486
1.000001 0.513671 0.541899
1.000001 0.568489 0.602385
1.000001 0.620605 0.655558
1.000001 0.670083 0.703623
1.000001 0.714609 0.745560
1.000001 0.755344 0.783187
1.000001 0.791616 0.816284
1.000001 0.823225 0.844910
1.000001 0.851582 0.870475
1.000001 0.876418 0.892808
1.000001 0.899014 0.913099
0.003663 0.524319 0.006663
0.003663 0.524203 0.006661
0.003663 0.524044 0.006652
0.003663 0.523829 0.006647
0.003663 0.523500 0.006639
0.003721 0.522702 0.006609
0.003990 0.521206 0.006543
0.005243 0.518704 0.006417
0.019018 0.514975 0.006213
0.142841 0.509780 0.005940
0.322760 0.502884 0.005638
0.457288 0.494255 0.005375
0.558966 0.480253 0.010736
0.649250 0.465288 0.027367
0.724826 0.450063 0.049479
0.790030 0.434999 0.077540
0.845372 0.421878 0.112833
0.891741 0.413573 0.158481
0.929698 0.413937 0.219627
0.959598 0.426127 0.302798
0.983310 0.451823 0.392669
1.000001 0.489247 0.471634
1.000001 0.533769 0.540585
1.000001 0.582493 0.602642
1.000001 0.630602 0.656726
1.000001 0.677410 0.705305
1.000001 0.720210 0.747492
1.000001 0.759772 0.785211
1.000001 0.795238 0.818298
1.000001 0.826279 0.846856
1.000001 0.854201 0.872317
1.000001 0.878699 0.894526
1.000001 0.901010 0.914681
0.003721 0.587747 0.009559
0.003721 0.587658 0.009553
0.003721 0.587536 0.009547
0.003721 0.587371 0.009537
0.003761 0.587118 0.009522
0.003825 0.586507 0.009480
0.004051 0.585368 0.009387
0.004814 0.583468 0.009202
0.009387 0.580633 0.008895
0.043558 0.576663 0.008465
0.221800 0.571341 0.007966
0.390953 0.564599 0.007489
0.518093 0.556291 0.007156
0.615344 0.542925 0.014978
0.704111 0.528179 0.035353
0.775248 0.513585 0.061695
0.834731 0.499656 0.095400
0.884180 0.488145 0.139284
0.924455 0.481937 0.198320
0.956088 0.484293 0.279793
0.981082 0.497895 0.377743
0.999958 0.523277 0.462548
1.000001 0.557746 0.535195
1.000001 0.598788 0.599673
1.000001 0.641636 0.655279
1.000001 0.684895 0.704832
1.000001 0.725435 0.747613
1.000001 0.763523 0.785695
1.000001 0.798042 0.818990
1.000001 0.828471 0.847654
1.000001 0.855973 0.873160
1.000001 0.880178 0.895374
1.000001 0.902267 0.915505
0.003897 0.645349 0.014562
0.003917 0.645279 0.014556
0.003917 0.645183 0.014548
0.003936 0.645055 0.014538
0.003972 0.644858 0.014521
0.004037 0.644384 0.014474
0.004250 0.643507 0.014370
0.004835 0.642054 0.014164
0.007156 0.639896 0.013806
0.020910 0.636866 0.013271
0.090306 0.632772 0.012574
0.301378 0.627523 0.011819
0.457084 0.620961 0.011167
0.574495 0.613134 0.010887
0.667910 0.600331 0.021232
0.754064 0.585914 0.046380
0.819672 0.572115 0.077868
0.873424 0.559277 0.119148
0.916876 0.549304 0.174848
0.950828 0.544915 0.251976
0.977561 0.548812 0.356014
0.997689 0.563002 0.448421
1.000001 0.586862 0.525957
1.000001 0.618944 0.593754
1.000001 0.655198 0.651535
1.000001 0.693801 0.702549
1.000001 0.731306 0.746274
1.000001 0.767410 0.784984
1.000001 0.800677 0.818686
1.000001 0.830328 0.847611
1.000001 0.857329 0.873285
1.000001 0.881215 0.895604
1.000001 0.903089 0.915799
0.004230 0.697517 0.021582
0.004250 0.697461 0.021575
0.004250 0.697385 0.021567
0.004279 0.697283 0.021554
0.004307 0.697127 0.021534
0.004393 0.696754 0.021482
0.004605 0.696070 0.021371
0.005143 0.694952 0.021153
0.006789 0.693306 0.020780
0.014065 0.691002 0.020207
0.042550 0.687872 0.019429
0.173080 0.683816 0.018522
0.378413 0.678678 0.017639
0.518315 0.672452 0.017048
0.626673 0.665097 0.017148
0.715335 0.652966 0.029961
0.798140 0.639001 0.061001
0.858284 0.626003 0.099223
0.906141 0.614302 0.150636
0.943245 0.605857 0.221755
0.972351 0.602814 0.325965
0.994217 0.607696 0.428152
1.000001 0.621441 0.512025
1.000001 0.643900 0.584237
1.000001 0.672360 0.645008
1.000001 0.705061 0.698103
1.000001 0.738531 0.743222
1.000001 0.771925 0.782897
1.000001 0.803466 0.817258
1.000001 0.832058 0.846631
1.000001 0.858398 0.872624
1.000001 0.881887 0.895166
1.000001 0.903517 0.915525
0.004825 0.744288 0.031267
0.004835 0.744243 0.031259
0.004852 0.744182 0.031248
0.004878 0.744099 0.031233
0.004915 0.743973 0.031209
0.005019 0.743675 0.031148
0.005248 0.743135 0.031024
0.005798 0.742264 0.030791
0.007240 0.741001 0.030400
0.012135 0.739250 0.029799
0.027509 0.736871 0.028957
0.079498 0.733765 0.027920
0.271687 0.729779 0.026809
0.448748 0.724877 0.025881
0.575375 0.718989 0.025520
0.674468 0.712141 0.026335
0.757622 0.700770 0.042023
0.836990 0.687264 0.080645
0.891385 0.675154 0.127659
0.932842 0.664749 0.192014
0.965114 0.657439 0.288570
0.989290 0.655538 0.401395
1.000001 0.660745 0.492936
1.000001 0.673933 0.570671
1.000001 0.693982 0.635337
1.000001 0.719699 0.691239
1.000001 0.748047 0.738299
1.000001 0.777822 0.779351
1.000001 0.806979 0.814674
1.000001 0.834077 0.844714
1.000001 0.859477 0.871193
1.000001 0.882407 0.894087
1.000001 0.903706 0.914714
0.005907 0.785824 0.044467
0.005920 0.785787 0.044456
0.005943 0.785736 0.044442
0.005972 0.785669 0.044423
0.006020 0.785566 0.044392
0.006140 0.785324 0.044318
0.006417 0.784889 0.044172
0.007039 0.784201 0.043915
0.008516 0.783223 0.043499
0.012513 0.781887 0.042870
0.022570 0.780085 0.041979
0.050202 0.777724 0.040839
0.142728 0.774663 0.039525
0.361443 0.770844 0.038265
0.513965 0.766184 0.037414
0.628013 0.760670 0.037546
0.717847 0.754347 0.039565
0.795697 0.743695 0.058919
0.870824 0.730756 0.107137
0.918752 0.719754 0.165093
0.955370 0.710297 0.250881
0.982595 0.704143 0.368620
1.000001 0.703052 0.468725
1.000001 0.708351 0.552847
1.000001 0.720267 0.622234
1.000001 0.738441 0.681693
1.000001 0.760732 0.731300
1.000001 0.785913 0.774209
1.000001 0.811875 0.810853
1.000001 0.836887 0.841823
1.000001 0.860937 0.868985
1.000001 0.883045 0.892377
1.000001 0.903847 0.913388
0.008017 0.822657 0.062455
0.008037 0.822626 0.062441
0.008063 0.822584 0.062422
0.008101 0.822528 0.062396
0.008162 0.822443 0.062356
0.008324 0.822243 0.062261
0.008680 0.821889 0.062083
0.009460 0.821338 0.061783
0.011146 0.820572 0.061326
0.014603 0.819546 0.060659
0.022114 0.818182 0.059721
0.039773 0.816401 0.058497
0.087561 0.814076 0.057014
0.247067 0.811138 0.055449
0.440417 0.807498 0.054114
0.573545 0.803120 0.053541
0.675751 0.798010 0.054552
0.757181 0.792180 0.058495
0.829268 0.782300 0.082270
0.898993 0.770175 0.142166
0.942155 0.759956 0.218091
0.973591 0.751572 0.331325
0.996008 0.746446 0.439971
1.000001 0.745836 0.530795
1.000001 0.750753 0.605471
1.000001 0.761581 0.669154
1.000001 0.777300 0.721934
1.000001 0.797030 0.767239
1.000001 0.818911 0.805631
1.000001 0.841104 0.837850
1.000001 0.863242 0.865937
1.000001 0.884136 0.890005
1.000001 0.904178 0.911536
0.012278 0.855020 0.086925
0.012301 0.854994 0.086905
0.012334 0.854959 0.086879
0.012378 0.854912 0.086843
0.012449 0.854840 0.086790
0.012637 0.854674 0.086663
0.013036 0.854382 0.086434
0.013854 0.853935 0.086068
0.015438 0.853326 0.085540
0.018504 0.852532 0.084806
0.024644 0.851495 0.083804
0.037527 0.850155 0.082497
0.067536 0.848405 0.080868
0.147747 0.846173 0.079033
0.353163 0.843367 0.077241
0.511005 0.839935 0.075970
0.627610 0.835864 0.075981
0.719344 0.831136 0.078460
0.792543 0.825802 0.085388
0.857235 0.816923 0.113682
0.923567 0.805291 0.192054
0.961388 0.796035 0.293775
0.987769 0.788743 0.408619
1.000001 0.784312 0.505371
1.000001 0.783970 0.585294
1.000001 0.788482 0.653551
1.000001 0.797826 0.710003
1.000001 0.811677 0.758227
1.000001 0.828744 0.798823
1.000001 0.847357 0.832657
1.000001 0.866915 0.861955
1.000001 0.886086 0.886912
1.000001 0.904991 0.909126
0.018784 0.882799 0.119810
0.018806 0.882777 0.119783
0.018836 0.882747 0.119746
0.018877 0.882706 0.119697
0.018944 0.882646 0.119623
0.019121 0.882506 0.119448
0.019499 0.882261 0.119143
0.020275 0.881893 0.118673
0.021766 0.881402 0.118028
0.024567 0.880775 0.117178
0.029898 0.879977 0.116065
0.040243 0.878963 0.114642
0.061879 0.877646 0.112855
0.111429 0.875960 0.110765
0.252741 0.873814 0.108545
0.442816 0.871150 0.106604
0.575112 0.867935 0.105639
0.677741 0.864140 0.106744
0.759350 0.859786 0.111660
0.823616 0.855008 0.123043
0.883561 0.846748 0.159906
0.944439 0.835880 0.264436
0.976763 0.827687 0.378666
0.999390 0.821187 0.478890
1.000001 0.817463 0.562985
1.000001 0.817286 0.635510
1.000001 0.821245 0.695759
1.000001 0.829516 0.747223
1.000001 0.841517 0.790404
1.000001 0.856015 0.826199
1.000001 0.872380 0.857003
1.000001 0.889281 0.883079
1.000001 0.906603 0.906156
0.028382 0.907203 0.166256
0.028401 0.907184 0.166217
0.028427 0.907159 0.166163
0.028464 0.907124 0.166091
0.028523 0.907073 0.165984
0.028681 0.906954 0.165735
0.029028 0.906749 0.165305
0.029750 0.906442 0.164662
0.031143 0.906042 0.163817
0.033734 0.905543 0.162757
0.038518 0.904924 0.161437
0.047329 0.904154 0.159808
0.064388 0.903168 0.157788
0.099441 0.901907 0.155388
0.182477 0.900291 0.152703
0.370561 0.898256 0.150060
0.518886 0.895760 0.148088
0.632295 0.892762 0.147808
0.722461 0.889264 0.150849
0.793681 0.885362 0.159584
0.851583 0.880991 0.178649
0.905325 0.873560 0.226987
0.960824 0.863577 0.354179
0.989300 0.856130 0.453496
1.000001 0.850482 0.539550
1.000001 0.847174 0.615333
1.000001 0.847008 0.679107
1.000001 0.850439 0.733941
1.000001 0.857515 0.780022
1.000001 0.867592 0.818139
1.000001 0.880215 0.850794
1.000001 0.894248 0.878279
1.000001 0.909434 0.902456
0.042093 0.928112 0.233016
0.042107 0.928096 0.232956
0.042128 0.928074 0.232874
0.042158 0.928044 0.232766
0.042205 0.928001 0.232604
0.042337 0.927899 0.232230
0.042639 0.927725 0.231592
0.043289 0.927468 0.230658
0.044574 0.927138 0.229467
0.046975 0.926736 0.228036
0.051355 0.926249 0.226334
0.059176 0.925657 0.224326
0.073565 0.924914 0.221904
0.100993 0.923972 0.219041
0.158778 0.922764 0.215760
0.303264 0.921227 0.212298
0.464263 0.919312 0.209206
0.586205 0.916972 0.207452
0.683805 0.914195 0.208630
0.761560 0.911046 0.215049
0.825271 0.907462 0.230844
0.876154 0.903552 0.263050
0.922739 0.897092 0.318780
0.974675 0.887709 0.433259
0.999020 0.881143 0.517841
1.000001 0.876063 0.594813
1.000001 0.873182 0.661095
1.000001 0.872979 0.718917
1.000001 0.875880 0.767900
1.000001 0.881771 0.808531
1.000001 0.890486 0.843304
1.000001 0.901251 0.872465
1.000001 0.913811 0.897982
0.060977 0.945625 0.324799
0.060986 0.945611 0.324726
0.060999 0.945592 0.324629
0.061018 0.945567 0.324499
0.061051 0.945529 0.324306
0.061148 0.945442 0.323859
0.061388 0.945294 0.323100
0.061948 0.945076 0.321995
0.063106 0.944800 0.320606
0.065323 0.944470 0.318972
0.069380 0.944080 0.317082
0.076528 0.943618 0.314911
0.089287 0.943049 0.312346
0.112452 0.942339 0.309317
0.157679 0.941433 0.305750
0.258660 0.940275 0.301747
0.418893 0.938815 0.297704
0.544214 0.937002 0.294472
0.646411 0.934812 0.293589
0.729219 0.932288 0.297157
0.798010 0.929371 0.307784
0.853564 0.926139 0.327587
0.897271 0.922712 0.356861
0.939099 0.916885 0.401722
0.985788 0.908356 0.500418
1.000001 0.902375 0.576239
1.000001 0.897952 0.643307
1.000001 0.895376 0.703166
1.000001 0.895188 0.754637
1.000001 0.897608 0.797698
1.000001 0.902722 0.834685
1.000001 0.910173 0.865695
1.000001 0.919831 0.892751
0.087482 0.960660 0.408595
0.087482 0.960648 0.408533
0.087485 0.960631 0.408448
0.087490 0.960609 0.408336
0.087502 0.960577 0.408168
0.087550 0.960503 0.407782
0.087709 0.960375 0.407128
0.088151 0.960190 0.406186
0.089157 0.959958 0.405018
0.091183 0.959685 0.403673
0.094965 0.959369 0.402164
0.101634 0.959004 0.400492
0.113368 0.958565 0.398583
0.134046 0.958027 0.396392
0.172428 0.957348 0.393836
0.250804 0.956481 0.390910
0.389486 0.955380 0.387744
0.510181 0.953994 0.384694
0.612430 0.952291 0.382519
0.697747 0.950294 0.382431
0.770243 0.947948 0.386070
0.829816 0.945311 0.395309
0.877319 0.942472 0.411385
0.915884 0.939401 0.435508
0.951576 0.934412 0.470937
0.995035 0.926447 0.560023
1.000001 0.921137 0.626731
1.000001 0.917144 0.687241
1.000001 0.914858 0.740457
1.000001 0.914631 0.785646
1.000001 0.916681 0.824809
1.000001 0.921012 0.857785
1.000001 0.927668 0.886566
0.123577 0.973141 0.478378
0.123568 0.973130 0.478321
0.123555 0.973116 0.478246
0.123541 0.973097 0.478146
0.123524 0.973069 0.477995
0.123507 0.973005 0.477650
0.123557 0.972896 0.477067
0.123847 0.972737 0.476234
0.124675 0.972540 0.475207
0.126505 0.972311 0.474044
0.130066 0.972051 0.472764
0.136441 0.971757 0.471384
0.147645 0.971412 0.469857
0.167088 0.970998 0.468152
0.202070 0.970483 0.466197
0.269496 0.969830 0.463960
0.382717 0.968999 0.461461
0.489969 0.967942 0.458837
0.586485 0.966626 0.456461
0.670592 0.965055 0.455032
0.744444 0.963179 0.455524
0.806666 0.961037 0.459290
0.857224 0.958699 0.467545
0.898871 0.956136 0.481654
0.931760 0.953466 0.501740
0.963657 0.948985 0.532379
1.000001 0.941780 0.611562
1.000001 0.936909 0.672722
1.000001 0.933380 0.726559
1.000001 0.931390 0.773226
1.000001 0.931164 0.814243
1.000001 0.932922 0.849084
1.000001 0.936845 0.879630
0.175272 0.983826 0.539759
0.175244 0.983817 0.539708
0.175209 0.983805 0.539639
0.175167 0.983789 0.539549
0.175106 0.983764 0.539413
0.174990 0.983709 0.539102
0.174882 0.983615 0.538576
0.174957 0.983479 0.537826
0.175550 0.983312 0.536910
0.177161 0.983119 0.535881
0.180550 0.982904 0.534766
0.186819 0.982665 0.533588
0.197946 0.982390 0.532317
0.217170 0.982069 0.530933
0.251105 0.981676 0.529386
0.312612 0.981184 0.527632
0.398640 0.980560 0.525655
0.485870 0.979762 0.523486
0.570933 0.978756 0.521297
0.649538 0.977537 0.519473
0.721723 0.976056 0.518566
0.784687 0.974337 0.519477
0.837205 0.972433 0.523161
0.881340 0.970318 0.530758
0.916743 0.968087 0.542855
0.945737 0.965699 0.560299
0.972841 0.961878 0.585378
1.000001 0.955194 0.657687
1.000001 0.950774 0.713299
1.000001 0.947677 0.760621
1.000001 0.945865 0.803017
1.000001 0.945636 0.839519
1.000001 0.947225 0.871800
0.249539 0.992684 0.592668
0.249487 0.992676 0.592622
0.249415 0.992666 0.592559
0.249326 0.992652 0.592477
0.249196 0.992631 0.592353
0.248926 0.992583 0.592070
0.248566 0.992502 0.591592
0.248310 0.992385 0.590911
0.248558 0.992241 0.590083
0.249883 0.992078 0.589159
0.253134 0.991897 0.588169
