luts/RED_709_C1R4.cube
# RED Digital Cinema Output Transform LUT for IPP2
# LUT Name = RWG_Log3G10 to REC709_BT1886 with HIGH_CONTRAST and R_4_VerySoft size_33 v1.13
# Generated by version 1.13
# Settings used in creation of this LUT are:
# Development Color Space = REC709
# Output Gamma Curve = BT1886
# Output Tonemap = HIGH_CONTRAST
# Highlight Rolloff = Rolloff 4 - very soft
# Resolution = 33 x 33 x 33
TITLE "RED IPP2 LUT to map REDWideGamutRGB/Log3G10 to REC709/BT1886/HIGH_CONTRAST/Rolloff 4 - very soft"
LUT_3D_SIZE 9
0.000000 0.000000 0.000000
0.077286 0.003505 0.003505
0.293598 0.014927 0.021996
0.652629 0.056896 0.080590
0.913108 0.161446 0.230175
1.000001 0.486931 0.555733
1.000001 0.727390 0.762170
1.000001 0.834802 0.856520
1.000001 0.883408 0.899586
0.003505 0.071047 0.003505
0.054375 0.064113 0.003505
0.289789 0.028941 0.017400
0.652907 0.062669 0.078490
0.913898 0.165146 0.230499
1.000001 0.489976 0.557596
1.000001 0.729178 0.763644
1.000001 0.836090 0.857637
1.000001 0.884450 0.900503
0.003505 0.278051 0.003825
0.003505 0.276386 0.003825
0.232932 0.256491 0.003761
0.649168 0.181936 0.057696
0.918645 0.211861 0.228088
1.000001 0.515229 0.570869
1.000001 0.742764 0.774523
1.000001 0.845718 0.865903
1.000001 0.892206 0.907290
0.003793 0.614086 0.011699
0.003825 0.613652 0.011671
0.006001 0.608933 0.011132
0.543821 0.582262 0.008582
0.905224 0.514905 0.162096
1.000001 0.591964 0.572591
1.000001 0.765477 0.785801
1.000001 0.859244 0.875744
1.000001 0.902693 0.915711
0.010215 0.842066 0.075905
0.010348 0.841917 0.075815
0.012652 0.840530 0.074878
0.105497 0.833670 0.069391
0.778315 0.812315 0.073174
1.000001 0.769029 0.481068
1.000001 0.805270 0.762544
1.000001 0.867280 0.866433
1.000001 0.904574 0.910201
0.075991 0.955022 0.377363
0.076024 0.954955 0.377017
0.077338 0.954388 0.374148
0.110803 0.952511 0.365556
0.584547 0.946598 0.349986
0.908858 0.933123 0.406104
1.000001 0.908707 0.693857
1.000001 0.911498 0.832401
1.000001 0.924379 0.889117
0.357918 1.000001 0.640340
0.357517 1.000001 0.640118
0.355445 0.999980 0.638330
0.377951 0.999208 0.633993
0.553745 0.997436 0.627563
0.831413 0.992413 0.623237
0.968235 0.985037 0.656591
1.000001 0.972597 0.785040
1.000001 0.968950 0.854518
0.599436 1.000001 0.754891
0.599161 1.000001 0.754722
0.597163 1.000001 0.753365
0.598180 1.000001 0.750208
0.645544 1.000001 0.746314
0.803366 1.000001 0.741325
0.938612 1.000001 0.745602
0.992595 1.000001 0.766389
1.000001 0.999458 0.819719
0.693601 1.000001 0.808681
0.693376 1.000001 0.808539
0.691659 1.000001 0.807394
0.690182 1.000001 0.804763
0.710591 1.000001 0.801749
0.806590 1.000001 0.797853
0.923345 1.000001 0.797145
0.980198 1.000001 0.805677
1.000001 1.000001 0.817957
0.003505 0.003505 0.065016
0.074999 0.003505 0.063746
0.293210 0.012856 0.041840
0.652577 0.055759 0.088479
0.913119 0.160915 0.234257
1.000001 0.486880 0.556314
1.000001 0.727445 0.762298
1.000001 0.834854 0.856587
1.000001 0.883454 0.899637
0.003505 0.056935 0.053391
0.050053 0.050054 0.050057
0.289290 0.024916 0.035325
0.652778 0.061345 0.086520
0.913864 0.164525 0.234675
1.000001 0.489816 0.558107
1.000001 0.729160 0.763712
1.000001 0.836089 0.857657
1.000001 0.884453 0.900515
0.003505 0.275207 0.004410
0.003505 0.274134 0.004326
0.233157 0.255668 0.004051
0.649030 0.179290 0.063507
0.918613 0.211121 0.231856
1.000001 0.515097 0.571315
1.000001 0.742751 0.774582
1.000001 0.845720 0.865922
1.000001 0.892211 0.907302
0.003761 0.613484 0.012747
0.003825 0.613369 0.012667
0.005962 0.608620 0.012163
0.543762 0.581879 0.009445
0.905189 0.514614 0.164351
1.000001 0.591890 0.572976
1.000001 0.765473 0.785853
1.000001 0.859250 0.875763
1.000001 0.902701 0.915724
0.010186 0.841895 0.076554
0.010343 0.841928 0.076553
0.012641 0.840538 0.075657
0.105404 0.833669 0.070234
0.778354 0.812307 0.074137
1.000001 0.769036 0.481549
1.000001 0.805277 0.762600
1.000001 0.867289 0.866454
1.000001 0.904583 0.910215
0.075862 0.954950 0.377394
0.076069 0.954980 0.377553
0.077381 0.954413 0.374714
0.110840 0.952534 0.366199
0.584573 0.946621 0.350720
0.908891 0.933146 0.406691
1.000001 0.908732 0.693937
1.000001 0.911516 0.832425
1.000001 0.924392 0.889132
0.357328 1.000001 0.640159
0.357781 1.000001 0.640271
0.355704 0.999995 0.638486
0.378167 0.999224 0.634157
0.553828 0.997451 0.627738
0.831445 0.992429 0.623417
0.968256 0.985054 0.656748
1.000001 0.972616 0.785088
1.000001 0.968967 0.854541
0.599116 1.000001 0.754730
0.599308 1.000001 0.754817
0.597309 1.000001 0.753461
0.598319 1.000001 0.750305
0.645642 1.000001 0.746414
0.803406 1.000001 0.741428
0.938635 1.000001 0.745702
0.992611 1.000001 0.766481
1.000001 0.999472 0.819776
0.693352 1.000001 0.808541
0.693491 1.000001 0.808614
0.691774 1.000001 0.807471
0.690292 1.000001 0.804839
0.710682 1.000001 0.801827
0.806637 1.000001 0.797933
0.923369 1.000001 0.797224
0.980214 1.000001 0.805752
1.000001 1.000001 0.818028
0.012232 0.004393 0.258435
0.034418 0.004307 0.258354
0.288026 0.004240 0.255777
0.651143 0.043788 0.223885
0.912693 0.153722 0.291565
1.000001 0.484851 0.562797
1.000001 0.727221 0.763166
1.000001 0.834852 0.856856
1.000001 0.883497 0.899793
0.007385 0.006442 0.257104
0.023309 0.006035 0.256572
0.283923 0.005302 0.253848
0.651314 0.048324 0.221408
0.913435 0.157205 0.291791
1.000001 0.487813 0.564507
1.000001 0.728936 0.764564
1.000001 0.836086 0.857921
1.000001 0.884495 0.900668
0.003505 0.240664 0.232411
0.003505 0.239427 0.231802
0.224716 0.224722 0.224739
0.646664 0.144804 0.189439
0.917805 0.201213 0.287878
1.000001 0.512458 0.576616
1.000001 0.741964 0.774856
1.000001 0.845295 0.865790
1.000001 0.891911 0.907141
0.003721 0.606378 0.039155
0.003761 0.606255 0.038903
0.005491 0.604093 0.036141
0.542559 0.576375 0.034804
0.904286 0.510441 0.198210
1.000001 0.590319 0.577469
1.000001 0.764859 0.786033
1.000001 0.858907 0.875639
1.000001 0.902460 0.915587
0.009853 0.840200 0.087523
0.010009 0.840233 0.087494
0.012451 0.840310 0.087020
0.104124 0.833316 0.082760
0.778542 0.811848 0.088667
1.000001 0.768887 0.487312
1.000001 0.805032 0.762789
1.000001 0.867053 0.866331
1.000001 0.904392 0.910083
0.074766 0.954336 0.380392
0.074976 0.954365 0.380532
0.077650 0.954567 0.381545
0.111028 0.952673 0.374114
0.584692 0.946747 0.359901
0.909132 0.933270 0.413993
1.000001 0.908914 0.694403
1.000001 0.911578 0.832284
1.000001 0.924378 0.888973
0.352536 0.999964 0.639072
0.352999 0.999981 0.639180
0.357704 1.000001 0.640021
0.379812 0.999337 0.635814
0.554453 0.997564 0.629543
0.831686 0.992546 0.625302
0.967495 0.984376 0.654931
1.000001 0.972777 0.785269
1.000001 0.969102 0.854448
0.596547 1.000001 0.753553
0.596739 1.000001 0.753638
0.598456 1.000001 0.754304
0.599398 1.000001 0.751180
0.646397 1.000001 0.747330
0.803712 1.000001 0.742382
0.938808 1.000001 0.746631
0.992732 1.000001 0.767326
1.000001 0.999584 0.820142
0.691364 1.000001 0.807469
0.691503 1.000001 0.807542
0.692676 1.000001 0.808111
0.691164 1.000001 0.805494
0.711393 1.000001 0.802500
0.806994 1.000001 0.798626
0.923554 1.000001 0.797915
0.980341 1.000001 0.806411
1.000001 1.000001 0.818651
0.039432 0.008180 0.582148
0.047264 0.008070 0.582376
0.238127 0.006983 0.583225
0.627740 0.007760 0.577177
0.902810 0.103179 0.540937
1.000001 0.448460 0.609411
1.000001 0.714328 0.763380
1.000001 0.827042 0.852939
1.000001 0.877613 0.895870
0.036067 0.009490 0.582840
0.043953 0.009300 0.582712
0.232554 0.007885 0.583547
0.627540 0.008613 0.577475
0.903507 0.105667 0.541279
1.000001 0.451724 0.610602
1.000001 0.716075 0.764659
1.000001 0.828289 0.853973
1.000001 0.878621 0.896734
0.012103 0.057942 0.583325
0.015022 0.056935 0.583212
0.152313 0.046620 0.581255
0.620084 0.033466 0.575900
0.907380 0.137062 0.541342
1.000001 0.479054 0.619029
1.000001 0.729357 0.774083
1.000001 0.837594 0.861609
1.000001 0.886109 0.903125
0.003505 0.557204 0.543560
0.003505 0.547615 0.534421
0.003761 0.553859 0.541966
0.530014 0.530025 0.530059
0.889872 0.469079 0.503923
1.000001 0.566224 0.617516
1.000001 0.751856 0.783072
1.000001 0.850380 0.870206
1.000001 0.895924 0.910680
0.007609 0.829805 0.359302
0.007719 0.829840 0.359073
0.009614 0.829903 0.356763
0.091820 0.826350 0.343575
0.776799 0.803667 0.371601
0.997767 0.764319 0.539482
1.000001 0.798401 0.759331
1.000001 0.860445 0.860534
1.000001 0.898686 0.904975
0.070575 0.951944 0.443490
0.070789 0.951974 0.443513
0.073545 0.952180 0.443611
0.109190 0.952045 0.442066
0.583061 0.945902 0.438887
0.908409 0.931295 0.488015
1.000001 0.909008 0.693359
1.000001 0.910185 0.825481
1.000001 0.921948 0.882935
0.340141 0.999093 0.645137
0.340620 0.999110 0.645222
0.345655 0.999240 0.645876
0.382133 0.999406 0.646996
0.555059 0.997599 0.642482
0.831975 0.992550 0.639348
0.968707 0.985185 0.670096
1.000001 0.973329 0.781842
1.000001 0.969369 0.848640
0.590507 1.000001 0.753451
0.590703 1.000001 0.753528
0.592464 1.000001 0.754127
0.601489 1.000001 0.755324
0.647788 1.000001 0.751990
0.804245 1.000001 0.747510
0.939133 1.000001 0.751704
0.992968 1.000001 0.771738
1.000001 0.999980 0.819326
0.686803 1.000001 0.806310
0.686942 1.000001 0.806378
0.688128 1.000001 0.806910
0.692951 1.000001 0.808005
0.712820 1.000001 0.805258
0.807691 1.000001 0.801628
0.923915 1.000001 0.800992
0.980597 1.000001 0.809308
1.000001 1.000001 0.821298
0.050076 0.009528 0.823415
0.053589 0.009463 0.823655
0.128445 0.008682 0.825036
0.609500 0.006820 0.824165
0.859267 0.017158 0.811197
1.000001 0.262212 0.772408
1.000001 0.660399 0.796339
1.000001 0.797868 0.851669
1.000001 0.856409 0.888260
0.048316 0.010107 0.824322
0.052017 0.010019 0.824309
0.124992 0.009151 0.825683
0.608715 0.007109 0.824787
0.859794 0.017808 0.811893
1.000001 0.265693 0.773095
1.000001 0.662395 0.797204
1.000001 0.799222 0.852548
1.000001 0.857492 0.889063
0.030135 0.021992 0.828729
0.032431 0.021810 0.828727
0.086197 0.019647 0.828095
0.591298 0.014760 0.827068
0.862113 0.026940 0.816006
1.000001 0.299183 0.778096
1.000001 0.677628 0.803682
1.000001 0.809330 0.859100
1.000001 0.865535 0.895033
0.005598 0.405322 0.821034
0.005831 0.404472 0.821037
0.013268 0.394233 0.820634
0.466666 0.344065 0.816244
0.845334 0.283428 0.809319
1.000001 0.451333 0.781656
1.000001 0.704972 0.811252
1.000001 0.823274 0.866788
1.000001 0.875946 0.902120
0.003990 0.791917 0.779461
0.004021 0.791932 0.779495
0.004288 0.791773 0.779594
0.051260 0.786627 0.777012
0.766799 0.766811 0.766848
0.980610 0.733430 0.750844
1.000001 0.770447 0.795567
1.000001 0.837015 0.857403
1.000001 0.879164 0.895402
0.054743 0.942521 0.688622
0.054937 0.942554 0.688588
0.057443 0.942780 0.688260
0.090840 0.942597 0.686399
0.569462 0.938357 0.678907
0.907188 0.923890 0.694783
1.000001 0.904660 0.744696
1.000001 0.904060 0.823468
1.000001 0.913609 0.872061
0.314026 0.996507 0.712455
0.314514 0.996526 0.712468
0.319665 0.996669 0.712548
0.361288 0.996850 0.712424
0.549793 0.996043 0.710360
0.830470 0.990681 0.712973
0.968379 0.983239 0.733046
1.000001 0.973252 0.791067
1.000001 0.969073 0.840729
0.581520 1.000001 0.775250
0.581723 1.000001 0.775292
0.583574 1.000001 0.775612
0.593454 1.000001 0.776199
0.647051 1.000001 0.776048
0.803658 1.000001 0.774693
0.938993 1.000001 0.778942
0.992966 1.000001 0.795174
1.000001 1.000001 0.825655
0.680988 1.000001 0.816408
0.681127 1.000001 0.816456
0.682346 1.000001 0.816825
0.687501 1.000001 0.817565
0.713172 1.000001 0.817898
0.807651 1.000001 0.816011
0.923919 1.000001 0.816099
0.980653 1.000001 0.823482
1.000001 1.000001 0.833981
0.033292 0.005904 0.960969
0.034524 0.005881 0.961141
0.055608 0.005659 0.962285
0.608816 0.004786 0.961989
0.872137 0.004940 0.956518
0.973768 0.036914 0.937567
1.000001 0.510927 0.904391
1.000001 0.734176 0.900840
1.000001 0.815255 0.909938
0.032365 0.005975 0.961643
0.033719 0.005952 0.961656
0.054382 0.005726 0.962796
0.608184 0.004819 0.962484
0.872478 0.004985 0.956986
0.974181 0.037475 0.938092
1.000001 0.513874 0.904894
1.000001 0.735845 0.901372
1.000001 0.816533 0.910494
0.023184 0.007458 0.965843
0.024129 0.007425 0.965861
0.041408 0.007056 0.965761
0.592300 0.005543 0.965309
0.871648 0.005952 0.959511
0.976914 0.044044 0.941786
1.000001 0.536395 0.908793
1.000001 0.748269 0.905463
1.000001 0.826001 0.914723
0.004326 0.125281 0.960154
0.004368 0.124689 0.960176
0.005351 0.117920 0.960138
0.309140 0.081556 0.956954
0.829922 0.064630 0.953428
0.975885 0.115072 0.944059
1.000001 0.579813 0.916452
1.000001 0.765037 0.912700
1.000001 0.837789 0.921308
0.004717 0.721267 0.941161
0.004752 0.721118 0.941189
0.005426 0.719281 0.941292
0.043582 0.706719 0.939989
0.730192 0.675346 0.934973
0.952427 0.655994 0.929700
1.000001 0.701232 0.914728
1.000001 0.788992 0.913224
1.000001 0.843758 0.920963
0.020429 0.919574 0.910434
0.020525 0.919603 0.910466
0.021827 0.919784 0.910695
0.041451 0.919255 0.910631
0.536794 0.913525 0.907511
0.900949 0.900960 0.900992
1.000001 0.884861 0.891827
1.000001 0.885573 0.896674
1.000001 0.895663 0.907718
0.239185 0.988245 0.868096
0.239605 0.988266 0.868098
0.244107 0.988423 0.868107
0.284590 0.988609 0.867908
0.523703 0.987621 0.866220
0.823398 0.983259 0.861281
0.966244 0.975281 0.868371
1.000001 0.967649 0.872911
1.000001 0.964344 0.884988
0.558257 1.000001 0.861256
0.558484 1.000001 0.861258
0.560572 1.000001 0.861272
0.572000 1.000001 0.861200
0.633790 1.000001 0.860441
0.798667 1.000001 0.857585
0.937117 1.000001 0.861804
0.992068 1.000001 0.869343
1.000001 0.997706 0.876860
0.668835 1.000001 0.869354
0.668985 1.000001 0.869364
0.670296 1.000001 0.869438
0.675992 1.000001 0.869536
0.704784 1.000001 0.869240
0.804431 1.000001 0.867553
0.922436 1.000001 0.869763
0.979890 1.000001 0.874457
1.000001 1.000001 0.880459
0.009994 0.003825 1.000001
0.010236 0.003825 1.000001
0.014278 0.003761 1.000001
0.327283 0.003663 1.000001
0.922422 0.003505 1.000001
0.995076 0.004220 1.000001
1.000001 0.071485 0.992138
1.000001 0.617257 0.968678
1.000001 0.747710 0.962149
0.009626 0.003825 1.000001
0.009915 0.003825 1.000001
0.013843 0.003761 1.000001
0.320205 0.003663 1.000001
0.923156 0.003505 1.000001
0.995428 0.004230 1.000001
1.000001 0.072196 0.992467
1.000001 0.619647 0.969010
1.000001 0.749335 0.962488
0.006965 0.003825 1.000001
0.007104 0.003825 1.000001
0.009940 0.003825 1.000001
0.251435 0.003663 1.000001
0.926652 0.003505 1.000001
0.996996 0.004442 1.000001
1.000001 0.079429 0.994899
1.000001 0.637315 0.971621
1.000001 0.761316 0.965146
0.003505 0.012328 1.000001
0.003505 0.012223 1.000001
0.003663 0.011257 1.000001
0.044286 0.007186 1.000001
0.876142 0.005663 1.000001
0.980157 0.026098 1.000001
1.000001 0.130184 0.998009
1.000001 0.660307 0.977648
1.000001 0.775080 0.971036
0.003505 0.675991 1.000001
0.003505 0.675678 1.000001
0.003505 0.671724 1.000001
0.003990 0.626196 1.000001
0.683048 0.534950 1.000001
0.944851 0.501109 0.998104
1.000001 0.554906 0.993247
1.000001 0.707336 0.981297
1.000001 0.785677 0.975434
0.010786 0.891785 0.987254
0.010832 0.891780 0.987278
0.011512 0.891654 0.987450
0.022834 0.889782 0.987414
0.403286 0.880513 0.985470
0.884861 0.864001 0.981331
0.991000 0.856531 0.978493
1.000001 0.856425 0.972935
1.000001 0.867417 0.970280
0.127026 0.976157 0.969695
0.127247 0.976177 0.969717
0.129725 0.976324 0.969881
0.147527 0.972637 0.966167
0.442449 0.975012 0.969400
0.815697 0.969571 0.966356
0.962869 0.962877 0.962905
1.000001 0.956187 0.958662
1.000001 0.953330 0.957421
0.502924 1.000001 0.951747
0.503199 1.000001 0.951758
0.505771 1.000001 0.951840
0.520510 1.000001 0.951947
0.599243 1.000001 0.951551
0.790502 1.000001 0.949422
0.933290 0.998673 0.946390
0.990231 0.994702 0.948934
1.000001 0.991615 0.947696
0.642699 1.000001 0.944177
0.642868 1.000001 0.944184
0.644338 1.000001 0.944234
0.650941 1.000001 0.944292
0.684805 1.000001 0.944028
0.797281 1.000001 0.942509
0.918835 1.000001 0.939984
0.978039 1.000001 0.942270
1.000001 1.000001 0.944494
0.004298 0.003505 1.000001
0.004326 0.003505 1.000001
0.004605 0.003505 1.000001
0.037324 0.003505 1.000001
0.975400 0.003505 1.000001
1.000001 0.003505 1.000001
1.000001 0.013501 1.000001
1.000001 0.113808 1.000001
1.000001 0.586883 0.999366
0.004250 0.003505 1.000001
0.004279 0.003505 1.000001
0.004551 0.003505 1.000001
0.036123 0.003505 1.000001
0.976327 0.003505 1.000001
1.000001 0.003505 1.000001
1.000001 0.013647 1.000001
1.000001 0.114830 1.000001
1.000001 0.589756 0.999589
0.003917 0.003505 1.000001
0.003917 0.003505 1.000001
0.004130 0.003505 1.000001
0.026226 0.003505 1.000001
0.982242 0.003505 1.000001
1.000001 0.003505 1.000001
1.000001 0.015595 1.000001
1.000001 0.124465 1.000001
1.000001 0.611083 1.000001
0.003505 0.003663 1.000001
0.003505 0.003663 1.000001
0.003505 0.003663 1.000001
0.004975 0.003505 1.000001
0.965354 0.003505 1.000001
1.000001 0.003505 1.000001
1.000001 0.036957 1.000001
1.000001 0.176329 1.000001
1.000001 0.641754 1.000001
0.003505 0.654828 1.000001
0.003505 0.654413 1.000001
0.003505 0.649538 1.000001
0.003505 0.599505 1.000001
0.609138 0.283278 1.000001
0.944101 0.238919 1.000001
1.000001 0.345646 1.000001
1.000001 0.518969 1.000001
1.000001 0.692102 1.000001
0.003505 0.887474 1.000001
0.003505 0.887432 1.000001
0.003505 0.886598 1.000001
0.004188 0.874307 1.000001
0.186806 0.855189 1.000001
0.872403 0.833288 1.000001
0.987339 0.824393 1.000001
1.000001 0.827695 1.000001
1.000001 0.838239 1.000001
0.068758 0.966114 1.000001
0.068838 0.966125 1.000001
0.069893 0.966195 1.000001
0.082718 0.966063 1.000001
0.264794 0.963934 1.000001
0.794530 0.957160 0.999901
0.956752 0.949450 0.997127
1.000001 0.946478 0.995902
1.000001 0.943508 0.993809
0.402671 0.998830 0.993871
0.403040 0.998845 0.993887
0.406583 0.998954 0.994007
0.428659 0.999114 0.994219
0.542226 0.998666 0.994052
0.777348 0.996051 0.992579
0.931539 0.991731 0.990187
0.988565 0.988573 0.988596
1.000001 0.985710 0.986695
0.604732 1.000001 0.985913
0.604920 1.000001 0.985924
0.606595 1.000001 0.986013
0.614501 1.000001 0.986172
0.655873 1.000001 0.986077
0.786151 1.000001 0.984983
0.916784 1.000001 0.982879
0.976171 1.000001 0.981370
1.000001 1.000001 0.982334
0.003663 0.003505 1.000001
0.003663 0.003505 1.000001
0.003721 0.003505 1.000001
0.007296 0.003505 1.000001
1.000001 0.003505 1.000001
1.000001 0.003505 1.000001
1.000001 0.003505 1.000001
1.000001 0.055243 1.000001
1.000001 0.153687 1.000001
0.003663 0.003505 1.000001
0.003663 0.003505 1.000001
0.003721 0.003505 1.000001
0.007061 0.003505 1.000001
1.000001 0.003505 1.000001
1.000001 0.003505 1.000001
1.000001 0.003505 1.000001
1.000001 0.055685 1.000001
1.000001 0.155071 1.000001
0.003505 0.003505 1.000001
0.003505 0.003505 1.000001
0.003663 0.003505 1.000001
0.005518 0.003505 1.000001
1.000001 0.003505 1.000001
1.000001 0.003505 1.000001
1.000001 0.003505 1.000001
1.000001 0.060122 1.000001
1.000001 0.167719 1.000001
0.003505 0.003505 1.000001
0.003505 0.003505 1.000001
0.003505 0.003505 1.000001
0.003663 0.003505 1.000001
1.000001 0.003505 1.000001
1.000001 0.003505 1.000001
1.000001 0.003917 1.000001
1.000001 0.089031 1.000001
1.000001 0.226762 1.000001
0.003505 0.619115 1.000001
0.003505 0.618393 1.000001
0.003505 0.610782 1.000001
0.003505 0.547904 1.000001
0.471972 0.127083 1.000001
0.949312 0.110870 1.000001
1.000001 0.177169 1.000001
1.000001 0.361691 1.000001
1.000001 0.524057 1.000001
0.003505 0.912717 1.000001
0.003505 0.912699 1.000001
0.003505 0.912135 1.000001
0.003505 0.901005 1.000001
0.083125 0.838529 1.000001
0.862750 0.809800 1.000001
0.985519 0.799547 1.000001
1.000001 0.803861 1.000001
1.000001 0.813207 1.000001
0.035963 0.960445 1.000001
0.035989 0.960450 1.000001
0.036476 0.960473 1.000001
0.044425 0.960132 1.000001
0.157169 0.957214 1.000001
0.776355 0.949142 1.000001
0.952891 0.940580 1.000001
1.000001 0.937390 1.000001
1.000001 0.936634 1.000001
0.267979 0.994770 1.000001
0.268254 0.994781 1.000001
0.271175 0.994864 1.000001
0.295508 0.994954 1.000001
0.464600 0.994333 1.000001
0.758518 0.991290 1.000001
0.926341 0.986517 1.000001
0.986027 0.983123 1.000001
1.000001 0.981837 1.000001
0.560528 1.000001 1.000001
0.560740 1.000001 1.000001
0.562637 1.000001 1.000001
0.572189 1.000001 1.000001
0.623291 1.000001 1.000001
0.774501 1.000001 1.000001
0.914609 1.000001 1.000001
0.975669 1.000001 1.000001
0.999994 1.000001 1.000001
