luts/RED_709_C2R3.cube
# RED Digital Cinema Output Transform LUT for IPP2
# LUT Name = RWG_Log3G10 to REC709_BT1886 with MEDIUM_CONTRAST and R_3_Soft size_33 v1.13
# Generated by version 1.13
# Settings used in creation of this LUT are:
# Development Color Space = REC709
# Output Gamma Curve = BT1886
# Output Tonemap = MEDIUM_CONTRAST
# Highlight Rolloff = Rolloff 3 - soft
# Resolution = 33 x 33 x 33
TITLE "RED IPP2 LUT to map REDWideGamutRGB/Log3G10 to REC709/BT1886/MEDIUM_CONTRAST/Rolloff 3 - soft"
LUT_3D_SIZE 33
0.000000 0.000000 0.000000
0.000001 0.000000 0.000000
0.000926 0.000000 0.000000
0.058523 0.003505 0.003505
0.087482 0.003505 0.003505
0.130036 0.003721 0.003972
0.183099 0.005422 0.006950
0.248745 0.009890 0.014896
0.327138 0.016750 0.024617
0.417271 0.024072 0.034897
0.504516 0.031814 0.045713
0.589134 0.040588 0.057938
0.671972 0.051254 0.072776
0.741866 0.063096 0.089251
0.801979 0.077117 0.108815
0.852471 0.094105 0.132682
0.893847 0.115112 0.162556
0.927135 0.141854 0.201282
0.953185 0.176729 0.253045
0.972731 0.222658 0.322027
0.987433 0.287140 0.404086
0.997955 0.377303 0.484298
1.000003 0.468313 0.557116
1.000003 0.550285 0.623585
1.000003 0.620820 0.681367
1.000003 0.682767 0.732550
1.000003 0.735022 0.776048
1.000003 0.780210 0.813912
1.000003 0.818438 0.846134
1.000003 0.850216 0.873059
1.000003 0.877480 0.896267
1.000003 0.900352 0.915818
1.000003 0.920295 0.932930
0.000000 0.000001 0.000000
0.000000 0.000000 0.000000
0.000062 0.000000 0.000000
0.053512 0.003505 0.003505
0.084700 0.003505 0.003505
0.128394 0.004079 0.003825
0.182006 0.006423 0.006420
0.247954 0.011711 0.014039
0.326534 0.018473 0.023817
0.416855 0.025631 0.034187
0.504278 0.033206 0.045095
0.589079 0.041815 0.057422
0.672011 0.052324 0.072354
0.741965 0.064039 0.088915
0.802111 0.077956 0.108560
0.852614 0.094863 0.132507
0.893986 0.115815 0.162466
0.927261 0.142529 0.201288
0.953292 0.177413 0.253174
0.972818 0.223396 0.322304
0.987501 0.288005 0.404467
0.998005 0.378247 0.484710
1.000003 0.469073 0.557529
1.000003 0.550916 0.623982
1.000003 0.621354 0.681737
1.000003 0.683223 0.732886
1.000003 0.735414 0.776350
1.000003 0.780548 0.814182
1.000003 0.818729 0.846371
1.000003 0.850468 0.873267
1.000003 0.877697 0.896449
1.000003 0.900538 0.915975
1.000003 0.920454 0.933065
0.000000 0.000095 0.000000
0.000000 0.000052 0.000000
0.000007 0.000025 0.000000
0.045164 0.003505 0.003505
0.080585 0.003761 0.003505
0.126047 0.005418 0.003663
0.180459 0.008993 0.005808
0.246836 0.014772 0.012906
0.325678 0.021140 0.022739
0.416262 0.027944 0.033222
0.503942 0.035207 0.044260
0.588993 0.043551 0.056722
0.672055 0.053822 0.071781
0.742093 0.065351 0.088455
0.802283 0.079118 0.108209
0.852803 0.095910 0.132266
0.894171 0.116782 0.162338
0.927428 0.143456 0.201291
0.953434 0.178349 0.253341
0.972934 0.224405 0.322671
0.987591 0.289182 0.404976
0.998073 0.379524 0.485262
1.000003 0.470098 0.558083
1.000003 0.551764 0.624514
1.000003 0.622073 0.682232
1.000003 0.683836 0.733339
1.000003 0.735941 0.776757
1.000003 0.781002 0.814542
1.000003 0.819120 0.846689
1.000003 0.850805 0.873547
1.000003 0.877988 0.896692
1.000003 0.900788 0.916187
1.000003 0.920667 0.933247
0.003505 0.051380 0.003505
0.003505 0.049531 0.003505
0.003505 0.046814 0.003505
0.027412 0.042697 0.003505
0.074314 0.033569 0.003505
0.122672 0.016773 0.003505
0.178269 0.016616 0.005152
0.245259 0.020266 0.011447
0.324468 0.025414 0.021309
0.415429 0.031416 0.031939
0.503467 0.038104 0.043147
0.588859 0.046012 0.055786
0.672098 0.055915 0.071009
0.742250 0.067169 0.087833
0.802504 0.080719 0.107732
0.853047 0.097345 0.131933
0.894411 0.118103 0.162158
0.927645 0.144718 0.201284
0.953620 0.179620 0.253553
0.973086 0.225770 0.323149
0.987709 0.290769 0.405642
0.998161 0.381224 0.485987
1.000003 0.471460 0.558815
1.000003 0.552890 0.625216
1.000003 0.623023 0.682887
1.000003 0.684647 0.733935
1.000003 0.736639 0.777294
1.000003 0.781602 0.815019
1.000003 0.819637 0.847109
1.000003 0.851251 0.873915
1.000003 0.878371 0.897013
1.000003 0.901118 0.916465
1.000003 0.920949 0.933486
0.003505 0.080725 0.003505
0.003505 0.079729 0.003505
0.003505 0.078328 0.003505
0.003505 0.076355 0.003505
0.062664 0.073171 0.003505
0.117089 0.063461 0.003505
0.174732 0.042868 0.004457
0.242733 0.032975 0.009419
0.322543 0.033714 0.019223
0.414100 0.037587 0.030037
0.502698 0.043013 0.041477
0.588613 0.050054 0.054371
0.672127 0.059284 0.069835
0.742458 0.070057 0.086881
0.802813 0.083240 0.106995
0.853397 0.099591 0.131412
0.894758 0.120160 0.161864
0.927963 0.146674 0.201251
0.953893 0.181579 0.253848
0.973309 0.227864 0.323843
0.987883 0.293195 0.406620
0.998291 0.383776 0.487057
1.000003 0.473498 0.559893
1.000003 0.554568 0.626254
1.000003 0.624440 0.683854
1.000003 0.685853 0.734818
1.000003 0.737675 0.778088
1.000003 0.782492 0.815724
1.000003 0.820403 0.847731
1.000003 0.851912 0.874460
1.000003 0.878940 0.897488
1.000003 0.901606 0.916877
1.000003 0.921365 0.933840
0.003505 0.122073 0.003505
0.003505 0.121474 0.003505
0.003505 0.120642 0.003505
0.003505 0.119493 0.003505
0.004999 0.117691 0.003505
0.101522 0.113204 0.003505
0.165554 0.103299 0.003721
0.236290 0.088319 0.006316
0.317633 0.066792 0.014743
0.410644 0.057997 0.025755
0.500643 0.057670 0.037624
0.587834 0.061355 0.051054
0.672030 0.068309 0.067041
0.742813 0.077590 0.084585
0.803430 0.089698 0.105188
0.854133 0.105271 0.130098
0.895507 0.125305 0.161074
0.928657 0.151520 0.201061
0.954494 0.186386 0.254412
0.973804 0.232953 0.325335
0.988270 0.299032 0.408781
0.998582 0.389705 0.489446
1.000003 0.478203 0.562316
1.000003 0.558419 0.628589
1.000003 0.627673 0.686036
1.000003 0.688596 0.736809
1.000003 0.740026 0.779881
1.000003 0.784510 0.817318
1.000003 0.822138 0.849135
1.000003 0.853408 0.875692
1.000003 0.880225 0.898561
1.000003 0.902710 0.917808
1.000003 0.922306 0.934640
0.003505 0.172851 0.003505
0.003505 0.172431 0.003505
0.003505 0.171850 0.003505
0.003505 0.171052 0.003505
0.003663 0.169813 0.003505
0.022457 0.166783 0.003505
0.145910 0.161039 0.003505
0.223174 0.150109 0.004130
0.307686 0.136802 0.008508
0.403431 0.120351 0.018945
0.496191 0.100036 0.031141
0.585787 0.089762 0.045275
0.671303 0.089062 0.062031
0.742986 0.093983 0.080358
0.804155 0.103236 0.101756
0.855140 0.116859 0.127488
0.896602 0.135586 0.159345
0.929707 0.161022 0.200346
0.955423 0.195642 0.254974
0.974578 0.242575 0.327494
0.988882 0.309865 0.412128
0.999043 0.399970 0.493246
1.000003 0.486237 0.566217
1.000003 0.564919 0.632374
1.000003 0.633079 0.689584
1.000003 0.693152 0.740054
1.000003 0.743911 0.782806
1.000003 0.787834 0.819919
1.000003 0.824989 0.851427
1.000003 0.855861 0.877704
1.000003 0.882331 0.900314
1.000003 0.904517 0.919329
1.000003 0.923845 0.935947
0.003505 0.235254 0.003663
0.003505 0.234922 0.003663
0.003505 0.234464 0.003663
0.003505 0.233837 0.003663
0.003505 0.232872 0.003663
0.004220 0.230525 0.003663
0.073889 0.226131 0.003663
0.198358 0.218822 0.003505
0.289357 0.206572 0.004605
0.389638 0.193237 0.010609
0.487382 0.178416 0.022238
0.581035 0.160714 0.036798
0.668861 0.139798 0.054309
0.742176 0.130051 0.073575
0.804398 0.131030 0.096001
0.855995 0.139533 0.122839
0.897741 0.154981 0.155912
0.930906 0.178406 0.198335
0.956538 0.212088 0.254758
0.975536 0.259185 0.329627
0.989654 0.328022 0.416138
0.999632 0.415292 0.498080
1.000003 0.497972 0.571311
1.000003 0.574221 0.637385
1.000003 0.640693 0.694318
1.000003 0.699489 0.744404
1.000003 0.749269 0.786736
1.000003 0.792387 0.823420
1.000003 0.828876 0.854517
1.000003 0.859197 0.880417
1.000003 0.885188 0.902678
1.000003 0.906965 0.921380
1.000003 0.925927 0.937710
0.003505 0.309505 0.003897
0.003505 0.309216 0.003897
0.003505 0.308821 0.003897
0.003505 0.308285 0.003897
0.003505 0.307463 0.003873
0.003721 0.305468 0.003850
0.007657 0.301745 0.003825
0.130357 0.295589 0.003761
0.258980 0.286629 0.003721
0.365913 0.272512 0.005183
0.471947 0.258033 0.012728
0.571735 0.241927 0.026577
0.663204 0.223915 0.044263
0.739166 0.206008 0.064249
0.803180 0.189786 0.087641
0.855918 0.183557 0.115615
0.898318 0.190449 0.150006
0.931790 0.208733 0.194018
0.957494 0.239616 0.252484
0.976426 0.285906 0.330267
0.990406 0.354404 0.419462
1.000003 0.435254 0.502781
1.000003 0.512820 0.576577
1.000003 0.585639 0.642726
1.000003 0.649803 0.699447
1.000003 0.706919 0.749164
1.000003 0.755458 0.791064
1.000003 0.797592 0.827291
1.000003 0.833287 0.857942
1.000003 0.862962 0.883430
1.000003 0.888401 0.905307
1.000003 0.909712 0.923664
1.000003 0.928260 0.939674
0.003505 0.396471 0.004352
0.003505 0.396228 0.004352
0.003505 0.395894 0.004352
0.003505 0.395443 0.004343
0.003505 0.394749 0.004334
0.003663 0.393062 0.004316
0.004442 0.389896 0.004279
0.024840 0.384603 0.004208
0.188027 0.376763 0.004092
0.327704 0.363602 0.004165
0.446973 0.349392 0.005997
0.555603 0.332101 0.016181
0.652517 0.313544 0.032792
0.732512 0.295045 0.052799
0.799355 0.277523 0.076715
0.854009 0.263596 0.105511
0.897637 0.257283 0.140970
0.931835 0.263464 0.186364
0.957908 0.286510 0.246696
0.976973 0.327912 0.327592
0.990949 0.388969 0.420492
1.000003 0.459657 0.506010
1.000003 0.530382 0.580876
1.000003 0.598625 0.647423
1.000003 0.659789 0.704134
1.000003 0.714813 0.753614
1.000003 0.761879 0.795167
1.000003 0.802895 0.830994
1.000003 0.837727 0.861240
1.000003 0.866721 0.886346
1.000003 0.891590 0.907859
1.000003 0.912426 0.925886
1.000003 0.930560 0.941589
0.003505 0.483505 0.005170
0.003505 0.483325 0.005170
0.003505 0.483079 0.005166
0.003505 0.482746 0.005161
0.003663 0.482234 0.005152
0.003663 0.480990 0.005130
0.004037 0.478657 0.005085
0.007437 0.474748 0.004985
0.065105 0.468936 0.004841
0.251534 0.460877 0.004662
0.408467 0.450253 0.004465
0.528475 0.433445 0.007662
0.634524 0.415070 0.021220
0.720450 0.395975 0.040054
0.791557 0.376391 0.063649
0.849219 0.358349 0.092576
0.894903 0.345665 0.128454
0.930452 0.342699 0.174550
0.957356 0.354387 0.235994
0.976880 0.383923 0.319437
0.991080 0.430624 0.417325
1.000003 0.488717 0.506256
1.000003 0.550678 0.582992
1.000003 0.612973 0.650484
1.000003 0.670296 0.707557
1.000003 0.722738 0.757066
1.000003 0.768081 0.798466
1.000003 0.807865 0.834043
1.000003 0.841795 0.863999
1.000003 0.870112 0.888811
1.000003 0.894438 0.910035
1.000003 0.914835 0.927794
1.000003 0.932591 0.943242
0.003663 0.562923 0.006663
0.003663 0.562790 0.006661
0.003663 0.562608 0.006652
0.003663 0.562362 0.006647
0.003663 0.561984 0.006639
0.003721 0.561068 0.006609
0.003990 0.559351 0.006543
0.005243 0.556475 0.006417
0.019018 0.552181 0.006213
0.142841 0.546188 0.005940
0.325106 0.538208 0.005638
0.484831 0.528187 0.005375
0.602289 0.511842 0.010736
0.700907 0.494269 0.027367
0.778218 0.476285 0.049479
0.840343 0.458396 0.077540
0.889203 0.442744 0.112833
0.926963 0.432805 0.158481
0.955348 0.433242 0.219627
0.975802 0.447818 0.303517
0.990568 0.478369 0.407697
1.000003 0.522352 0.501734
1.000003 0.573735 0.581498
1.000003 0.628571 0.650765
1.000003 0.681055 0.708784
1.000003 0.730325 0.758760
1.000003 0.773651 0.800330
1.000003 0.812085 0.835912
1.000003 0.845101 0.865779
1.000003 0.872782 0.890458
1.000003 0.896630 0.911528
1.000003 0.916663 0.929129
1.000003 0.934120 0.944416
0.003721 0.634386 0.009559
0.003721 0.634288 0.009553
0.003721 0.634153 0.009547
0.003721 0.633970 0.009537
0.003761 0.633691 0.009522
0.003825 0.633016 0.009480
0.004051 0.631756 0.009387
0.004814 0.629651 0.009202
0.009387 0.626507 0.008895
0.043558 0.622093 0.008465
0.221800 0.616160 0.007966
0.405630 0.608616 0.007489
0.555772 0.599277 0.007156
0.664601 0.584158 0.014978
0.757558 0.567346 0.035353
0.826667 0.550580 0.061695
0.880110 0.534464 0.095400
0.921024 0.521067 0.139284
0.951578 0.513814 0.198320
0.973499 0.516568 0.279800
0.989244 0.532419 0.389696
0.999979 0.561729 0.491040
1.000003 0.600916 0.575362
1.000003 0.646543 0.647514
1.000003 0.692836 0.707263
1.000003 0.738026 0.758284
1.000003 0.778820 0.800447
1.000003 0.815644 0.836358
1.000003 0.847650 0.866389
1.000003 0.874691 0.891133
1.000003 0.898108 0.912210
1.000003 0.917844 0.929785
1.000003 0.935080 0.945027
0.003897 0.696778 0.014562
0.003917 0.696704 0.014556
0.003917 0.696602 0.014548
0.003936 0.696466 0.014538
0.003972 0.696257 0.014521
0.004037 0.695755 0.014474
0.004250 0.694824 0.014370
0.004835 0.693281 0.014164
0.007156 0.690985 0.013806
0.020910 0.687756 0.013271
0.090306 0.683380 0.012574
0.302018 0.677749 0.011819
0.484591 0.670680 0.011167
0.619679 0.662203 0.010887
0.720479 0.648235 0.021232
0.806641 0.632360 0.046380
0.866991 0.617025 0.077868
0.912423 0.602639 0.119148
0.946040 0.591388 0.174848
0.969997 0.586415 0.251976
0.987123 0.590831 0.363426
0.998751 0.606824 0.474339
1.000003 0.633409 0.564802
1.000003 0.668500 0.641012
1.000003 0.707178 0.703319
1.000003 0.747122 0.755984
1.000003 0.784594 0.799156
1.000003 0.819315 0.835703
1.000003 0.850036 0.866122
1.000003 0.876304 0.891096
1.000003 0.899236 0.912311
1.000003 0.918671 0.929963
1.000003 0.935707 0.945245
0.004230 0.750894 0.021582
0.004250 0.750838 0.021575
0.004250 0.750761 0.021567
0.004279 0.750657 0.021554
0.004307 0.750499 0.021534
0.004393 0.750121 0.021482
0.004605 0.749428 0.021371
0.005143 0.748292 0.021153
0.006789 0.746618 0.020780
0.014065 0.744270 0.020207
0.042550 0.741074 0.019429
0.173080 0.736919 0.018522
0.390506 0.731634 0.017639
0.556028 0.725196 0.017048
0.676835 0.717547 0.017148
0.768805 0.704828 0.029961
0.847739 0.690032 0.061001
0.900028 0.676114 0.099223
0.938022 0.663471 0.150636
0.964844 0.654279 0.221755
0.983923 0.650953 0.328667
0.996836 0.656285 0.450236
1.000003 0.671198 0.548780
1.000003 0.695241 0.630503
1.000003 0.725101 0.696417
1.000003 0.758515 0.751488
1.000003 0.791651 0.796205
1.000003 0.823558 0.833775
1.000003 0.852553 0.864861
1.000003 0.877803 0.890268
1.000003 0.900123 0.911777
1.000003 0.919205 0.929624
1.000003 0.936032 0.945042
0.004825 0.797237 0.031267
0.004835 0.797193 0.031259
0.004852 0.797134 0.031248
0.004878 0.797054 0.031233
0.004915 0.796933 0.031209
0.005019 0.796644 0.031148
0.005248 0.796121 0.031024
0.005798 0.795277 0.030791
0.007240 0.794052 0.030400
0.012135 0.792351 0.029799
0.027509 0.790034 0.028957
0.079498 0.787002 0.027920
0.271687 0.783095 0.026809
0.474727 0.778268 0.025881
0.620660 0.772440 0.025520
0.727284 0.765616 0.026335
0.810039 0.754188 0.042023
0.882053 0.740452 0.080645
0.926686 0.727994 0.127659
0.957584 0.717185 0.192014
0.979363 0.709533 0.288709
0.994051 0.707536 0.418193
1.000003 0.713000 0.526651
1.000003 0.726730 0.615412
1.000003 0.747306 0.686122
1.000003 0.773144 0.744512
1.000003 0.800865 0.791426
1.000003 0.829066 0.830488
1.000003 0.855710 0.862572
1.000003 0.879546 0.888644
1.000003 0.901017 0.910618
1.000003 0.919618 0.928787
1.000003 0.936176 0.944441
0.005907 0.836478 0.044467
0.005920 0.836443 0.044456
0.005943 0.836396 0.044442
0.005972 0.836334 0.044423
0.006020 0.836240 0.044392
0.006140 0.836016 0.044318
0.006417 0.835616 0.044172
0.007039 0.834980 0.043915
0.008516 0.834077 0.043499
0.012513 0.832840 0.042870
0.022570 0.831170 0.041979
0.050202 0.828975 0.040839
0.142728 0.826121 0.039525
0.369982 0.822544 0.038265
0.551017 0.818159 0.037414
0.678276 0.812939 0.037546
0.771305 0.806912 0.039565
0.845519 0.796663 0.058919
0.910319 0.784054 0.107137
0.947420 0.773199 0.165093
0.973025 0.763772 0.250881
0.990145 0.757591 0.378669
1.000003 0.756491 0.498314
1.000003 0.761822 0.595392
1.000003 0.773707 0.672054
1.000003 0.791564 0.734738
1.000003 0.812998 0.784588
1.000003 0.836560 0.825696
1.000003 0.860084 0.859174
1.000003 0.881964 0.886187
1.000003 0.902225 0.908824
1.000003 0.920124 0.927459
1.000003 0.936283 0.943457
0.008017 0.869614 0.062455
0.008037 0.869587 0.062441
0.008063 0.869550 0.062422
0.008101 0.869501 0.062396
0.008162 0.869426 0.062356
0.008324 0.869251 0.062261
0.008680 0.868940 0.062083
0.009460 0.868456 0.061783
0.011146 0.867782 0.061326
0.014603 0.866880 0.060659
0.022114 0.865677 0.059721
0.039773 0.864102 0.058497
0.087561 0.862042 0.057014
0.247067 0.859429 0.055449
0.464839 0.856175 0.054114
0.618619 0.852241 0.053541
0.728612 0.847621 0.054552
0.809619 0.842311 0.058495
0.875384 0.833223 0.082270
0.932575 0.821916 0.142166
0.964094 0.812261 0.218091
0.984691 0.804254 0.334683
0.997830 0.799321 0.464310
1.000003 0.798732 0.570338
1.000003 0.803468 0.653857
1.000003 0.813804 0.721773
1.000003 0.828580 0.775359
1.000003 0.846731 0.819154
1.000003 0.866320 0.854500
1.000003 0.885574 0.882790
1.000003 0.904124 0.906336
1.000003 0.920989 0.925608
1.000003 0.936534 0.942076
0.012278 0.897314 0.086925
0.012301 0.897292 0.086905
0.012334 0.897263 0.086879
0.012378 0.897223 0.086843
0.012449 0.897164 0.086790
0.012637 0.897025 0.086663
0.013036 0.896781 0.086434
0.013854 0.896408 0.086068
0.015438 0.895899 0.085540
0.018504 0.895234 0.084806
0.024644 0.894365 0.083804
0.037527 0.893239 0.082497
0.067536 0.891766 0.080868
0.147747 0.889881 0.079033
0.360016 0.887501 0.077241
0.547603 0.884576 0.075970
0.677843 0.881085 0.075981
0.772792 0.877005 0.078460
0.842643 0.872367 0.085388
0.899157 0.864564 0.113682
0.950935 0.854196 0.192054
0.976965 0.845827 0.294073
0.993175 0.839163 0.426867
1.000003 0.835082 0.541088
1.000003 0.834767 0.631674
1.000003 0.838923 0.705445
1.000003 0.847454 0.763478
1.000003 0.859908 0.810615
1.000003 0.874929 0.848359
1.000003 0.890882 0.878320
1.000003 0.907135 0.903064
1.000003 0.922529 0.923180
1.000003 0.937152 0.940271
0.018784 0.919930 0.119810
0.018806 0.919912 0.119783
0.018836 0.919888 0.119746
0.018877 0.919856 0.119697
0.018944 0.919808 0.119623
0.019121 0.919697 0.119448
0.019499 0.919503 0.119143
0.020275 0.919210 0.118673
0.021766 0.918819 0.118028
0.024567 0.918320 0.117178
0.029898 0.917684 0.116065
0.040243 0.916874 0.114642
0.061879 0.915821 0.112855
0.111429 0.914467 0.110765
0.252741 0.912739 0.108545
0.467689 0.910583 0.106604
0.620367 0.907968 0.105639
0.730666 0.904862 0.106744
0.811685 0.901273 0.111660
0.870455 0.897304 0.123043
0.920534 0.890367 0.159906
0.965664 0.881099 0.264436
0.986637 0.874009 0.390811
0.999674 0.868324 0.510246
1.000003 0.865042 0.606805
1.000003 0.864886 0.686307
1.000003 0.868374 0.749111
1.000003 0.875600 0.800071
1.000003 0.885926 0.840686
1.000003 0.898143 0.872712
1.000003 0.911579 0.898965
1.000003 0.925041 0.920151
1.000003 0.938371 0.938033
0.028382 0.938824 0.166256
0.028401 0.938810 0.166217
0.028427 0.938790 0.166163
0.028464 0.938765 0.166091
0.028523 0.938726 0.165984
0.028681 0.938636 0.165735
0.029028 0.938481 0.165305
0.029750 0.938250 0.164662
0.031143 0.937947 0.163817
0.033734 0.937570 0.162757
0.038518 0.937101 0.161437
0.047329 0.936516 0.159808
0.064388 0.935767 0.157788
0.099441 0.934806 0.155388
0.182477 0.933570 0.152703
0.381017 0.932009 0.150060
0.556683 0.930084 0.148088
0.682869 0.927758 0.147808
0.775881 0.925027 0.150849
0.843682 0.921958 0.159584
0.894439 0.918492 0.178649
0.937405 0.912533 0.226987
0.976599 0.904399 0.361228
0.994057 0.898238 0.480348
1.000003 0.893514 0.580321
1.000003 0.890727 0.664590
1.000003 0.890587 0.732075
1.000003 0.893479 0.787174
1.000003 0.899391 0.831111
1.000003 0.907688 0.865638
1.000003 0.917874 0.893777
1.000003 0.928913 0.916327
1.000003 0.940503 0.935225
0.042093 0.954213 0.233016
0.042107 0.954201 0.232956
0.042128 0.954186 0.232874
0.042158 0.954165 0.232766
0.042205 0.954133 0.232604
0.042337 0.954061 0.232230
0.042639 0.953936 0.231592
0.043289 0.953751 0.230658
0.044574 0.953514 0.229467
0.046975 0.953224 0.228036
0.051355 0.952874 0.226334
0.059176 0.952448 0.224326
0.073565 0.951910 0.221904
0.100993 0.951229 0.219041
0.158778 0.950352 0.215760
0.304010 0.949232 0.212298
0.493061 0.947831 0.209206
0.632681 0.946111 0.207452
0.736908 0.944056 0.208630
0.813784 0.941710 0.215049
0.871902 0.939019 0.230844
0.914623 0.936059 0.263050
0.950334 0.931112 0.320722
0.985359 0.923807 0.456324
0.999474 0.918613 0.555481
1.000003 0.914549 0.642177
1.000003 0.912228 0.713365
1.000003 0.912064 0.772368
1.000003 0.914402 0.819777
1.000003 0.919112 0.857100
1.000003 0.925984 0.887448
1.000003 0.934305 0.911648
1.000003 0.943771 0.931798
0.060977 0.966474 0.327368
0.060986 0.966465 0.327287
0.060999 0.966452 0.327179
0.061018 0.966435 0.327036
0.061051 0.966409 0.326821
0.061148 0.966350 0.326325
0.061388 0.966248 0.325483
0.061948 0.966100 0.324260
0.063106 0.965911 0.322728
0.065323 0.965685 0.320933
0.069380 0.965417 0.318864
0.076528 0.965100 0.316500
0.089287 0.964710 0.313720
0.112452 0.964221 0.310459
0.157679 0.963595 0.306648
0.258660 0.962793 0.302407
0.439175 0.961779 0.298162
0.585620 0.960513 0.294796
0.697904 0.958975 0.293880
0.782545 0.957191 0.297590
0.847621 0.955114 0.308817
0.896097 0.952795 0.330479
0.931250 0.950314 0.364444
0.961976 0.946047 0.418586
0.992024 0.939693 0.535348
1.000003 0.935162 0.621622
1.000003 0.931774 0.694612
1.000003 0.929787 0.756606
1.000003 0.929641 0.807190
1.000003 0.931510 0.847338
1.000003 0.935427 0.880071
1.000003 0.941057 0.906138
1.000003 0.948212 0.927750
0.087482 0.976493 0.426838
0.087482 0.976485 0.426764
0.087485 0.976474 0.426662
0.087490 0.976460 0.426527
0.087502 0.976439 0.426326
0.087550 0.976391 0.425863
0.087709 0.976308 0.425079
0.088151 0.976188 0.423947
0.089157 0.976037 0.422545
0.091183 0.975859 0.420931
0.094965 0.975653 0.419118
0.101634 0.975414 0.417108
0.113368 0.975127 0.414813
0.134046 0.974775 0.412178
0.172428 0.974329 0.409102
0.250804 0.973758 0.405578
0.403863 0.973031 0.401763
0.546650 0.972112 0.398085
0.661438 0.970977 0.395461
0.751128 0.969639 0.395356
0.821981 0.968055 0.399745
0.875861 0.966260 0.410874
0.915558 0.964312 0.430184
0.945307 0.962187 0.459002
0.970499 0.958694 0.500915
0.997291 0.953016 0.603478
1.000003 0.949167 0.676898
1.000003 0.946237 0.740429
1.000003 0.944548 0.793524
1.000003 0.944380 0.836313
1.000003 0.945896 0.871499
1.000003 0.949076 0.899615
1.000003 0.953895 0.922908
0.123577 0.984412 0.509646
0.123568 0.984406 0.509581
0.123555 0.984397 0.509492
0.123541 0.984386 0.509375
0.123524 0.984368 0.509198
0.123507 0.984328 0.508794
0.123557 0.984261 0.508111
0.123847 0.984163 0.507133
0.124675 0.984040 0.505929
0.126505 0.983898 0.504564
0.130066 0.983737 0.503062
0.136441 0.983554 0.501441
0.147645 0.983339 0.499645
0.167088 0.983081 0.497640
0.202070 0.982759 0.495339
0.269496 0.982349 0.492704
0.395701 0.981827 0.489757
0.523194 0.981161 0.486661
0.632991 0.980326 0.483855
0.723267 0.979325 0.482165
0.797387 0.978122 0.482747
0.855430 0.976738 0.487196
0.899149 0.975215 0.496926
0.932482 0.973531 0.513483
0.956817 0.971761 0.536882
0.978429 0.968756 0.572148
1.000003 0.963835 0.660494
1.000003 0.960448 0.725476
1.000003 0.957964 0.779927
1.000003 0.956554 0.824777
1.000003 0.956393 0.862190
1.000003 0.957641 0.892338
1.000003 0.960403 0.917407
0.175272 0.990873 0.580560
0.175244 0.990868 0.580501
0.175209 0.990861 0.580423
0.175167 0.990851 0.580320
0.175106 0.990837 0.580166
0.174990 0.990804 0.579812
0.174882 0.990749 0.579214
0.174957 0.990669 0.578360
0.175550 0.990569 0.577317
0.177161 0.990456 0.576144
0.180550 0.990328 0.574873
0.186819 0.990186 0.573528
0.197946 0.990024 0.572077
0.217170 0.989833 0.570496
0.251105 0.989599 0.568727
0.314007 0.989305 0.566720
0.414882 0.988932 0.564455
0.518412 0.988453 0.561968
0.615705 0.987847 0.559455
0.701212 0.987109 0.557359
0.775151 0.986206 0.556316
0.835429 0.985151 0.557364
0.882237 0.983974 0.561595
0.918770 0.982655 0.570296
0.945942 0.981252 0.584078
0.966551 0.979736 0.603788
0.984227 0.977282 0.631766
1.000003 0.972908 0.709794
1.000003 0.969961 0.766774
1.000003 0.967870 0.812892
1.000003 0.966638 0.852149
1.000003 0.966482 0.884220
1.000003 0.967563 0.911110
0.249539 0.995978 0.639816
0.249487 0.995974 0.639765
0.249415 0.995968 0.639696
0.249326 0.995960 0.639605
0.249196 0.995948 0.639469
0.248926 0.995921 0.639157
0.248566 0.995876 0.638631
0.248310 0.995810 0.637879
0.248558 0.995729 0.636966
0.249883 0.995637 0.635946
0.253134 0.995535 0.634852
0.259499 0.995423 0.633712
