luts/RED_709_C4R4.cube
# RED Digital Cinema Output Transform LUT for IPP2
# LUT Name = RWG_Log3G10 to REC709_BT1886 with NO_CONTRAST and R_4_VerySoft size_33 v1.13
# Generated by version 1.13
# Settings used in creation of this LUT are:
# Development Color Space = REC709
# Output Gamma Curve = BT1886
# Output Tonemap = NO_CONTRAST
# Highlight Rolloff = Rolloff 4 - very soft
# Resolution = 33 x 33 x 33
TITLE "RED IPP2 LUT to map REDWideGamutRGB/Log3G10 to REC709/BT1886/NO_CONTRAST/Rolloff 4 - very soft"
LUT_3D_SIZE 33
0.000000 0.000000 0.000000
0.000000 0.000000 0.000000
0.000001 0.000000 0.000000
0.123464 0.003505 0.003505
0.188065 0.003505 0.003505
0.246462 0.003505 0.003663
0.304632 0.004006 0.004472
0.360347 0.005243 0.006831
0.413455 0.007747 0.011917
0.464524 0.012167 0.018789
0.514698 0.017721 0.026758
0.567877 0.024651 0.036568
0.622587 0.033147 0.048466
0.672853 0.042684 0.061723
0.720765 0.053997 0.077383
0.766009 0.067143 0.095587
0.808148 0.082541 0.117010
0.847089 0.100994 0.142937
0.882454 0.123563 0.175132
0.913513 0.151360 0.215609
0.941112 0.187741 0.269991
0.964716 0.236368 0.337807
0.984157 0.302180 0.404177
1.000001 0.382550 0.469716
1.000001 0.458022 0.531823
1.000001 0.529464 0.591832
1.000001 0.594591 0.647310
1.000001 0.655309 0.699570
1.000001 0.710426 0.747399
1.000001 0.759200 0.790003
1.000001 0.803284 0.828722
1.000001 0.841503 0.862447
1.000001 0.875360 0.892442
0.000000 0.000000 0.000000
0.000000 0.000000 0.000000
0.000000 0.000000 0.000000
0.115895 0.003505 0.003505
0.184245 0.003505 0.003505
0.244079 0.003825 0.003505
0.303349 0.004965 0.004141
0.359982 0.007475 0.005997
0.413789 0.011947 0.010271
0.465401 0.017381 0.016910
0.516354 0.023476 0.024835
0.570229 0.030824 0.034720
0.625071 0.039600 0.046703
0.675521 0.049345 0.060199
0.723652 0.060473 0.076308
0.769009 0.073383 0.095032
0.811150 0.088585 0.117061
0.849992 0.106945 0.143710
0.885176 0.129589 0.176807
0.915996 0.157706 0.218461
0.943311 0.194786 0.274531
0.966609 0.244697 0.343204
0.985745 0.312051 0.409797
1.000001 0.391703 0.475375
1.000001 0.465981 0.537372
1.000001 0.536514 0.597157
1.000001 0.600900 0.652330
1.000001 0.660951 0.704222
1.000001 0.715454 0.751647
1.000001 0.763664 0.793838
1.000001 0.807211 0.832137
1.000001 0.844936 0.865458
1.000001 0.878329 0.895063
0.000000 0.000000 0.000000
0.000000 0.000000 0.000000
0.000000 0.000000 0.000000
0.100000 0.003505 0.003505
0.176090 0.003990 0.003505
0.238366 0.006245 0.003505
0.299329 0.010627 0.003825
0.357436 0.016125 0.005135
0.412341 0.021715 0.008335
0.464797 0.027446 0.014447
0.516782 0.033640 0.022220
0.571564 0.040985 0.032111
0.626717 0.049534 0.044193
0.677620 0.058725 0.058123
0.726090 0.069241 0.074686
0.771650 0.081592 0.093950
0.813865 0.096340 0.116613
0.852669 0.114401 0.144024
0.887720 0.136962 0.178069
0.918339 0.165288 0.220951
0.945401 0.203004 0.278775
0.968416 0.254195 0.348311
0.987265 0.322832 0.415205
1.000001 0.401122 0.480873
1.000001 0.474064 0.542792
1.000001 0.543598 0.602372
1.000001 0.607190 0.657252
1.000001 0.666544 0.708786
1.000001 0.720421 0.755815
1.000001 0.768061 0.797600
1.000001 0.811070 0.835484
1.000001 0.848305 0.868409
1.000001 0.881239 0.897630
0.003505 0.115746 0.003505
0.003505 0.111387 0.003505
0.003505 0.105297 0.003505
0.061084 0.096280 0.003505
0.160758 0.080729 0.003505
0.227582 0.061897 0.003505
0.291184 0.048875 0.003663
0.351694 0.046316 0.004360
0.408343 0.047135 0.006504
0.462142 0.049582 0.011423
0.515585 0.053253 0.018912
0.571703 0.058369 0.028816
0.627478 0.064849 0.041090
0.679011 0.072359 0.055439
0.727949 0.081481 0.072426
0.773821 0.092691 0.092226
0.816203 0.106546 0.115538
0.855046 0.123971 0.143735
0.890029 0.146194 0.178763
0.920498 0.174548 0.222914
0.947345 0.212781 0.282518
0.970111 0.265210 0.353005
0.988696 0.334715 0.420307
1.000001 0.410848 0.486130
1.000001 0.482275 0.548015
1.000001 0.550699 0.607418
1.000001 0.613435 0.662027
1.000001 0.672060 0.713218
1.000001 0.725293 0.759865
1.000001 0.772360 0.801255
1.000001 0.814835 0.838737
1.000001 0.851585 0.871274
1.000001 0.884068 0.900123
0.003505 0.180021 0.003505
0.003505 0.177138 0.003505
0.003505 0.173343 0.003505
0.003793 0.168140 0.003505
0.135075 0.161329 0.003505
0.210741 0.151115 0.003505
0.278241 0.140949 0.003505
0.342454 0.129930 0.003825
0.401704 0.117431 0.005121
0.457459 0.102797 0.008427
0.512803 0.093022 0.015315
0.570598 0.089315 0.025085
0.627172 0.089804 0.037421
0.679519 0.093207 0.052081
0.729082 0.099326 0.069431
0.775400 0.108281 0.089736
0.818066 0.120450 0.113688
0.857048 0.136658 0.142680
0.892044 0.158117 0.178710
0.922428 0.186197 0.224157
0.949115 0.224747 0.285560
0.971672 0.278315 0.357159
0.990026 0.347570 0.425011
1.000001 0.421000 0.491083
1.000001 0.490680 0.552992
1.000001 0.557848 0.612260
1.000001 0.619647 0.666626
1.000001 0.677496 0.717498
1.000001 0.730067 0.763781
1.000001 0.776555 0.804791
1.000001 0.818496 0.841884
1.000001 0.854769 0.874047
1.000001 0.886811 0.902534
0.003505 0.236874 0.003505
0.003505 0.234419 0.003505
0.003505 0.231284 0.003505
0.003505 0.227092 0.003505
0.057065 0.221745 0.003505
0.186838 0.215225 0.003505
0.260151 0.205574 0.003505
0.329349 0.196064 0.003505
0.392125 0.186224 0.004230
0.450456 0.175709 0.006260
0.508115 0.163721 0.011645
0.567945 0.149186 0.021019
0.625532 0.134227 0.033217
0.678918 0.127368 0.048010
0.729300 0.126826 0.065619
0.776233 0.131215 0.086357
0.819326 0.140164 0.110905
0.858571 0.154094 0.140668
0.893686 0.174041 0.177691
0.924070 0.201332 0.224434
0.950666 0.239847 0.287642
0.973068 0.294055 0.360599
0.991232 0.361440 0.429190
1.000001 0.431722 0.495637
1.000001 0.499354 0.557653
1.000001 0.565079 0.616843
1.000001 0.625831 0.671007
1.000001 0.682848 0.721590
1.000001 0.734728 0.767533
1.000001 0.780628 0.808184
1.000001 0.822040 0.844906
1.000001 0.857843 0.876711
1.000001 0.889454 0.904850
0.003505 0.293915 0.003505
0.003505 0.291705 0.003505
0.003505 0.288939 0.003505
0.003505 0.285283 0.003505
0.008068 0.280666 0.003505
0.133646 0.275010 0.003505
0.234348 0.266262 0.003505
0.311180 0.258104 0.003505
0.378823 0.248223 0.003721
0.440571 0.238136 0.004862
0.501050 0.227097 0.008292
0.563357 0.214276 0.016790
0.622229 0.200359 0.028585
0.676928 0.185981 0.043249
0.728363 0.172440 0.060952
0.776114 0.166909 0.082000
0.819814 0.169408 0.107047
0.859477 0.178985 0.137506
0.894844 0.196036 0.175461
0.925337 0.221609 0.223446
0.951933 0.259461 0.288425
0.974251 0.313113 0.363073
0.992280 0.376537 0.432653
1.000001 0.443135 0.499642
1.000001 0.508353 0.561877
1.000001 0.572399 0.621069
1.000001 0.631970 0.675089
1.000001 0.688080 0.725426
1.000001 0.739238 0.771064
1.000001 0.784541 0.811386
1.000001 0.825428 0.847762
1.000001 0.860773 0.879232
1.000001 0.891969 0.907044
0.003505 0.349469 0.003505
0.003505 0.347573 0.003505
0.003505 0.345260 0.003505
0.003505 0.342266 0.003505
0.004656 0.338553 0.003505
0.042002 0.334007 0.003505
0.185318 0.328484 0.003505
0.285903 0.321772 0.003505
0.360550 0.311706 0.003505
0.426948 0.301596 0.004037
0.490923 0.290646 0.006026
0.556259 0.277924 0.012586
0.616800 0.264279 0.023596
0.673166 0.250256 0.037825
0.725955 0.236450 0.055398
0.774785 0.224291 0.076568
0.819316 0.216074 0.101957
0.859595 0.216702 0.132974
0.895383 0.228013 0.171732
0.926126 0.250063 0.220833
0.952839 0.285980 0.287483
0.975168 0.335990 0.364268
0.993133 0.393256 0.435177
1.000001 0.455510 0.502938
1.000001 0.517840 0.565547
1.000001 0.579893 0.624851
1.000001 0.638097 0.678803
1.000001 0.693199 0.728955
1.000001 0.743587 0.774336
1.000001 0.788280 0.814366
1.000001 0.828645 0.850429
1.000001 0.863544 0.881590
1.000001 0.894341 0.909099
0.003505 0.402557 0.003663
0.003505 0.400897 0.003663
0.003505 0.398921 0.003663
0.003505 0.396442 0.003663
0.004092 0.393404 0.003505
0.012418 0.389685 0.003505
0.110711 0.385162 0.003505
0.234516 0.379654 0.003505
0.335742 0.373032 0.003505
0.408603 0.363129 0.003663
0.476958 0.352756 0.004668
0.545884 0.341002 0.008745
0.608714 0.328490 0.018448
0.667180 0.315182 0.031898
0.721689 0.301428 0.049045
0.771914 0.288284 0.070079
0.817554 0.277624 0.095573
0.858691 0.272258 0.126918
0.895113 0.275718 0.166247
0.926286 0.290977 0.216220
0.953268 0.319950 0.284291
0.975730 0.361491 0.363734
0.993727 0.411843 0.436413
1.000001 0.469018 0.505250
1.000001 0.527896 0.568442
1.000001 0.587569 0.628008
1.000001 0.644178 0.682003
1.000001 0.698146 0.732054
1.000001 0.747706 0.777244
1.000001 0.791772 0.817035
1.000001 0.831621 0.852831
1.000001 0.866095 0.883723
1.000001 0.896518 0.910964
0.003505 0.453623 0.003850
0.003505 0.452150 0.003825
0.003505 0.450462 0.003825
0.003663 0.448413 0.003825
0.003936 0.445911 0.003761
0.006414 0.442846 0.003761
0.033783 0.439112 0.003721
0.168225 0.434550 0.003721
0.284755 0.429046 0.003663
0.384074 0.422462 0.003663
0.456882 0.412534 0.003917
0.531318 0.401402 0.006146
0.597238 0.389800 0.013395
0.658348 0.377426 0.025660
0.715042 0.364435 0.042014
0.767063 0.351498 0.062580
0.814161 0.339912 0.087863
0.856465 0.331720 0.119212
0.893790 0.329908 0.158761
0.925623 0.337564 0.209213
0.953072 0.357394 0.278222
0.975828 0.389914 0.360875
0.993984 0.432691 0.435914
1.000001 0.483971 0.506238
1.000001 0.538712 0.570297
1.000001 0.595516 0.630335
1.000001 0.650226 0.684521
1.000001 0.702888 0.734589
1.000001 0.751541 0.779680
1.000001 0.794957 0.819305
1.000001 0.834299 0.854897
1.000001 0.868370 0.885571
1.000001 0.898450 0.912591
0.003505 0.502966 0.004316
0.003505 0.501685 0.004298
0.003505 0.500276 0.004279
0.003663 0.498582 0.004250
0.003917 0.496522 0.004220
0.005103 0.494003 0.004165
0.014404 0.490929 0.004104
0.069793 0.487167 0.004051
0.218547 0.482617 0.003990
0.334453 0.477153 0.003917
0.431419 0.470623 0.003850
0.505910 0.460580 0.004494
0.581295 0.449191 0.008807
0.645776 0.437606 0.019354
0.705255 0.425323 0.034474
0.759596 0.412722 0.054160
0.808608 0.400667 0.078831
0.852480 0.390599 0.109758
0.891061 0.384877 0.149040
0.923854 0.386397 0.199398
0.952031 0.398082 0.268567
0.975300 0.421705 0.354821
0.993786 0.456323 0.433032
1.000001 0.500816 0.505407
1.000001 0.550592 0.570731
1.000001 0.603886 0.631534
1.000001 0.656288 0.686126
1.000001 0.707404 0.736373
1.000001 0.755035 0.781492
1.000001 0.797762 0.821055
1.000001 0.836602 0.856527
1.000001 0.870299 0.887054
1.000001 0.900077 0.913911
0.003505 0.550204 0.005196
0.003505 0.549112 0.005166
0.003663 0.547935 0.005139
0.003721 0.546534 0.005098
0.003917 0.544840 0.005038
0.004692 0.542775 0.004965
0.008331 0.540255 0.004873
0.029410 0.537162 0.004774
0.124850 0.533408 0.004662
0.269681 0.528877 0.004544
0.383565 0.523431 0.004434
0.477299 0.517033 0.004352
0.550733 0.507080 0.005480
0.627144 0.495529 0.013173
0.691176 0.483847 0.026715
0.748812 0.471694 0.045144
0.800291 0.459583 0.068732
0.846215 0.448423 0.098717
0.886488 0.439971 0.137117
0.920623 0.436731 0.186617
0.949863 0.441457 0.254924
0.973926 0.456688 0.344462
0.992969 0.482871 0.426906
1.000001 0.519794 0.502076
1.000001 0.563722 0.569195
1.000001 0.612757 0.631162
1.000001 0.662336 0.686456
1.000001 0.711597 0.737112
1.000001 0.758052 0.782439
1.000001 0.800040 0.822080
1.000001 0.838388 0.857551
1.000001 0.871752 0.888030
1.000001 0.901281 0.914811
0.003663 0.596002 0.006823
0.003663 0.595069 0.006783
0.003721 0.594078 0.006738
0.003793 0.592917 0.006674
0.004021 0.591526 0.006587
0.004585 0.589839 0.006473
0.006515 0.587783 0.006331
0.016034 0.585257 0.006162
0.051721 0.582180 0.005969
0.183518 0.578448 0.005771
0.321694 0.573935 0.005573
0.430393 0.568595 0.005406
0.522292 0.562262 0.005285
0.594607 0.552464 0.007341
0.672080 0.540713 0.019216
0.734434 0.529090 0.036050
0.789425 0.517206 0.058302
0.837989 0.505599 0.086972
0.880322 0.495478 0.123947
0.916070 0.488830 0.171815
0.946623 0.487950 0.238171
0.971723 0.495653 0.329497
0.991537 0.513461 0.417386
1.000001 0.542163 0.496183
1.000001 0.579263 0.565698
1.000001 0.623061 0.629275
1.000001 0.669066 0.685593
1.000001 0.715958 0.736899
1.000001 0.760934 0.782615
1.000001 0.802031 0.822471
1.000001 0.839825 0.858051
1.000001 0.872849 0.888570
1.000001 0.902154 0.915348
0.003721 0.639599 0.009898
0.003761 0.638796 0.009832
0.003825 0.637956 0.009760
0.003936 0.636987 0.009659
0.004154 0.635841 0.009522
0.004643 0.634462 0.009340
0.005943 0.632790 0.009109
0.010863 0.630737 0.008829
0.027887 0.628228 0.008508
0.083534 0.625173 0.008158
0.238939 0.621456 0.007802
0.371676 0.617026 0.007475
0.477113 0.611731 0.007218
0.565663 0.605563 0.007091
0.636900 0.595913 0.011004
0.714660 0.584050 0.027125
0.774684 0.572588 0.047743
0.826884 0.560997 0.074777
0.871990 0.550036 0.109914
0.909888 0.541189 0.155597
0.942166 0.536187 0.219140
0.968606 0.537700 0.309436
0.989430 0.547850 0.404177
1.000001 0.568241 0.487525
1.000001 0.597819 0.560112
1.000001 0.635445 0.625823
1.000001 0.677033 0.683544
1.000001 0.720915 0.735782
1.000001 0.763999 0.782089
1.000001 0.803969 0.822307
1.000001 0.841089 0.858108
1.000001 0.873728 0.888751
1.000001 0.902802 0.915595
0.003897 0.680993 0.014896
0.003972 0.680299 0.014816
0.004037 0.679581 0.014730
0.004165 0.678767 0.014614
0.004393 0.677819 0.014458
0.004846 0.676692 0.014247
0.005871 0.675336 0.013973
0.008848 0.673675 0.013625
0.018463 0.671646 0.013202
0.044830 0.669164 0.012709
0.128854 0.666128 0.012163
0.294790 0.662486 0.011615
0.421358 0.658095 0.011121
0.522152 0.652934 0.010787
0.607408 0.646936 0.010765
0.677033 0.637507 0.016630
0.754374 0.625624 0.037301
0.811954 0.614337 0.062543
0.860866 0.603155 0.095544
0.901592 0.593100 0.138520
0.936100 0.585327 0.198364
0.964285 0.582106 0.284661
0.986439 0.585712 0.386378
1.000001 0.598218 0.475453
1.000001 0.619927 0.551942
1.000001 0.650538 0.620424
1.000001 0.686770 0.680022
1.000001 0.726840 0.733546
1.000001 0.767466 0.780704
1.000001 0.805967 0.821470
1.000001 0.842224 0.857633
1.000001 0.874392 0.888505
1.000001 0.903210 0.915496
0.004220 0.719919 0.021590
0.004288 0.719317 0.021492
0.004385 0.718697 0.021390
0.004530 0.718009 0.021259
0.004774 0.717221 0.021087
0.005226 0.716297 0.020860
0.006134 0.715196 0.020565
0.008342 0.713858 0.020188
0.014537 0.712227 0.019719
0.029411 0.710228 0.019160
0.068773 0.707771 0.018519
0.191252 0.704803 0.017840
0.350973 0.701197 0.017177
0.469454 0.696920 0.016647
0.565848 0.691899 0.016405
0.647243 0.686113 0.016700
0.714765 0.676968 0.024316
0.791479 0.665068 0.050562
0.846058 0.654055 0.081437
0.890658 0.643545 0.121480
0.928095 0.634170 0.177061
0.958521 0.627684 0.257213
0.982383 0.626169 0.363478
1.000001 0.631759 0.459481
1.000001 0.645796 0.540769
1.000001 0.668885 0.612759
1.000001 0.698901 0.674806
1.000001 0.734267 0.730054
1.000001 0.771726 0.778378
1.000001 0.808284 0.819913
1.000001 0.843390 0.856600
1.000001 0.874937 0.887818
1.000001 0.903434 0.915048
0.004752 0.756194 0.030439
0.004846 0.755668 0.030318
0.004960 0.755131 0.030194
0.005126 0.754545 0.030043
0.005399 0.753885 0.029852
0.005875 0.753124 0.029607
0.006759 0.752229 0.029293
0.008667 0.751152 0.028892
0.013213 0.749846 0.028389
0.022840 0.748248 0.027777
0.044990 0.746278 0.027055
0.101689 0.743884 0.026257
0.257923 0.740951 0.025429
0.404920 0.737442 0.024682
0.516380 0.733283 0.024176
0.607857 0.728437 0.024157
0.684950 0.722896 0.025012
0.750577 0.714003 0.034915
0.825800 0.702178 0.067888
0.876193 0.691693 0.105210
0.917637 0.681611 0.156405
0.950992 0.673159 0.229765
0.977037 0.668027 0.335271
0.997522 0.668081 0.439348
1.000001 0.675225 0.526275
1.000001 0.690797 0.602520
1.000001 0.713987 0.667641
1.000001 0.743772 0.725120
1.000001 0.777244 0.774991
1.000001 0.811249 0.817569
1.000001 0.844801 0.854975
1.000001 0.875500 0.886677
1.000001 0.903556 0.914246
0.005670 0.789965 0.042160
0.005794 0.789505 0.042008
0.005930 0.789037 0.041852
0.006134 0.788536 0.041674
0.006454 0.787979 0.041457
0.006990 0.787349 0.041188
0.007939 0.786619 0.040852
0.009805 0.785753 0.040427
0.013487 0.784712 0.039897
0.020423 0.783444 0.039243
0.034651 0.781880 0.038456
0.066326 0.779971 0.037556
0.148956 0.777617 0.036572
0.323423 0.774774 0.035608
0.456888 0.771371 0.034812
0.561335 0.767364 0.034428
0.647581 0.762729 0.034824
0.720643 0.757423 0.036601
0.783983 0.748830 0.049325
0.856180 0.737333 0.089908
0.903725 0.727116 0.137192
0.941120 0.717704 0.203770
0.970030 0.710310 0.302220
0.992686 0.706335 0.414906
1.000001 0.707794 0.508147
1.000001 0.716397 0.589342
1.000001 0.732545 0.658194
1.000001 0.756012 0.718482
1.000001 0.784610 0.770360
1.000001 0.815306 0.814316
1.000001 0.846754 0.852685
1.000001 0.876262 0.885040
1.000001 0.903685 0.913069
0.007341 0.821133 0.057675
0.007508 0.820730 0.057478
0.007687 0.820321 0.057280
0.007941 0.819890 0.057061
0.008342 0.819419 0.056806
0.008997 0.818893 0.056503
0.010110 0.818296 0.056136
0.011983 0.817598 0.055683
0.015095 0.816769 0.055123
0.020530 0.815768 0.054434
0.030693 0.814537 0.053593
0.050970 0.813033 0.052608
0.096390 0.811167 0.051488
0.217463 0.808894 0.050317
0.384994 0.806146 0.049228
0.506645 0.802876 0.048451
0.604059 0.799051 0.048336
0.685450 0.794619 0.049431
0.754176 0.789573 0.052649
0.813657 0.781492 0.068266
0.884373 0.770063 0.119883
0.927959 0.760352 0.180531
0.960832 0.751783 0.269049
0.986341 0.745222 0.386703
1.000001 0.742458 0.486458
1.000001 0.745186 0.573041
1.000001 0.754654 0.646191
1.000001 0.771448 0.709877
1.000001 0.794397 0.764276
1.000001 0.820959 0.810009
1.000001 0.849614 0.849639
1.000001 0.877467 0.882852
1.000001 0.903968 0.911487
0.010544 0.849232 0.077921
0.010767 0.848879 0.077664
0.010995 0.848521 0.077405
0.011304 0.848147 0.077130
0.011776 0.847744 0.076821
0.012497 0.847303 0.076467
0.013602 0.846810 0.076054
0.015328 0.846243 0.075559
0.018078 0.845580 0.074959
0.022622 0.844789 0.074229
0.030542 0.843823 0.073338
0.045038 0.842644 0.072279
0.074173 0.841177 0.071041
0.139229 0.839379 0.069686
0.298569 0.837185 0.068319
0.444025 0.834545 0.067148
0.554799 0.831421 0.066499
0.645686 0.827758 0.066883
0.721813 0.823536 0.069118
0.784980 0.818835 0.074447
0.842847 0.810953 0.095252
0.909880 0.799848 0.161073
0.948732 0.790836 0.240530
0.978126 0.782885 0.356752
0.999568 0.777379 0.462238
1.000001 0.775710 0.554048
1.000001 0.779502 0.631731
1.000001 0.789915 0.699249
1.000001 0.806852 0.756642
1.000001 0.828595 0.804562
1.000001 0.853745 0.845780
1.000001 0.879388 0.880084
1.000001 0.904591 0.909490
0.015859 0.875166 0.105478
0.016075 0.874856 0.105133
0.016294 0.874543 0.104787
0.016585 0.874220 0.104426
0.017036 0.873876 0.104034
0.017727 0.873504 0.103602
0.018775 0.873095 0.103114
0.020386 0.872634 0.102549
0.022883 0.872104 0.101885
0.026845 0.871480 0.101092
0.033392 0.870727 0.100133
0.044585 0.869813 0.098993
0.065244 0.868678 0.097638
0.106258 0.867280 0.096106
0.201050 0.865559 0.094468
0.371254 0.863467 0.092899
0.498437 0.860962 0.091696
0.600143 0.857988 0.091328
0.684559 0.854518 0.092550
0.754374 0.850602 0.096476
0.813981 0.846124 0.105243
0.868742 0.838640 0.132419
0.931375 0.828060 0.217576
0.966890 0.819492 0.327018
0.992089 0.812404 0.436160
1.000001 0.807717 0.532341
1.000001 0.807029 0.614455
1.000001 0.811721 0.686117
1.000001 0.822580 0.746994
1.000001 0.838907 0.797596
1.000001 0.859746 0.840827
1.000001 0.882460 0.876542
1.000001 0.905827 0.906948
0.023562 0.898522 0.143242
0.023760 0.898252 0.142765
0.023961 0.897978 0.142285
0.024221 0.897698 0.141793
0.024638 0.897403 0.141274
0.025288 0.897089 0.140715
0.026277 0.896748 0.140106
0.027788 0.896370 0.139423
0.030092 0.895944 0.138646
0.033653 0.895450 0.137744
0.039319 0.894864 0.136676
0.048529 0.894159 0.135417
0.064454 0.893287 0.133917
0.093475 0.892214 0.132189
0.152153 0.890885 0.130268
0.290403 0.889253 0.128290
0.437191 0.887276 0.126513
0.550292 0.884899 0.125363
0.643298 0.882089 0.125546
0.720097 0.878877 0.128111
0.785736 0.875154 0.134920
0.840663 0.870977 0.149108
0.891050 0.864067 0.184558
0.950795 0.853759 0.302463
0.981890 0.845926 0.411148
1.000001 0.839476 0.509482
1.000001 0.835703 0.595091
1.000001 0.835860 0.670708
1.000001 0.841230 0.735299
1.000001 0.852042 0.788982
1.000001 0.867999 0.834649
1.000001 0.887082 0.872124
1.000001 0.907991 0.903798
0.034460 0.919085 0.195756
0.034625 0.918849 0.195071
0.034792 0.918610 0.194381
0.035007 0.918367 0.193683
0.035377 0.918113 0.192957
0.035972 0.917846 0.192195
0.036893 0.917560 0.191384
0.038305 0.917248 0.190502
0.040448 0.916901 0.189530
0.043712 0.916508 0.188436
0.048781 0.916047 0.187174
0.056739 0.915502 0.185716
0.069863 0.914834 0.183993
0.092329 0.914014 0.182000
0.133878 0.912996 0.179736
0.221033 0.911739 0.177295
0.375943 0.910199 0.174889
0.499317 0.908324 0.172899
0.600055 0.906078 0.171992
0.683421 0.903475 0.173194
0.754996 0.900419 0.178218
0.815184 0.896942 0.189894
0.864687 0.893123 0.212905
0.912892 0.886477 0.265176
0.967337 0.876792 0.390958
0.995014 0.869468 0.487928
1.000001 0.863861 0.575062
1.000001 0.860864 0.653730
1.000001 0.861845 0.721826
1.000001 0.867637 0.778758
1.000001 0.878588 0.827188
1.000001 0.893536 0.866759
1.000001 0.911384 0.899985
0.050314 0.937625 0.274777
0.050425 0.937421 0.273730
0.050538 0.937213 0.272679
0.050689 0.937003 0.271619
0.050989 0.936785 0.270534
0.051509 0.936558 0.269411
0.052344 0.936318 0.268243
0.053648 0.936059 0.267002
0.055636 0.935777 0.265673
0.058653 0.935462 0.264222
0.063276 0.935101 0.262599
0.070373 0.934680 0.260772
0.081698 0.934170 0.258656
0.100217 0.933550 0.256226
0.132344 0.932783 0.253449
0.193245 0.931832 0.250374
0.320635 0.930658 0.247165
0.450221 0.929211 0.244144
0.556190 0.927453 0.241950
0.644756 0.925386 0.241621
0.721621 0.922925 0.244808
0.786898 0.920087 0.254263
0.841040 0.916924 0.274252
0.885128 0.911753 0.301054
0.930679 0.907282 0.357754
0.981718 0.897963 0.469685
1.000001 0.891367 0.555467
1.000001 0.886381 0.635535
1.000001 0.884137 0.706477
1.000001 0.885693 0.766608
1.000001 0.891833 0.818068
1.000001 0.902304 0.860107
1.000001 0.916473 0.895244
0.072659 0.953700 0.367312
0.072690 0.953523 0.366375
0.072722 0.953343 0.365426
0.072783 0.953162 0.364468
0.072988 0.952975 0.363487
0.073409 0.952781 0.362477
0.074137 0.952578 0.361431
0.075319 0.952363 0.360333
0.077155 0.952131 0.359171
0.079960 0.951876 0.357923
0.084248 0.951590 0.356550
0.090758 0.951262 0.355030
0.100941 0.950871 0.353291
0.117101 0.950401 0.351295
0.143939 0.949825 0.348990
0.191517 0.949111 0.346355
0.285703 0.948226 0.343440
0.411765 0.947125 0.340395
0.517582 0.945769 0.337611
0.608115 0.944152 0.335829
0.688313 0.942198 0.336143
0.757606 0.939910 0.340247
0.815888 0.937326 0.349968
0.865791 0.934367 0.367679
0.906605 0.931138 0.394340
0.948077 0.925348 0.438694
0.993696 0.916702 0.538980
1.000001 0.910634 0.618056
1.000001 0.906363 0.690419
1.000001 0.904833 0.753151
1.000001 0.906947 0.807551
1.000001 0.913150 0.852242
1.000001 0.923372 0.889573
0.105456 0.967974 0.447739
0.105364 0.967821 0.446920
0.105271 0.967667 0.446091
0.105201 0.967511 0.445255
0.105271 0.967351 0.444405
0.105555 0.967187 0.443536
0.106145 0.967016 0.442644
0.107181 0.966837 0.441720
0.108860 0.966646 0.440758
0.111478 0.966440 0.439744
0.115515 0.966212 0.438655
0.121637 0.965956 0.437477
0.131127 0.965656 0.436163
0.145921 0.965302 0.434689
0.169784 0.964872 0.433007
0.210187 0.964343 0.431089
0.284260 0.963688 0.428924
0.391663 0.962867 0.426544
0.489275 0.961846 0.424098
0.576642 0.960611 0.421953
0.656822 0.959094 0.420631
0.728106 0.957290 0.421120
0.789434 0.955222 0.424675
0.842898 0.952818 0.433060
0.887262 0.950158 0.447730
0.924610 0.947173 0.470603
0.961853 0.941941 0.508714
1.000001 0.933719 0.602347
1.000001 0.928267 0.674233
1.000001 0.924683 0.738502
1.000001 0.923701 0.795466
1.000001 0.926133 0.842865
1.000001 0.932382 0.882657
0.153260 0.980160 0.517461
0.152976 0.980029 0.516730
0.152691 0.979896 0.515991
0.152421 0.979763 0.515246
0.152291 0.979627 0.514492
0.152381 0.979487 0.513724
0.152786 0.979343 0.512942
0.153648 0.979193 0.512137
0.155165 0.979035 0.511309
0.157634 0.978868 0.510448
0.161524 0.978684 0.509540
0.167483 0.978482 0.508577
