luts/RED_709_C4R4.cube
# RED Digital Cinema Output Transform LUT for IPP2
# LUT Name = RWG_Log3G10 to REC709_BT1886 with NO_CONTRAST and R_4_VerySoft size_33 v1.13
# Generated by version 1.13
# Settings used in creation of this LUT are:
# Development Color Space = REC709
# Output Gamma Curve = BT1886
# Output Tonemap = NO_CONTRAST
# Highlight Rolloff = Rolloff 4 - very soft
# Resolution = 33 x 33 x 33
TITLE "RED IPP2 LUT to map REDWideGamutRGB/Log3G10 to REC709/BT1886/NO_CONTRAST/Rolloff 4 - very soft"
LUT_3D_SIZE 5
0.000000 0.000000 0.000000
0.413455 0.007747 0.011917
0.808148 0.082541 0.117010
1.000001 0.458022 0.531823
1.000001 0.875360 0.892442
0.003505 0.402557 0.003663
0.335742 0.373032 0.003505
0.817554 0.277624 0.095573
1.000001 0.527896 0.568442
1.000001 0.896518 0.910964
0.004752 0.756194 0.030439
0.013213 0.749846 0.028389
0.684950 0.722896 0.025012
1.000001 0.675225 0.526275
1.000001 0.903556 0.914246
0.072659 0.953700 0.367312
0.077155 0.952131 0.359171
0.285703 0.948226 0.343440
0.906605 0.931138 0.394340
1.000001 0.923372 0.889573
0.694376 1.000001 0.809152
0.689843 1.000001 0.806061
0.694779 1.000001 0.802642
0.803293 1.000001 0.797387
1.000001 1.000001 0.817460
0.005558 0.003663 0.362396
0.407844 0.003721 0.361734
0.805932 0.062871 0.329314
1.000001 0.451265 0.552456
1.000001 0.875441 0.892890
0.003505 0.347392 0.334408
0.322021 0.322029 0.322054
0.813302 0.228202 0.291096
1.000001 0.520815 0.582901
1.000001 0.895667 0.910478
0.004442 0.747476 0.083888
0.011543 0.746213 0.078269
0.684593 0.718202 0.082645
1.000001 0.673082 0.540941
1.000001 0.902866 0.913813
0.069746 0.951978 0.378496
0.077744 0.952515 0.380686
0.285679 0.948559 0.369336
0.907259 0.931444 0.416007
1.000001 0.923276 0.889038
0.688996 1.000001 0.806313
0.692276 1.000001 0.807842
0.696983 1.000001 0.804475
0.804280 1.000001 0.799302
1.000001 1.000001 0.816549
0.036052 0.006998 0.718617
0.362645 0.005868 0.722749
0.765659 0.008556 0.713098
1.000001 0.334363 0.678144
1.000001 0.860231 0.884394
0.007756 0.089430 0.730921
0.217234 0.066445 0.728763
0.766072 0.052253 0.721353
1.000001 0.429233 0.693790
1.000001 0.881247 0.901461
0.003505 0.699355 0.685625
0.004631 0.696800 0.684777
0.672249 0.672261 0.672298
1.000001 0.637989 0.671744
1.000001 0.887646 0.903221
0.060412 0.946285 0.557928
0.068373 0.946870 0.556715
0.266882 0.945198 0.550639
0.906576 0.927365 0.578886
1.000001 0.917045 0.876119
0.682926 1.000001 0.808378
0.686270 1.000001 0.809656
0.698697 1.000001 0.810715
0.804929 1.000001 0.806708
1.000001 1.000001 0.825696
0.032274 0.005794 0.953128
0.119950 0.005264 0.956299
0.778644 0.004564 0.953939
0.968823 0.033205 0.931567
1.000001 0.806880 0.904731
0.012551 0.013189 0.964321
0.059054 0.010748 0.964088
0.765678 0.007657 0.961077
0.976372 0.051883 0.941743
1.000001 0.832551 0.916335
0.003761 0.544442 0.949875
0.005754 0.524472 0.949616
0.595309 0.449349 0.944815
0.964795 0.419945 0.936614
1.000001 0.840203 0.921157
0.018866 0.917417 0.908179
0.022701 0.917888 0.908792
0.150126 0.915121 0.907459
0.898871 0.898881 0.898914
1.000001 0.894478 0.906734
0.668161 1.000001 0.867533
0.671806 1.000001 0.867747
0.686244 1.000001 0.867751
0.801583 1.000001 0.865898
1.000001 1.000001 0.878990
0.003721 0.003505 1.000001
0.003917 0.003505 1.000001
0.587941 0.003505 1.000001
1.000001 0.003505 1.000001
1.000001 0.144558 1.000001
0.003505 0.003505 1.000001
0.003505 0.003505 1.000001
0.320789 0.003505 1.000001
1.000001 0.003505 1.000001
1.000001 0.178941 1.000001
0.003505 0.004176 1.000001
0.003505 0.003936 1.000001
0.005733 0.003505 1.000001
1.000001 0.003505 1.000001
1.000001 0.338487 1.000001
0.003505 0.911184 1.000001
0.003505 0.909396 1.000001
0.003505 0.864167 1.000001
0.859395 0.804483 1.000001
1.000001 0.808845 1.000001
0.559027 1.000001 1.000001
0.564342 1.000001 1.000001
0.589992 1.000001 1.000001
0.770528 1.000001 1.000001
0.999994 1.000001 1.000001
