luts/RED_709_C4R3.cube
# RED Digital Cinema Output Transform LUT for IPP2
# LUT Name = RWG_Log3G10 to REC709_BT1886 with NO_CONTRAST and R_3_Soft size_33 v1.13
# Generated by version 1.13
# Settings used in creation of this LUT are:
# Development Color Space = REC709
# Output Gamma Curve = BT1886
# Output Tonemap = NO_CONTRAST
# Highlight Rolloff = Rolloff 3 - soft
# Resolution = 33 x 33 x 33
TITLE "RED IPP2 LUT to map REDWideGamutRGB/Log3G10 to REC709/BT1886/NO_CONTRAST/Rolloff 3 - soft"
LUT_3D_SIZE 5
0.000000 0.000000 0.000000
0.432664 0.007747 0.011917
0.856758 0.082541 0.117010
1.000003 0.485699 0.571512
1.000003 0.913984 0.927509
0.003505 0.419590 0.003663
0.339697 0.384004 0.003505
0.865122 0.277624 0.095573
1.000003 0.567022 0.612920
1.000003 0.930669 0.941649
0.004752 0.808677 0.030439
0.013213 0.802597 0.028389
0.738082 0.776312 0.025012
1.000003 0.728068 0.565166
1.000003 0.936062 0.944094
0.072659 0.971917 0.377087
0.077155 0.970870 0.367231
0.285781 0.968243 0.348568
0.938373 0.956374 0.409708
1.000003 0.950793 0.925270
0.747707 1.000003 0.857655
0.743089 1.000003 0.854887
0.748116 1.000003 0.851810
0.852397 1.000003 0.847055
1.000003 1.000003 0.865039
0.005558 0.003663 0.371137
0.425938 0.003721 0.370335
0.854770 0.062871 0.332416
1.000003 0.477709 0.594951
1.000003 0.914050 0.927858
0.003505 0.353188 0.338177
0.324290 0.324299 0.324326
0.861355 0.228202 0.291304
1.000003 0.558901 0.629023
1.000003 0.930012 0.941285
0.004442 0.800315 0.083888
0.011543 0.799097 0.078269
0.737716 0.771657 0.082645
1.000003 0.725849 0.581903
1.000003 0.935537 0.943772
0.069746 0.970768 0.390605
0.077744 0.971127 0.393249
0.285757 0.968468 0.379535
0.938867 0.956592 0.435721
1.000003 0.950724 0.924850
0.742223 1.000003 0.855113
0.745569 1.000003 0.856483
0.750353 1.000003 0.853462
0.853286 1.000003 0.848792
1.000003 1.000003 0.864233
0.036052 0.006998 0.772070
0.371437 0.005868 0.776166
0.817664 0.008556 0.766572
1.000003 0.338126 0.731082
1.000003 0.901641 0.921193
0.007756 0.089430 0.784216
0.217234 0.066445 0.782097
0.818053 0.052253 0.774784
1.000003 0.451525 0.747110
1.000003 0.918696 0.934465
0.003505 0.752757 0.738774
0.004631 0.750168 0.737905
0.724986 0.724998 0.725036
1.000003 0.688953 0.724462
1.000003 0.923758 0.935807
0.060412 0.966925 0.601121
0.068373 0.967323 0.599755
0.266882 0.966183 0.592897
0.938351 0.953677 0.624566
1.000003 0.946165 0.914595
0.736005 1.000003 0.856964
0.739435 1.000003 0.858106
0.752090 1.000003 0.859050
0.853870 1.000003 0.855467
1.000003 1.000003 0.872274
0.032274 0.005794 0.971536
0.119950 0.005264 0.973638
0.829831 0.004564 0.972076
0.981716 0.033205 0.956679
1.000003 0.855621 0.936954
0.012551 0.013189 0.978856
0.059054 0.010748 0.978706
0.817682 0.007657 0.976763
0.986399 0.051883 0.963809
1.000003 0.878229 0.945641
0.003761 0.585880 0.969356
0.005754 0.563098 0.969182
0.642722 0.475439 0.965921
0.979159 0.440433 0.960241
1.000003 0.884804 0.949181
0.018866 0.946439 0.939559
0.022701 0.946786 0.940020
0.150126 0.944743 0.939017
0.932481 0.932489 0.932514
1.000003 0.929092 0.938470
0.720739 1.000003 0.907640
0.724526 1.000003 0.907815
0.739408 1.000003 0.907818
0.850855 1.000003 0.906303
1.000003 1.000003 0.916895
0.003721 0.003505 1.000003
0.003917 0.003505 1.000003
0.634601 0.003505 1.000003
1.000003 0.003505 1.000003
1.000003 0.144558 1.000003
0.003505 0.003505 1.000003
0.003505 0.003505 1.000003
0.322931 0.003505 1.000003
1.000003 0.003505 1.000003
1.000003 0.178941 1.000003
0.003505 0.004176 1.000003
0.003505 0.003936 1.000003
0.005733 0.003505 1.000003
1.000003 0.003505 1.000003
1.000003 0.342842 1.000003
0.003505 0.941814 1.000003
0.003505 0.940474 1.000003
0.003505 0.904884 1.000003
0.900950 0.853468 1.000003
1.000003 0.857381 1.000003
0.602357 1.000003 1.000003
0.608328 1.000003 1.000003
0.636866 1.000003 1.000003
0.822248 1.000003 1.000003
0.999999 1.000003 1.000003
