luts/RED_709_C4R3.cube
# RED Digital Cinema Output Transform LUT for IPP2
# LUT Name = RWG_Log3G10 to REC709_BT1886 with NO_CONTRAST and R_3_Soft size_33 v1.13
# Generated by version 1.13
# Settings used in creation of this LUT are:
# Development Color Space = REC709
# Output Gamma Curve = BT1886
# Output Tonemap = NO_CONTRAST
# Highlight Rolloff = Rolloff 3 - soft
# Resolution = 33 x 33 x 33
TITLE "RED IPP2 LUT to map REDWideGamutRGB/Log3G10 to REC709/BT1886/NO_CONTRAST/Rolloff 3 - soft"
LUT_3D_SIZE 33
0.000000 0.000000 0.000000
0.000000 0.000000 0.000000
0.000001 0.000000 0.000000
0.123464 0.003505 0.003505
0.188065 0.003505 0.003505
0.246462 0.003505 0.003663
0.305459 0.004006 0.004472
0.368655 0.005243 0.006831
0.432664 0.007747 0.011917
0.493369 0.012167 0.018789
0.551862 0.017721 0.026758
0.612289 0.024651 0.036568
0.672435 0.033147 0.048466
0.725612 0.042684 0.061723
0.774201 0.053997 0.077383
0.817994 0.067143 0.095587
0.856758 0.082541 0.117010
0.890655 0.100994 0.142937
0.919655 0.123563 0.175132
0.943550 0.151360 0.215609
0.963373 0.187741 0.269991
0.979108 0.236368 0.342061
0.991068 0.302863 0.421536
1.000003 0.395499 0.499480
1.000003 0.485699 0.571512
1.000003 0.568816 0.638895
1.000003 0.641933 0.698855
1.000003 0.707295 0.752974
1.000003 0.763901 0.800241
1.000003 0.811541 0.840319
1.000003 0.852389 0.874910
1.000003 0.885914 0.903470
1.000003 0.913984 0.927509
0.000000 0.000000 0.000000
0.000000 0.000000 0.000000
0.000000 0.000000 0.000000
0.115895 0.003505 0.003505
0.184245 0.003505 0.003505
0.244079 0.003825 0.003505
0.304100 0.004965 0.004141
0.368212 0.007475 0.005997
0.433064 0.011947 0.010271
0.494402 0.017381 0.016910
0.553770 0.023476 0.024835
0.614919 0.030824 0.034720
0.675112 0.039600 0.046703
0.728373 0.049345 0.060199
0.777059 0.060473 0.076308
0.820821 0.073383 0.095032
0.859439 0.088585 0.117061
0.893102 0.106945 0.143710
0.921811 0.129589 0.176807
0.945390 0.157706 0.218461
0.964890 0.194786 0.274531
0.980316 0.244697 0.348294
0.991999 0.313401 0.428279
1.000003 0.406534 0.506126
1.000003 0.495085 0.577843
1.000003 0.576865 0.644753
1.000003 0.648858 0.704159
1.000003 0.713214 0.757670
1.000003 0.768923 0.804326
1.000003 0.815778 0.843826
1.000003 0.855918 0.877871
1.000003 0.888832 0.905943
1.000003 0.916367 0.929545
0.000000 0.000000 0.000000
0.000000 0.000000 0.000000
0.000000 0.000000 0.000000
0.100000 0.003505 0.003505
0.176090 0.003990 0.003505
0.238366 0.006245 0.003505
0.299863 0.010627 0.003825
0.365136 0.016125 0.005135
0.431329 0.021715 0.008335
0.493691 0.027446 0.014447
0.554263 0.033640 0.022220
0.616409 0.040985 0.032111
0.676883 0.049534 0.044193
0.730542 0.058725 0.058123
0.779466 0.069241 0.074686
0.823301 0.081592 0.093950
0.861854 0.096340 0.116613
0.895349 0.114401 0.144024
0.923816 0.136962 0.178069
0.947117 0.165288 0.220951
0.966321 0.203004 0.278778
0.981460 0.254195 0.354269
0.992884 0.325187 0.434761
1.000003 0.417865 0.512569
1.000003 0.504587 0.584007
1.000003 0.584921 0.650470
1.000003 0.655734 0.709337
1.000003 0.719056 0.762258
1.000003 0.773860 0.808315
1.000003 0.819928 0.847249
1.000003 0.859367 0.880759
1.000003 0.891681 0.908354
1.000003 0.918690 0.931527
0.003505 0.115746 0.003505
0.003505 0.111387 0.003505
0.003505 0.105297 0.003505
0.061084 0.096280 0.003505
0.160758 0.080729 0.003505
0.227582 0.061897 0.003505
0.291395 0.048875 0.003663
0.358268 0.046316 0.004360
0.426536 0.047135 0.006504
0.490561 0.049582 0.011423
0.552884 0.053253 0.018912
0.616564 0.058369 0.028816
0.677701 0.064849 0.041090
0.731976 0.072359 0.055439
0.781296 0.081481 0.072426
0.825333 0.092691 0.092226
0.863927 0.106546 0.115538
0.897335 0.123971 0.143735
0.925626 0.146194 0.178763
0.948699 0.174548 0.222914
0.967646 0.212781 0.282548
0.982526 0.265210 0.359827
0.993710 0.338527 0.440866
1.000003 0.429540 0.518715
1.000003 0.514209 0.589929
1.000003 0.592965 0.655982
1.000003 0.662530 0.714341
1.000003 0.724790 0.766693
1.000003 0.778679 0.812174
1.000003 0.823966 0.850559
1.000003 0.862715 0.883550
1.000003 0.894440 0.910684
1.000003 0.920935 0.933442
0.003505 0.180021 0.003505
0.003505 0.177138 0.003505
0.003505 0.173343 0.003505
0.003793 0.168140 0.003505
0.135075 0.161329 0.003505
0.210741 0.151115 0.003505
0.278243 0.140949 0.003505
0.347422 0.129930 0.003825
0.418564 0.117431 0.005121
0.485034 0.102797 0.008427
0.549678 0.093022 0.015315
0.615331 0.089315 0.025085
0.677372 0.089804 0.037421
0.732499 0.093207 0.052081
0.782410 0.099326 0.069431
0.826809 0.108281 0.089736
0.865574 0.120450 0.113688
0.899002 0.136658 0.142680
0.927200 0.158117 0.178710
0.950107 0.186197 0.224157
0.968844 0.224747 0.285635
0.983501 0.278316 0.364803
0.994472 0.353397 0.446487
1.000003 0.441694 0.524493
1.000003 0.524023 0.595556
1.000003 0.601031 0.661253
1.000003 0.669260 0.719142
1.000003 0.730414 0.770958
1.000003 0.783378 0.815888
1.000003 0.827886 0.853746
1.000003 0.865954 0.886238
1.000003 0.897104 0.912926
1.000003 0.923101 0.935284
0.003505 0.236874 0.003505
0.003505 0.234419 0.003505
0.003505 0.231284 0.003505
0.003505 0.227092 0.003505
0.057065 0.221745 0.003505
0.186838 0.215225 0.003505
0.260151 0.205574 0.003505
0.332456 0.196064 0.003505
0.407042 0.186224 0.004230
0.476750 0.175709 0.006260
0.544263 0.163721 0.011645
0.612364 0.149186 0.021019
0.675609 0.134227 0.033217
0.731880 0.127368 0.048010
0.782624 0.126826 0.065619
0.827586 0.131215 0.086357
0.866686 0.140164 0.110905
0.900267 0.154094 0.140668
0.928477 0.174041 0.177691
0.951299 0.201332 0.224434
0.969889 0.239847 0.287760
0.984368 0.294363 0.368960
0.995158 0.369978 0.451474
1.000003 0.454492 0.529794
1.000003 0.534114 0.600811
1.000003 0.609155 0.666226
1.000003 0.675930 0.723697
1.000003 0.735924 0.775019
1.000003 0.787944 0.819431
1.000003 0.831674 0.856790
1.000003 0.869073 0.888807
1.000003 0.899663 0.915070
1.000003 0.925176 0.937044
0.003505 0.294218 0.003505
0.003505 0.291933 0.003505
0.003505 0.289088 0.003505
0.003505 0.285353 0.003505
0.008068 0.280680 0.003505
0.133646 0.275010 0.003505
0.234348 0.266262 0.003505
0.312462 0.258104 0.003505
0.391001 0.248223 0.003721
0.465023 0.238136 0.004862
0.536082 0.227097 0.008292
0.607223 0.214276 0.016790
0.672048 0.200359 0.028585
0.729827 0.185981 0.043249
0.781703 0.172440 0.060952
0.827475 0.166909 0.082000
0.867116 0.169408 0.107047
0.901018 0.178985 0.137506
0.929374 0.196036 0.175461
0.952216 0.221609 0.223446
0.970738 0.259461 0.288561
0.985098 0.314549 0.371956
0.995751 0.388239 0.455602
1.000003 0.468068 0.534447
1.000003 0.544539 0.605561
1.000003 0.617341 0.670797
1.000003 0.682520 0.727926
1.000003 0.741287 0.778810
1.000003 0.792339 0.822751
1.000003 0.835294 0.859650
1.000003 0.872040 0.891224
1.000003 0.902089 0.917089
1.000003 0.927141 0.938704
0.003505 0.355634 0.003505
0.003505 0.353401 0.003505
0.003505 0.350690 0.003505
0.003505 0.347204 0.003505
0.004656 0.342917 0.003505
0.042002 0.337721 0.003505
0.185318 0.331485 0.003505
0.285984 0.324014 0.003505
0.368901 0.313029 0.003505
0.448799 0.302247 0.004037
0.524307 0.290841 0.006026
0.599241 0.277925 0.012586
0.666179 0.264279 0.023596
0.725937 0.250256 0.037825
0.779332 0.236450 0.055398
0.826234 0.224291 0.076568
0.866677 0.216074 0.101957
0.901115 0.216702 0.132974
0.929792 0.228013 0.171732
0.952786 0.250063 0.220833
0.971343 0.286063 0.287597
0.985662 0.339980 0.373403
0.996230 0.408403 0.458608
1.000003 0.482730 0.538270
1.000003 0.555480 0.609678
1.000003 0.625685 0.674875
1.000003 0.689069 0.731762
1.000003 0.746509 0.782286
1.000003 0.796559 0.825815
1.000003 0.838737 0.862299
1.000003 0.874843 0.893470
1.000003 0.904372 0.918969
1.000003 0.928985 0.940251
0.003505 0.419590 0.003663
0.003505 0.417595 0.003663
0.003505 0.415219 0.003663
0.003505 0.412238 0.003663
0.004092 0.408582 0.003505
0.012418 0.404103 0.003505
0.110711 0.398650 0.003505
0.234516 0.392004 0.003505
0.339697 0.384004 0.003505
0.426847 0.372024 0.003663
0.507982 0.359531 0.004668
0.587514 0.345741 0.008745
0.657395 0.331491 0.018448
0.719718 0.316794 0.031898
0.775117 0.302071 0.049045
0.823548 0.288417 0.070079
0.865122 0.277624 0.095573
0.900367 0.272258 0.126918
0.929583 0.275718 0.166247
0.952901 0.291183 0.216220
0.971630 0.322007 0.284346
0.986007 0.370040 0.372756
0.996563 0.430733 0.460079
1.000003 0.498659 0.540949
1.000003 0.567022 0.612920
1.000003 0.634190 0.678271
1.000003 0.695537 0.735056
1.000003 0.751532 0.785327
1.000003 0.800537 0.828528
1.000003 0.841938 0.864663
1.000003 0.877425 0.895485
1.000003 0.906464 0.920662
1.000003 0.930669 0.941649
0.003505 0.480499 0.003850
0.003505 0.478756 0.003825
0.003505 0.476757 0.003825
0.003663 0.474330 0.003825
0.003936 0.471363 0.003761
0.006414 0.467726 0.003761
0.033783 0.463289 0.003721
0.168225 0.457861 0.003721
0.284816 0.451302 0.003663
0.397338 0.443442 0.003663
0.484352 0.431560 0.003917
0.570935 0.418202 0.006146
0.644842 0.404240 0.013395
0.710487 0.389314 0.025660
0.768512 0.373605 0.042014
0.818988 0.358036 0.062580
0.862117 0.344482 0.087863
0.898518 0.335129 0.119212
0.928557 0.333085 0.158761
0.952422 0.341782 0.209213
0.971498 0.365086 0.278224
0.986067 0.404378 0.369294
0.996706 0.455648 0.459485
1.000003 0.516193 0.542092
1.000003 0.579368 0.614994
1.000003 0.642950 0.680769
1.000003 0.701939 0.737643
1.000003 0.756326 0.787807
1.000003 0.804225 0.830793
1.000003 0.844846 0.866668
1.000003 0.879738 0.897211
1.000003 0.908323 0.922124
1.000003 0.932158 0.942863
0.003505 0.538303 0.004316
0.003505 0.536818 0.004298
0.003505 0.535184 0.004279
0.003663 0.533217 0.004250
0.003917 0.530824 0.004220
0.005103 0.527893 0.004165
0.014404 0.524314 0.004104
0.069793 0.519926 0.004051
0.218547 0.514610 0.003990
0.338228 0.508211 0.003917
0.454132 0.500546 0.003850
0.541713 0.488719 0.004494
0.627241 0.475251 0.008807
0.697231 0.461498 0.019354
0.758710 0.446859 0.034474
0.811918 0.431786 0.054160
0.857168 0.417318 0.078831
0.895191 0.405203 0.109758
0.926433 0.398306 0.149040
0.951143 0.400139 0.199398
0.970804 0.414211 0.268567
0.985743 0.442537 0.361996
0.996596 0.483692 0.456053
1.000003 0.535810 0.541130
1.000003 0.592844 0.615479
1.000003 0.652126 0.682054
1.000003 0.708324 0.739288
1.000003 0.760871 0.789549
1.000003 0.807570 0.832475
1.000003 0.847396 0.868207
1.000003 0.881720 0.898569
1.000003 0.909893 0.923292
1.000003 0.933406 0.943845
0.003505 0.592406 0.005196
0.003505 0.591171 0.005166
0.003663 0.589838 0.005139
0.003721 0.588251 0.005098
0.003917 0.586331 0.005038
0.004692 0.583987 0.004965
0.008331 0.581123 0.004873
0.029410 0.577604 0.004774
0.124850 0.573322 0.004662
0.269681 0.568145 0.004544
0.396724 0.561905 0.004434
0.508382 0.554552 0.004352
0.593004 0.543067 0.005480
0.677342 0.529669 0.013173
0.744448 0.516048 0.026715
0.801602 0.501804 0.045144
0.849688 0.487542 0.068732
0.889916 0.474341 0.098717
0.922846 0.464310 0.137117
0.948791 0.460457 0.186617
0.969348 0.466076 0.254924
0.984898 0.484123 0.349758
0.996139 0.514906 0.448748
1.000003 0.557728 0.537272
1.000003 0.607633 0.613763
1.000003 0.661794 0.681655
1.000003 0.714664 0.739625
1.000003 0.765073 0.790269
1.000003 0.810449 0.833351
1.000003 0.849460 0.869108
1.000003 0.883252 0.899420
1.000003 0.911071 0.924060
1.000003 0.934328 0.944513
0.003663 0.643484 0.006823
0.003663 0.642458 0.006783
0.003721 0.641369 0.006738
0.003793 0.640090 0.006674
0.004021 0.638558 0.006587
0.004585 0.636696 0.006473
0.006515 0.634426 0.006331
0.016034 0.631633 0.006162
0.051721 0.628223 0.005969
0.183518 0.624079 0.005771
0.323929 0.619055 0.005573
0.452908 0.613091 0.005406
0.560597 0.605993 0.005285
0.641951 0.594959 0.007341
0.724810 0.581644 0.019216
0.787656 0.568388 0.036050
0.839788 0.554751 0.058302
0.882910 0.541353 0.086972
0.917959 0.529610 0.123947
0.945445 0.521867 0.171815
0.967155 0.520840 0.238171
0.983533 0.529813 0.332623
0.995331 0.550437 0.437371
1.000003 0.583292 0.530430
1.000003 0.624985 0.609848
1.000003 0.672946 0.679631
1.000003 0.721681 0.738741
1.000003 0.769425 0.790062
1.000003 0.813190 0.833514
1.000003 0.851259 0.869451
1.000003 0.884481 0.899835
1.000003 0.911959 0.924483
1.000003 0.934994 0.944911
0.003721 0.690669 0.009898
0.003761 0.689813 0.009832
0.003825 0.688918 0.009760
0.003936 0.687884 0.009659
0.004154 0.686661 0.009522
0.004643 0.685188 0.009340
0.005943 0.683399 0.009109
0.010863 0.681199 0.008829
0.027887 0.678507 0.008508
0.083534 0.675221 0.008158
0.238939 0.671214 0.007802
0.382365 0.666425 0.007475
0.508164 0.660678 0.007218
0.609809 0.653958 0.007091
0.687792 0.643387 0.011004
0.768132 0.630296 0.027125
0.826141 0.617553 0.047743
0.873310 0.604573 0.074777
0.911264 0.592216 0.109914
0.940843 0.582185 0.155597
0.964101 0.576492 0.219140
0.981580 0.578216 0.310587
0.994131 0.589742 0.421535
1.000003 0.612695 0.520343
1.000003 0.645480 0.603578
1.000003 0.686239 0.675921
1.000003 0.729936 0.736640
1.000003 0.774350 0.788973
1.000003 0.816094 0.833027
1.000003 0.853006 0.869307
1.000003 0.885561 0.899883
1.000003 0.912669 0.924625
1.000003 0.935488 0.945094
0.003897 0.734018 0.014896
0.003972 0.733303 0.014816
0.004037 0.732563 0.014730
0.004165 0.731725 0.014614
0.004393 0.730748 0.014458
0.004846 0.729584 0.014247
0.005871 0.728182 0.013973
0.008848 0.726463 0.013625
0.018463 0.724360 0.013202
0.044830 0.721783 0.012709
0.128854 0.718623 0.012163
0.295126 0.714820 0.011615
0.442122 0.710222 0.011121
0.560437 0.704795 0.010787
0.655971 0.698460 0.010765
0.729936 0.688439 0.016630
0.806938 0.675707 0.037301
0.860155 0.663509 0.062543
0.902166 0.651326 0.095544
0.934565 0.640292 0.138520
0.959881 0.631710 0.198364
0.978832 0.628142 0.284721
0.992404 0.632137 0.400117
1.000003 0.645918 0.506217
1.000003 0.669563 0.594370
1.000003 0.702268 0.670100
1.000003 0.739947 0.733018
1.000003 0.780204 0.786788
1.000003 0.819368 0.831744
1.000003 0.854802 0.868572
1.000003 0.886529 0.899488
1.000003 0.913204 0.924432
1.000003 0.935798 0.945021
0.004220 0.773363 0.021590
0.004288 0.772765 0.021492
0.004385 0.772150 0.021390
0.004530 0.771466 0.021259
0.004774 0.770683 0.021087
0.005226 0.769763 0.020860
0.006134 0.768666 0.020565
0.008342 0.767332 0.020188
0.014537 0.765702 0.019719
0.029411 0.763703 0.019160
0.068773 0.761239 0.018519
0.191252 0.758255 0.017840
0.357413 0.754618 0.017177
0.499172 0.750290 0.016647
0.610017 0.745185 0.016405
0.698785 0.739274 0.016700
0.768236 0.729868 0.024316
0.841671 0.717517 0.050562
0.889783 0.705976 0.081437
0.926118 0.694865 0.121480
0.954201 0.684875 0.177061
0.975098 0.677923 0.257213
0.990020 0.676293 0.372447
1.000003 0.682295 0.487421
1.000003 0.697251 0.581708
1.000003 0.721492 0.661795
1.000003 0.752297 0.727634
1.000003 0.787493 0.783365
1.000003 0.823372 0.829583
1.000003 0.856879 0.867203
1.000003 0.887520 0.898629
1.000003 0.913644 0.923893
1.000003 0.935969 0.944689
0.004752 0.808677 0.030439
0.004846 0.808175 0.030318
0.004960 0.807662 0.030194
0.005126 0.807102 0.030043
0.005399 0.806470 0.029852
0.005875 0.805742 0.029607
0.006759 0.804884 0.029293
0.008667 0.803851 0.028892
0.013213 0.802597 0.028389
0.022840 0.801059 0.027777
0.044990 0.799159 0.027055
0.101689 0.796846 0.026257
0.257923 0.794004 0.025429
0.422428 0.790592 0.024682
0.553801 0.786530 0.024176
0.656461 0.781776 0.024157
0.738082 0.776312 0.025012
0.803299 0.767477 0.034915
0.872365 0.755609 0.067888
0.914654 0.744975 0.105210
0.946601 0.734653 0.156405
0.970108 0.725929 0.229765
0.986804 0.720600 0.339160
0.998660 0.720657 0.463569
1.000003 0.728068 0.565166
1.000003 0.744061 0.650632
1.000003 0.767460 0.720199
1.000003 0.796738 0.778508
1.000003 0.828528 0.826427
1.000003 0.859527 0.865135
1.000003 0.888718 0.897276
1.000003 0.914096 0.922995
1.000003 0.936062 0.944094
0.005670 0.840284 0.042160
0.005794 0.839862 0.042008
0.005930 0.839432 0.041852
0.006134 0.838972 0.041674
0.006454 0.838461 0.041457
0.006990 0.837881 0.041188
0.007939 0.837210 0.040852
0.009805 0.836412 0.040427
0.013487 0.835452 0.039897
0.020423 0.834281 0.039243
0.034651 0.832834 0.038456
0.066326 0.831064 0.037556
0.148956 0.828876 0.036572
0.325841 0.826225 0.035608
0.484359 0.823039 0.034812
0.604953 0.819272 0.034428
0.699142 0.814892 0.034824
0.774080 0.809849 0.036601
0.834779 0.801619 0.049325
0.898280 0.790485 0.089908
0.936190 0.780477 0.137192
0.963379 0.771162 0.203770
0.982474 0.763784 0.302907
0.995979 0.759797 0.434402
1.000003 0.761262 0.544301
1.000003 0.769862 0.636149
1.000003 0.785808 0.710326
1.000003 0.808503 0.771936
1.000003 0.835357 0.822090
1.000003 0.863133 0.862255
1.000003 0.890372 0.895363
1.000003 0.914710 0.921704
1.000003 0.936160 0.943220
0.007341 0.868276 0.057675
0.007508 0.867922 0.057478
0.007687 0.867562 0.057280
0.007941 0.867182 0.057061
0.008342 0.866767 0.056806
0.008997 0.866304 0.056503
0.010110 0.865777 0.056136
0.011983 0.865161 0.055683
0.015095 0.864428 0.055123
0.020530 0.863543 0.054434
0.030693 0.862452 0.053593
0.050970 0.861115 0.052608
0.096390 0.859454 0.051488
0.217463 0.857425 0.050317
0.398447 0.854963 0.049228
0.542563 0.852022 0.048451
0.652315 0.848565 0.048336
0.738594 0.844537 0.049431
0.806749 0.839924 0.052649
0.861670 0.832474 0.068266
0.921177 0.821811 0.119883
0.954103 0.812637 0.180531
0.976605 0.804456 0.269049
0.992347 0.798140 0.400509
1.000003 0.795465 0.519098
1.000003 0.798105 0.618058
1.000003 0.807206 0.697671
1.000003 0.823111 0.763352
1.000003 0.844335 0.816357
1.000003 0.868123 0.858421
1.000003 0.892784 0.892806
1.000003 0.915677 0.919971
1.000003 0.936375 0.942040
0.010544 0.892463 0.077921
0.010767 0.892165 0.077664
0.010995 0.891863 0.077405
0.011304 0.891548 0.077130
0.011776 0.891209 0.076821
0.012497 0.890836 0.076467
0.013602 0.890419 0.076054
0.015328 0.889940 0.075559
0.018078 0.889379 0.074959
0.022622 0.888708 0.074229
0.030542 0.887888 0.073338
0.045038 0.886885 0.072279
0.074173 0.885636 0.071041
0.139229 0.884100 0.069686
0.299067 0.882220 0.068319
0.469125 0.879950 0.067148
0.597596 0.877251 0.066499
0.697135 0.874071 0.066883
0.775240 0.870385 0.069118
0.835699 0.866253 0.074447
0.887059 0.859263 0.095252
0.940837 0.849286 0.161073
0.968585 0.841082 0.240530
0.987466 0.833764 0.364313
0.999770 0.828654 0.490674
1.000003 0.827098 0.596748
1.000003 0.830628 0.682265
1.000003 0.840238 0.752649
1.000003 0.855596 0.809104
1.000003 0.874799 0.853540
1.000003 0.896249 0.889548
1.000003 0.917214 0.917769
1.000003 0.936848 0.940544
0.015859 0.913828 0.105478
0.016075 0.913579 0.105133
0.016294 0.913327 0.104787
0.016585 0.913066 0.104426
0.017036 0.912788 0.104034
0.017727 0.912488 0.103602
0.018775 0.912158 0.103114
0.020386 0.911785 0.102549
0.022883 0.911356 0.101885
0.026845 0.910851 0.101092
0.033392 0.910240 0.100133
0.044585 0.909498 0.098993
0.065244 0.908574 0.097638
0.106258 0.907433 0.096106
0.201050 0.906026 0.094468
0.381854 0.904309 0.092899
0.533049 0.902245 0.091696
0.648028 0.899783 0.091328
0.737681 0.896894 0.092550
0.806938 0.893615 0.096476
0.861958 0.889839 0.105243
0.908626 0.883467 0.132419
0.956543 0.874335 0.217576
0.980494 0.866832 0.329843
0.995643 0.860555 0.459778
1.000003 0.856371 0.572104
1.000003 0.855755 0.663637
1.000003 0.859947 0.739278
1.000003 0.869547 0.799850
1.000003 0.883696 0.847245
1.000003 0.901240 0.885338
1.000003 0.919661 0.914934
1.000003 0.937784 0.938632
0.023562 0.932213 0.143242
0.023760 0.932006 0.142765
0.023961 0.931795 0.142285
0.024221 0.931579 0.141793
0.024638 0.931352 0.141274
0.025288 0.931110 0.140715
0.026277 0.930847 0.140106
0.027788 0.930555 0.139423
0.030092 0.930226 0.138646
0.033653 0.929844 0.137744
0.039319 0.929390 0.136676
0.048529 0.928844 0.135417
0.064454 0.928167 0.133917
0.093475 0.927332 0.132189
0.152153 0.926295 0.130268
0.290592 0.925019 0.128290
0.461004 0.923467 0.126513
0.592505 0.921593 0.125363
0.694603 0.919366 0.125546
0.773539 0.916806 0.128111
0.836396 0.913819 0.134920
0.885197 0.910443 0.149108
0.926425 0.904802 0.184558
0.969975 0.896261 0.303163
0.989726 0.889671 0.429900
1.000003 0.884183 0.545844
1.000003 0.880947 0.642483
1.000003 0.881082 0.723386
1.000003 0.885681 0.788501
1.000003 0.894824 0.839382
1.000003 0.908020 0.880039
1.000003 0.923314 0.911372
1.000003 0.939418 0.936246
0.034460 0.947665 0.195756
0.034625 0.947492 0.195071
0.034792 0.947316 0.194381
0.035007 0.947138 0.193683
0.035377 0.946951 0.192957
0.035972 0.946754 0.192195
0.036893 0.946544 0.191384
0.038305 0.946314 0.190502
0.040448 0.946059 0.189530
0.043712 0.945768 0.188436
0.048781 0.945428 0.187174
0.056739 0.945025 0.185716
0.069863 0.944530 0.183993
0.092329 0.943921 0.182000
0.133878 0.943165 0.179736
0.221033 0.942228 0.177295
0.387523 0.941076 0.174889
0.534071 0.939669 0.172899
0.647932 0.937974 0.171992
0.736514 0.936001 0.173194
0.807533 0.933668 0.178218
0.863025 0.930997 0.189894
0.905311 0.928039 0.212905
0.943088 0.922837 0.265176
0.980777 0.915135 0.405637
0.997280 0.909217 0.520814
1.000003 0.904632 0.620311
1.000003 0.902164 0.705634
1.000003 0.902974 0.775253
1.000003 0.907725 0.829937
1.000003 0.916575 0.873574
1.000003 0.928360 0.907008
1.000003 0.941963 0.933336
0.050314 0.960949 0.274777
0.050425 0.960806 0.273730
0.050538 0.960661 0.272679
0.050689 0.960514 0.271619
0.050989 0.960361 0.270534
0.051509 0.960202 0.269411
0.052344 0.960033 0.268243
0.053648 0.959852 0.267002
0.055636 0.959654 0.265673
0.058653 0.959433 0.264222
0.063276 0.959179 0.262599
0.070373 0.958882 0.260772
0.081698 0.958523 0.258656
0.100217 0.958085 0.256226
0.132344 0.957542 0.253449
0.193245 0.956868 0.250374
0.322760 0.956033 0.247165
0.476472 0.955000 0.244144
0.599163 0.953740 0.241950
0.696149 0.952252 0.241621
0.775050 0.950469 0.244808
0.837466 0.948399 0.254263
0.885519 0.946075 0.274252
0.921773 0.942239 0.301676
0.956048 0.938884 0.365519
0.989624 0.931783 0.499444
1.000003 0.926672 0.598349
1.000003 0.922762 0.686335
1.000003 0.920990 0.759939
1.000003 0.922220 0.818559
1.000003 0.927035 0.865576
1.000003 0.935108 0.901538
1.000003 0.945743 0.929685
0.072659 0.971917 0.377087
0.072690 0.971799 0.375953
0.072722 0.971679 0.374804
0.072783 0.971558 0.373645
0.072988 0.971434 0.372458
0.073409 0.971305 0.371234
0.074137 0.971169 0.369968
0.075319 0.971025 0.368638
0.077155 0.970870 0.367231
0.079960 0.970700 0.365723
0.084248 0.970508 0.364070
0.090758 0.970288 0.362246
0.100941 0.970026 0.360168
0.117101 0.969711 0.357794
0.143939 0.969323 0.355068
0.191517 0.968841 0.351971
0.285781 0.968243 0.348568
0.430639 0.967496 0.345039
0.555184 0.966573 0.341836
0.656743 0.965467 0.339797
0.741525 0.964123 0.340156
0.810024 0.962540 0.344868
0.863649 0.960740 0.356224
0.906216 0.958661 0.377530
0.938373 0.956374 0.409708
0.968141 0.952224 0.462792
0.996546 0.945912 0.579673
1.000003 0.941402 0.667539
1.000003 0.938190 0.743676
1.000003 0.937031 0.805767
1.000003 0.938631 0.856222
1.000003 0.943279 0.894991
1.000003 0.950793 0.925270
0.105456 0.981180 0.473531
0.105364 0.981084 0.472560
0.105271 0.980986 0.471577
0.105201 0.980887 0.470585
0.105271 0.980786 0.469576
0.105555 0.980682 0.468544
0.106145 0.980574 0.467486
0.107181 0.980460 0.466388
0.108860 0.980339 0.465245
0.111478 0.980208 0.464041
0.115515 0.980063 0.462745
0.121637 0.979900 0.461345
0.131127 0.979709 0.459782
0.145921 0.979483 0.458026
0.169784 0.979208 0.456024
0.210187 0.978870 0.453737
0.284313 0.978449 0.451157
0.406485 0.977921 0.448317
0.522385 0.977262 0.445397
0.622071 0.976461 0.442833
0.708885 0.975473 0.441253
0.781451 0.974291 0.441838
0.839797 0.972927 0.446085
0.887102 0.971329 0.456086
0.923456 0.969547 0.473520
0.951690 0.967529 0.500522
0.977266 0.963946 0.544956
1.000003 0.958204 0.650443
1.000003 0.954324 0.727041
1.000003 0.951744 0.791624
1.000003 0.951032 0.845309
1.000003 0.952790 0.887073
1.000003 0.957258 0.919817
0.153260 0.988692 0.555044
0.152976 0.988613 0.554203
0.152691 0.988534 0.553352
0.152421 0.988454 0.552494
0.152291 0.988372 0.551625
0.152381 0.988287 0.550739
0.152786 0.988201 0.549837
0.153648 0.988111 0.548909
0.155165 0.988015 0.547953
0.157634 0.987914 0.546959
0.161524 0.987803 0.545910
0.167483 0.987681 0.544798
