luts/RED_709_C1R3.cube
# RED Digital Cinema Output Transform LUT for IPP2
# LUT Name = RWG_Log3G10 to REC709_BT1886 with HIGH_CONTRAST and R_3_Soft size_33 v1.13
# Generated by version 1.13
# Settings used in creation of this LUT are:
# Development Color Space = REC709
# Output Gamma Curve = BT1886
# Output Tonemap = HIGH_CONTRAST
# Highlight Rolloff = Rolloff 3 - soft
# Resolution = 33 x 33 x 33
TITLE "RED IPP2 LUT to map REDWideGamutRGB/Log3G10 to REC709/BT1886/HIGH_CONTRAST/Rolloff 3 - soft"
LUT_3D_SIZE 33
0.000000 0.000000 0.000000
0.000003 0.000000 0.000000
0.001077 0.000000 0.000000
0.054028 0.003505 0.003505
0.077286 0.003505 0.003505
0.111152 0.003663 0.003721
0.155022 0.004668 0.005558
0.214894 0.008028 0.011893
0.293889 0.014927 0.021996
0.394656 0.023124 0.033517
0.500372 0.032220 0.046232
0.604893 0.043099 0.061392
0.704474 0.056896 0.080590
0.786533 0.073506 0.103743
0.853214 0.094810 0.133660
0.904938 0.122995 0.173873
0.943249 0.161446 0.230175
0.970547 0.216280 0.312791
0.989092 0.298083 0.415558
1.000003 0.412349 0.512181
1.000003 0.519651 0.598648
1.000003 0.609030 0.671668
1.000003 0.680120 0.730352
1.000003 0.736982 0.777685
1.000003 0.780746 0.814362
1.000003 0.815498 0.843649
1.000003 0.842254 0.866300
1.000003 0.863535 0.884384
1.000003 0.880171 0.898563
1.000003 0.893016 0.909539
1.000003 0.903383 0.918415
1.000003 0.912133 0.925919
1.000003 0.920412 0.933030
0.000000 0.000002 0.000000
0.000001 0.000001 0.000000
0.000090 0.000001 0.000000
0.049387 0.003505 0.003505
0.074552 0.003505 0.003505
0.109487 0.003825 0.003663
0.153923 0.005371 0.005196
0.214130 0.009470 0.011122
0.293331 0.016475 0.021274
0.394264 0.024483 0.032894
0.500167 0.033391 0.045711
0.604868 0.044093 0.060978
0.704528 0.057730 0.080272
0.786633 0.074219 0.103512
0.853328 0.095433 0.133515
0.905047 0.123562 0.173819
0.943341 0.162000 0.230232
0.970619 0.216876 0.312998
0.989144 0.298809 0.415871
1.000003 0.413054 0.512517
1.000003 0.520200 0.598975
1.000003 0.609477 0.671972
1.000003 0.680493 0.730626
1.000003 0.737299 0.777929
1.000003 0.781020 0.814580
1.000003 0.815737 0.843843
1.000003 0.842466 0.866475
1.000003 0.863725 0.884542
1.000003 0.880344 0.898708
1.000003 0.893175 0.909673
1.000003 0.903531 0.918540
1.000003 0.912271 0.926036
1.000003 0.920541 0.933140
0.000000 0.000132 0.000000
0.000000 0.000077 0.000000
0.000013 0.000040 0.000000
0.041668 0.003505 0.003505
0.070488 0.003663 0.003505
0.107104 0.004803 0.003505
0.152371 0.007296 0.004791
0.213056 0.012266 0.010109
0.292544 0.018873 0.020300
0.393709 0.026490 0.032046
0.499880 0.035063 0.045004
0.604827 0.045490 0.060416
0.704597 0.058892 0.079837
0.786765 0.075206 0.103196
0.853482 0.096293 0.133314
0.905194 0.124343 0.173742
0.943466 0.162759 0.230305
0.970716 0.217692 0.313275
0.989215 0.299800 0.416291
1.000003 0.414011 0.512969
1.000003 0.520944 0.599418
1.000003 0.610080 0.672382
1.000003 0.680996 0.730997
1.000003 0.737727 0.778259
1.000003 0.781389 0.814874
1.000003 0.816060 0.844106
1.000003 0.842753 0.866712
1.000003 0.863982 0.884756
1.000003 0.880577 0.898903
1.000003 0.893390 0.909854
1.000003 0.903731 0.918708
1.000003 0.912457 0.926194
1.000003 0.920714 0.933288
0.003505 0.047383 0.003505
0.003505 0.045679 0.003505
0.003505 0.043173 0.003505
0.025284 0.039373 0.003505
0.064235 0.032395 0.003505
0.103667 0.016358 0.003505
0.150177 0.014554 0.004368
0.211547 0.017478 0.008879
0.291440 0.022724 0.019008
0.392932 0.029484 0.030913
0.499477 0.037464 0.044057
0.604759 0.047454 0.059659
0.704679 0.060506 0.079250
0.786935 0.076568 0.102766
0.853682 0.097472 0.133038
0.905386 0.125411 0.173632
0.943630 0.163794 0.230396
0.970845 0.218799 0.313639
0.989309 0.301140 0.416846
1.000003 0.415293 0.513570
1.000003 0.521937 0.600005
1.000003 0.610885 0.672926
1.000003 0.681668 0.731488
1.000003 0.738296 0.778698
1.000003 0.781882 0.815265
1.000003 0.816490 0.844454
1.000003 0.843134 0.867025
1.000003 0.864324 0.885040
1.000003 0.880887 0.899163
1.000003 0.893675 0.910094
1.000003 0.903995 0.918932
1.000003 0.912705 0.926404
1.000003 0.920946 0.933484
0.003505 0.071047 0.003505
0.003505 0.070075 0.003505
0.003505 0.068705 0.003505
0.003663 0.066765 0.003505
0.054375 0.064113 0.003505
0.098856 0.056300 0.003505
0.147190 0.038194 0.003990
0.209512 0.027718 0.007597
0.289960 0.028941 0.017400
0.391895 0.033879 0.029481
0.498931 0.040827 0.042848
0.604651 0.050129 0.058686
0.704767 0.062669 0.078490
0.787139 0.078375 0.102205
0.853929 0.099027 0.132675
0.905626 0.126811 0.173479
0.943835 0.165146 0.230499
0.971006 0.220239 0.314091
0.989427 0.302875 0.417544
1.000003 0.416930 0.514327
1.000003 0.523203 0.600747
1.000003 0.611907 0.673615
1.000003 0.682519 0.732111
1.000003 0.739019 0.779253
1.000003 0.782505 0.815759
1.000003 0.817034 0.844895
1.000003 0.843617 0.867422
1.000003 0.864756 0.885399
1.000003 0.881280 0.899492
1.000003 0.894036 0.910398
1.000003 0.904331 0.919216
1.000003 0.913018 0.926670
1.000003 0.921237 0.933733
0.003505 0.104089 0.003505
0.003505 0.103493 0.003505
0.003505 0.102665 0.003505
0.003505 0.101517 0.003505
0.005089 0.099991 0.003505
0.086071 0.096344 0.003505
0.139821 0.087796 0.003663
0.204598 0.072066 0.005659
0.286401 0.050639 0.014019
0.389372 0.046739 0.026332
0.497574 0.049830 0.040132
0.604315 0.056923 0.056472
0.704898 0.067991 0.076741
0.787551 0.082741 0.100897
0.854450 0.102740 0.131806
0.906142 0.130123 0.173083
0.944282 0.168317 0.230680
0.971358 0.223587 0.315056
0.989685 0.306879 0.419068
1.000003 0.420615 0.515993
1.000003 0.526035 0.602384
1.000003 0.614186 0.675136
1.000003 0.684413 0.733485
1.000003 0.740621 0.780479
1.000003 0.783887 0.816853
1.000003 0.818241 0.845871
1.000003 0.844685 0.868299
1.000003 0.865714 0.886194
1.000003 0.882149 0.900218
1.000003 0.894835 0.911070
1.000003 0.905073 0.919842
1.000003 0.913711 0.927257
1.000003 0.921884 0.934282
0.003505 0.146181 0.003505
0.003505 0.145774 0.003505
0.003505 0.145211 0.003505
0.003505 0.144436 0.003505
0.003505 0.143416 0.003505
0.017625 0.141024 0.003505
0.123467 0.136272 0.003505
0.194318 0.125833 0.004037
0.279041 0.110547 0.008835
0.384047 0.087597 0.020886
0.494615 0.073441 0.035207
0.603360 0.072866 0.052347
0.704885 0.079697 0.073401
0.788123 0.091985 0.098335
0.855278 0.110410 0.130034
0.907000 0.136841 0.172168
0.945041 0.174643 0.230812
0.971964 0.230159 0.316621
0.990132 0.314606 0.421685
1.000003 0.427377 0.518902
1.000003 0.531176 0.605263
1.000003 0.618289 0.677820
1.000003 0.687804 0.735916
1.000003 0.743480 0.782649
1.000003 0.786348 0.818787
1.000003 0.820385 0.847598
1.000003 0.846583 0.869852
1.000003 0.867413 0.887599
1.000003 0.883689 0.901504
1.000003 0.896251 0.912259
1.000003 0.906388 0.920951
1.000003 0.914939 0.928297
1.000003 0.923028 0.935255
0.003505 0.203178 0.003663
0.003505 0.202875 0.003663
0.003505 0.202457 0.003505
0.003505 0.201882 0.003505
0.003505 0.201132 0.003505
0.003917 0.199384 0.003505
0.044168 0.195962 0.003505
0.172039 0.189400 0.003505
0.263683 0.176786 0.004763
0.372627 0.161264 0.012787
0.488020 0.141910 0.027079
0.600634 0.117094 0.045141
0.704058 0.108140 0.067302
0.788528 0.112802 0.093447
0.856292 0.126870 0.126430
0.908194 0.150766 0.169990
0.946158 0.187370 0.230388
0.972882 0.242993 0.318638
0.990821 0.329263 0.425614
1.000003 0.439066 0.523446
1.000003 0.539881 0.609833
1.000003 0.625125 0.682111
1.000003 0.693393 0.739817
1.000003 0.748160 0.786137
1.000003 0.790357 0.821901
1.000003 0.823868 0.850378
1.000003 0.849660 0.872353
1.000003 0.870163 0.889865
1.000003 0.886181 0.903576
1.000003 0.898541 0.914175
1.000003 0.908512 0.922739
1.000003 0.916923 0.929972
1.000003 0.924876 0.936822
0.003505 0.278052 0.003825
0.003505 0.277803 0.003825
0.003505 0.277459 0.003825
0.003505 0.276993 0.003825
0.003505 0.276386 0.003825
0.003663 0.274976 0.003793
0.004965 0.272228 0.003761
0.093675 0.267008 0.003721
0.232932 0.256491 0.003761
0.350166 0.242781 0.005684
0.474472 0.225834 0.016486
0.593875 0.205506 0.034612
0.700821 0.181936 0.057696
0.787675 0.162063 0.085234
0.856769 0.162323 0.119842
0.909258 0.178934 0.165300
0.947342 0.211861 0.228088
0.973935 0.266556 0.319827
0.991645 0.353675 0.429939
1.000003 0.456566 0.528995
1.000003 0.552474 0.615633
1.000003 0.634736 0.687654
1.000003 0.701094 0.744899
1.000003 0.754523 0.790706
1.000003 0.795761 0.825990
1.000003 0.828537 0.854035
1.000003 0.853769 0.875647
1.000003 0.873827 0.892850
1.000003 0.889495 0.906307
1.000003 0.901583 0.916703
1.000003 0.911332 0.925097
1.000003 0.919552 0.932182
1.000003 0.927325 0.938890
0.003505 0.374011 0.004260
0.003505 0.373796 0.004260
0.003505 0.373501 0.004260
0.003505 0.373101 0.004260
0.003505 0.372579 0.004250
0.003663 0.371367 0.004240
0.003897 0.368998 0.004220
0.009848 0.364476 0.004165
0.150424 0.356797 0.004064
0.309596 0.342867 0.004118
0.449112 0.326031 0.007001
0.579592 0.305096 0.022071
0.692599 0.282114 0.044804
0.783697 0.259523 0.073217
0.855374 0.241970 0.109234
0.909268 0.238453 0.156542
0.947972 0.259560 0.221817
0.974723 0.309303 0.317591
0.992353 0.389247 0.432528
1.000003 0.480027 0.533880
1.000003 0.568558 0.621320
1.000003 0.646461 0.693341
1.000003 0.710167 0.750233
1.000003 0.761839 0.795560
1.000003 0.801877 0.830367
1.000003 0.833765 0.857969
1.000003 0.858339 0.879202
1.000003 0.877883 0.896079
1.000003 0.893152 0.909266
1.000003 0.904933 0.919444
1.000003 0.914432 0.927656
1.000003 0.922441 0.934584
1.000003 0.930013 0.941137
0.003505 0.479289 0.005188
0.003505 0.479139 0.005188
0.003505 0.478934 0.005183
0.003505 0.478656 0.005183
0.003505 0.478294 0.005175
0.003663 0.477452 0.005161
0.003761 0.475807 0.005130
0.004835 0.472657 0.005057
0.027151 0.467217 0.004925
0.217194 0.458681 0.004717
0.404693 0.446238 0.004487
0.552424 0.425115 0.010234
0.675744 0.401670 0.030015
0.773963 0.376644 0.057774
0.850239 0.353188 0.094136
0.906930 0.339000 0.142357
0.947188 0.343574 0.209173
0.974694 0.375985 0.308109
0.992609 0.435741 0.430213
1.000003 0.509844 0.535699
1.000003 0.587889 0.625022
1.000003 0.659655 0.697675
1.000003 0.719804 0.754588
1.000003 0.769271 0.799674
1.000003 0.807902 0.834157
1.000003 0.838808 0.861424
1.000003 0.862688 0.882353
1.000003 0.881708 0.898961
1.000003 0.896580 0.911920
1.000003 0.908059 0.921911
1.000003 0.917318 0.929966
1.000003 0.925125 0.936756
1.000003 0.932506 0.943175
0.003721 0.555163 0.008487
0.003663 0.576455 0.007146
0.003663 0.576314 0.007141
0.003663 0.576122 0.007136
0.003663 0.575873 0.007129
0.003721 0.575295 0.007109
0.003825 0.574167 0.007064
0.004326 0.572011 0.006965
0.008448 0.568278 0.006765
0.067000 0.562375 0.006442
0.299624 0.553654 0.006044
0.498339 0.541743 0.005684
0.643094 0.521001 0.015646
0.754931 0.498614 0.040575
0.838899 0.475742 0.075375
0.900541 0.456085 0.122591
0.943850 0.447098 0.188632
0.973123 0.457701 0.287217
0.991973 0.492584 0.418640
1.000003 0.546417 0.531209
1.000003 0.610502 0.624286
1.000003 0.673875 0.698756
1.000003 0.729289 0.756446
1.000003 0.775999 0.801808
1.000003 0.813013 0.836323
1.000003 0.842883 0.863516
1.000003 0.866086 0.884333
1.000003 0.884629 0.900818
1.000003 0.899159 0.913662
1.000003 0.910388 0.923553
1.000003 0.919452 0.931519
1.000003 0.927101 0.938230
1.000003 0.934334 0.944568
0.003793 0.663236 0.011699
0.003793 0.663165 0.011696
0.003825 0.663068 0.011690
0.003825 0.662936 0.011682
0.003825 0.662765 0.011671
0.003897 0.662370 0.011642
0.003990 0.661604 0.011579
0.004360 0.660146 0.011433
0.006001 0.657633 0.011132
0.020782 0.653642 0.010604
0.150672 0.647674 0.009850
0.396064 0.639369 0.009068
0.585175 0.628314 0.008582
0.720135 0.608960 0.023580
0.819594 0.588112 0.055426
0.889205 0.567868 0.099669
0.937328 0.552100 0.162096
0.969556 0.547374 0.255990
0.990145 0.560433 0.394385
1.000003 0.592416 0.518080
1.000003 0.639040 0.617555
1.000003 0.690960 0.695537
1.000003 0.739710 0.755079
1.000003 0.782605 0.801430
1.000003 0.817492 0.836456
1.000003 0.846102 0.863919
1.000003 0.868553 0.884871
1.000003 0.886612 0.901422
1.000003 0.900824 0.914293
1.000003 0.911840 0.924190
1.000003 0.920749 0.932153
1.000003 0.928278 0.938854
1.000003 0.935405 0.945180
0.004130 0.736780 0.019534
0.004130 0.736731 0.019529
0.004141 0.736662 0.019522
0.004165 0.736571 0.019513
0.004176 0.736452 0.019500
0.004240 0.736178 0.019468
0.004360 0.735652 0.019399
0.004699 0.734664 0.019244
0.005808 0.732980 0.018925
0.011890 0.730319 0.018352
0.047381 0.726310 0.017476
0.253812 0.720638 0.016407
0.495128 0.712916 0.015464
0.661824 0.703073 0.015300
0.784788 0.685407 0.035697
0.870763 0.666553 0.076551
0.926686 0.649199 0.133516
0.963533 0.636789 0.219243
0.986883 0.634920 0.355757
1.000003 0.647825 0.495146
1.000003 0.675828 0.604153
1.000003 0.713575 0.687710
1.000003 0.753260 0.750410
1.000003 0.790706 0.798597
1.000003 0.822517 0.834677
1.000003 0.849331 0.862784
1.000003 0.870750 0.884127
1.000003 0.888180 0.900932
1.000003 0.902006 0.913967
1.000003 0.912779 0.923972
1.000003 0.921525 0.932010
1.000003 0.928936 0.938768
1.000003 0.935968 0.945139
0.004846 0.797800 0.031531
0.004852 0.797764 0.031524
0.004868 0.797716 0.031515
0.004889 0.797651 0.031503
0.004915 0.797566 0.031487
0.004980 0.797373 0.031447
0.005121 0.797005 0.031365
0.005487 0.796326 0.031193
0.006493 0.795192 0.030853
0.010312 0.793430 0.030245
0.026204 0.790781 0.029279
0.098712 0.786989 0.027991
0.366932 0.781718 0.026622
0.584252 0.774827 0.025794
0.727952 0.766231 0.026615
0.836876 0.750551 0.053573
0.909774 0.733913 0.106262
0.954010 0.719293 0.182028
0.981594 0.709679 0.304634
0.997960 0.709289 0.460305
1.000003 0.720877 0.582399
1.000003 0.743470 0.674100
1.000003 0.771965 0.741676
1.000003 0.801990 0.792831
1.000003 0.829350 0.830686
1.000003 0.853478 0.859919
1.000003 0.873333 0.881976
1.000003 0.889816 0.899262
1.000003 0.903069 0.912625
1.000003 0.913493 0.922856
1.000003 0.922013 0.931060
1.000003 0.929267 0.937946
1.000003 0.936178 0.944432
0.006414 0.847198 0.049483
0.006428 0.847172 0.049474
0.006445 0.847137 0.049461
0.006473 0.847089 0.049444
0.006507 0.847028 0.049422
0.006593 0.846888 0.049369
0.006778 0.846625 0.049265
0.007227 0.846148 0.049058
0.008363 0.845372 0.048680
0.011719 0.844198 0.048032
0.021420 0.842460 0.046998
0.053600 0.839967 0.045542
0.202676 0.836441 0.043791
0.480690 0.831721 0.042269
0.662832 0.825675 0.041986
0.783608 0.818328 0.044782
0.877748 0.804746 0.079660
0.939155 0.790226 0.149326
0.973460 0.778146 0.254222
0.993503 0.770797 0.413797
1.000003 0.770972 0.551565
1.000003 0.780322 0.653824
1.000003 0.797061 0.728159
1.000003 0.818116 0.783636
1.000003 0.839518 0.824165
1.000003 0.859788 0.855134
1.000003 0.877284 0.878310
1.000003 0.892286 0.896358
1.000003 0.904624 0.910244
1.000003 0.914482 0.920839
1.000003 0.922629 0.929311
1.000003 0.929625 0.936408
1.000003 0.936337 0.943080
0.010215 0.886394 0.075905
0.010234 0.886374 0.075892
0.010262 0.886348 0.075873
0.010299 0.886312 0.075848
0.010348 0.886267 0.075815
0.010472 0.886163 0.075740
0.010736 0.885971 0.075597
0.011330 0.885627 0.075330
0.012652 0.885084 0.074878
0.015632 0.884288 0.074155
0.022818 0.883142 0.073044
0.042068 0.881515 0.071455
0.105497 0.879195 0.069391
0.345140 0.876024 0.067228
0.580514 0.871855 0.065836
0.730066 0.866649 0.066854
0.829525 0.860477 0.073174
0.909814 0.848851 0.118490
0.960826 0.836376 0.213818
0.986711 0.826670 0.359939
1.000003 0.820839 0.512796
1.000003 0.821063 0.626746
1.000003 0.827761 0.709356
1.000003 0.839703 0.770508
1.000003 0.854176 0.814717
1.000003 0.869475 0.848147
1.000003 0.883689 0.872934
1.000003 0.896509 0.892091
1.000003 0.907434 0.906741
1.000003 0.916384 0.917866
1.000003 0.923915 0.926731
1.000003 0.930472 0.934135
1.000003 0.936835 0.941078
0.017804 0.917201 0.114968
0.017822 0.917186 0.114946
0.017847 0.917166 0.114918
0.017882 0.917139 0.114879
0.017928 0.917105 0.114830
0.018043 0.917027 0.114718
0.018290 0.916883 0.114509
0.018850 0.916631 0.114136
0.020082 0.916241 0.113544
0.022756 0.915690 0.112670
0.028700 0.914924 0.111411
0.042584 0.913861 0.109653
0.079766 0.912353 0.107300
0.205240 0.910262 0.104556
0.481092 0.907444 0.102097
0.664989 0.903831 0.101383
0.785856 0.899429 0.104963
0.867071 0.894286 0.117449
0.934196 0.884540 0.177147
0.975989 0.874083 0.312106
0.995996 0.866116 0.470144
1.000003 0.861506 0.594111
1.000003 0.861377 0.685319
1.000003 0.865765 0.753077
1.000003 0.873486 0.801896
1.000003 0.883277 0.838558
1.000003 0.893468 0.865526
1.000003 0.903397 0.886211
1.000003 0.912331 0.901924
1.000003 0.919939 0.913790
1.000003 0.926523 0.923203
1.000003 0.932381 0.931036
1.000003 0.938168 0.938356
0.029948 0.941043 0.173786
0.029964 0.941031 0.173753
0.029984 0.941016 0.173706
0.030014 0.940995 0.173645
0.030054 0.940969 0.173566
0.030153 0.940910 0.173389
0.030372 0.940801 0.173063
0.030879 0.940612 0.172497
0.032010 0.940326 0.171642
0.034447 0.939934 0.170464
0.039660 0.939411 0.168887
0.050897 0.938708 0.166803
0.077257 0.937728 0.164045
0.148108 0.936364 0.160664
0.372632 0.934492 0.157114
0.591582 0.932027 0.154662
0.734945 0.928943 0.155679
0.831994 0.925245 0.164256
0.897323 0.921016 0.187976
0.951435 0.913184 0.267318
0.987074 0.904190 0.431985
1.000003 0.897814 0.559845
1.000003 0.894124 0.657661
1.000003 0.893551 0.731808
1.000003 0.895958 0.785669
1.000003 0.900719 0.826149
1.000003 0.906769 0.855826
1.000003 0.913418 0.878473
1.000003 0.919915 0.895578
1.000003 0.925776 0.908428
1.000003 0.931067 0.918574
1.000003 0.935930 0.926982
1.000003 0.940867 0.934810
0.048312 0.958999 0.264321
0.048322 0.958991 0.264264
0.048337 0.958979 0.264186
0.048359 0.958963 0.264082
0.048388 0.958942 0.263949
0.048464 0.958897 0.263651
0.048639 0.958812 0.263108
0.049068 0.958668 0.262183
0.050073 0.958454 0.260826
0.052288 0.958167 0.259050
0.056992 0.957797 0.256821
0.066744 0.957319 0.254063
0.087914 0.956670 0.250560
0.137758 0.955776 0.246244
0.285566 0.954536 0.241358
0.520044 0.952868 0.236954
0.681413 0.950724 0.235318
0.793268 0.948086 0.240466
0.869975 0.944997 0.259377
0.921059 0.941601 0.300448
0.965550 0.935145 0.388904
0.994887 0.927630 0.530663
1.000003 0.922637 0.630228
1.000003 0.919564 0.708756
1.000003 0.918677 0.767079
1.000003 0.919771 0.811402
1.000003 0.922368 0.844033
1.000003 0.925968 0.868933
1.000003 0.929987 0.887697
1.000003 0.933941 0.901747
1.000003 0.937738 0.912801
1.000003 0.941394 0.921931
1.000003 0.945256 0.930399
0.075991 0.972794 0.389238
0.075995 0.972788 0.389173
0.076001 0.972778 0.389086
0.076010 0.972766 0.388968
0.076024 0.972750 0.388820
0.076065 0.972714 0.388484
0.076177 0.972649 0.387877
0.076497 0.972538 0.386848
0.077338 0.972374 0.385352
0.079312 0.972161 0.383435
0.083603 0.971893 0.381113
0.092418 0.971561 0.378354
0.110803 0.971124 0.374961
0.150822 0.970535 0.370773
0.252089 0.969719 0.365725
0.463184 0.968605 0.360362
0.630846 0.967138 0.356245
0.753043 0.965284 0.356341
0.839889 0.963059 0.365110
0.899194 0.960557 0.386788
0.940070 0.957783 0.423849
0.975135 0.952726 0.491637
0.999813 0.946524 0.606709
1.000003 0.942504 0.685996
1.000003 0.939957 0.747178
1.000003 0.938825 0.794748
1.000003 0.938998 0.830234
1.000003 0.940190 0.857497
1.000003 0.942048 0.878099
1.000003 0.944202 0.893530
1.000003 0.946493 0.905658
1.000003 0.948865 0.915657
1.000003 0.951523 0.924912
0.116056 0.983086 0.495547
0.116050 0.983080 0.495492
0.116043 0.983073 0.495418
0.116035 0.983063 0.495319
0.116027 0.983050 0.495193
0.116018 0.983022 0.494911
0.116041 0.982971 0.494401
0.116214 0.982884 0.493537
0.116845 0.982758 0.492299
0.118560 0.982595 0.490740
0.122518 0.982396 0.488908
0.130790 0.982157 0.486822
0.147835 0.981854 0.484376
0.183431 0.981457 0.481461
0.265677 0.980913 0.477948
0.437290 0.980167 0.473917
0.593556 0.979165 0.469948
0.717209 0.977867 0.467438
0.810242 0.976271 0.468844
0.876318 0.974435 0.477100
0.923141 0.972358 0.495136
0.953906 0.969344 0.518027
0.981219 0.966403 0.570624
1.000003 0.961152 0.666872
1.000003 0.957983 0.728515
1.000003 0.955795 0.777931
1.000003 0.954606 0.815607
1.000003 0.954257 0.844952
1.000003 0.954580 0.867315
1.000003 0.955343 0.884143
1.000003 0.956383 0.897402
1.000003 0.957625 0.908343
1.000003 0.959161 0.918470
0.172107 0.990571 0.577168
0.172087 0.990566 0.577121
0.172061 0.990560 0.577058
0.172027 0.990552 0.576973
0.171986 0.990542 0.576863
0.171905 0.990520 0.576620
0.171800 0.990479 0.576180
0.171765 0.990409 0.575440
0.172126 0.990309 0.574383
0.173551 0.990182 0.573066
0.177261 0.990030 0.571547
0.185354 0.989851 0.569869
0.202161 0.989633 0.567970
0.236634 0.989354 0.565789
0.312248 0.988980 0.563210
0.445788 0.988468 0.560195
0.576599 0.987775 0.556931
0.691628 0.986858 0.554036
0.784959 0.985702 0.552821
0.854875 0.984344 0.555165
0.906315 0.982777 0.563270
0.942136 0.981082 0.578608
0.965243 0.978666 0.595294
0.986191 0.976536 0.634349
1.000003 0.972266 0.711583
1.000003 0.969609 0.762880
1.000003 0.967803 0.801686
1.000003 0.966644 0.832494
1.000003 0.966066 0.856275
1.000003 0.965934 0.874323
1.000003 0.966112 0.888623
1.000003 0.966523 0.900466
1.000003 0.967188 0.911454
0.252701 0.996135 0.641708
0.252659 0.996132 0.641667
0.252600 0.996127 0.641611
0.252525 0.996121 0.641536
0.252431 0.996112 0.641442
0.252234 0.996094 0.641230
0.251924 0.996061 0.640846
0.251566 0.996005 0.640202
0.251517 0.995924 0.639285
0.252555 0.995823 0.638151
0.256048 0.995703 0.636859
0.264296 0.995566 0.635457
0.281858 0.995403 0.633915
0.317752 0.995201 0.632198
0.387326 0.994936 0.630222
0.478880 0.994578 0.627922
0.579444 0.994090 0.625331
0.678475 0.993436 0.622705
0.766205 0.992595 0.620727
0.836371 0.991583 0.620553
0.890504 0.990395 0.623655
0.929524 0.989088 0.631418
0.956288 0.987742 0.644158
0.974790 0.986381 0.661605
0.989263 0.984373 0.684020
1.000003 0.980895 0.745334
1.000003 0.978626 0.789167
1.000003 0.977094 0.820717
1.000003 0.976046 0.845472
1.000003 0.975403 0.864473
1.000003 0.975050 0.879646
1.000003 0.974918 0.892286
1.000003 0.974980 0.904068
0.365717 1.000003 0.691457
0.365642 1.000003 0.691421
0.365539 1.000003 0.691372
0.365405 1.000003 0.691306
0.365234 1.000003 0.691222
0.364871 1.000003 0.691034
0.364261 1.000003 0.690695
0.363419 1.000003 0.690125
0.362743 0.999991 0.689316
0.363134 0.999908 0.688320
0.366123 0.999812 0.687195
0.373962 0.999703 0.685989
0.389948 0.999576 0.684686
0.417880 0.999423 0.683273
0.461519 0.999227 0.681686
0.522113 0.998967 0.679865
0.596406 0.998613 0.677792
0.677345 0.998135 0.675559
0.755575 0.997509 0.673521
0.822662 0.996743 0.672392
0.877244 0.995826 0.673136
0.918171 0.994800 0.676855
0.947060 0.993731 0.684102
0.967469 0.992636 0.695034
0.981345 0.991585 0.708642
0.992256 0.990081 0.724654
1.000003 0.987415 0.770175
1.000003 0.985346 0.810315
1.000003 0.984076 0.835754
1.000003 0.983179 0.855378
1.000003 0.982542 0.871194
1.000003 0.982099 0.884459
1.000003 0.981796 0.896894
0.473137 1.000003 0.731319
0.473071 1.000003 0.731286
0.472983 1.000003 0.731242
0.472865 1.000003 0.731183
0.472717 1.000003 0.731108
0.472395 1.000003 0.730939
0.471840 1.000003 0.730637
0.471012 1.000003 0.730128
0.470135 1.000003 0.729407
0.469760 1.000003 0.728522
0.470815 1.000003 0.727525
0.474650 1.000003 0.726468
0.483354 1.000003 0.725342
0.499623 1.000003 0.724143
0.526748 1.000003 0.722825
0.567268 1.000003 0.721340
0.621168 1.000003 0.719654
0.685092 1.000003 0.717784
0.752076 1.000003 0.715915
0.813684 1.000003 0.714485
0.866726 0.999863 0.714116
0.908270 0.999050 0.715640
0.938553 0.998191 0.719618
0.960464 0.997302 0.726356
0.975640 0.996440 0.735373
0.986481 0.995601 0.746344
0.994324 0.994526 0.757112
1.000003 0.992528 0.789631
1.000003 0.990686 0.825040
1.000003 0.989580 0.847012
1.000003 0.988795 0.863268
1.000003 0.988183 0.877009
1.000003 0.987668 0.889969
0.548172 1.000003 0.762409
0.548115 1.000003 0.762379
0.548038 1.000003 0.762339
0.547933 1.000003 0.762286
0.547802 1.000003 0.762218
0.547514 1.000003 0.762066
0.547010 1.000003 0.761791
0.546233 1.000003 0.761331
0.545318 1.000003 0.760680
0.544647 1.000003 0.759881
0.544840 1.000003 0.758986
0.546800 1.000003 0.758040
