luts/RED_709_C3R4.cube
# RED Digital Cinema Output Transform LUT for IPP2
# LUT Name = RWG_Log3G10 to REC709_BT1886 with LOW_CONTRAST and R_4_VerySoft size_33 v1.13
# Generated by version 1.13
# Settings used in creation of this LUT are:
# Development Color Space = REC709
# Output Gamma Curve = BT1886
# Output Tonemap = LOW_CONTRAST
# Highlight Rolloff = Rolloff 4 - very soft
# Resolution = 33 x 33 x 33
TITLE "RED IPP2 LUT to map REDWideGamutRGB/Log3G10 to REC709/BT1886/LOW_CONTRAST/Rolloff 4 - very soft"
LUT_3D_SIZE 5
0.000000 0.000000 0.000000
0.361991 0.018292 0.026890
0.852087 0.114959 0.162371
1.000001 0.574724 0.630220
1.000001 0.882915 0.899149
0.003505 0.345287 0.003990
0.291175 0.321435 0.003721
0.857620 0.217972 0.146272
1.000001 0.606073 0.650022
1.000001 0.894847 0.909571
0.005933 0.787199 0.044768
0.010023 0.783974 0.043488
0.719219 0.755698 0.039816
1.000001 0.721226 0.621667
1.000001 0.903849 0.913329
0.123569 0.973151 0.478375
0.125362 0.972427 0.474561
0.386468 0.968960 0.461251
0.931751 0.953459 0.501633
1.000001 0.936840 0.879623
0.693652 1.000001 0.808712
0.691020 1.000001 0.806916
0.699074 1.000001 0.802688
0.845202 1.000001 0.796838
1.000001 1.000001 0.817924
0.014864 0.004624 0.320820
0.356104 0.004418 0.317879
0.850657 0.100794 0.290933
1.000001 0.572467 0.635918
1.000001 0.882809 0.899268
0.003505 0.294220 0.284243
0.279654 0.279662 0.279684
0.855289 0.191072 0.266605
1.000001 0.602924 0.653945
1.000001 0.894212 0.909185
0.005649 0.782922 0.071250
0.009413 0.782447 0.069246
0.719150 0.753556 0.070364
1.000001 0.720276 0.625266
1.000001 0.903360 0.912989
0.120849 0.972374 0.479874
0.126204 0.972646 0.481325
0.387045 0.969158 0.469567
0.932088 0.953653 0.508890
1.000001 0.936881 0.879200
0.690532 1.000001 0.807064
0.692425 1.000001 0.807947
0.700301 1.000001 0.803764
0.845642 1.000001 0.797970
1.000001 1.000001 0.818932
0.048474 0.009486 0.761782
0.267289 0.008092 0.763754
0.803015 0.013209 0.752504
1.000001 0.481614 0.723192
1.000001 0.864025 0.889153
0.019007 0.045582 0.767327
0.140145 0.037673 0.765835
0.803438 0.034949 0.757085
1.000001 0.520296 0.732868
1.000001 0.876022 0.898666
0.003663 0.733285 0.720043
0.004141 0.732135 0.719714
0.706697 0.706709 0.706746
1.000001 0.685213 0.716499
1.000001 0.884614 0.900464
0.106354 0.967471 0.613339
0.111760 0.967770 0.613013
0.374203 0.966537 0.608377
0.931687 0.950422 0.635101
1.000001 0.932710 0.863583
0.682966 1.000001 0.810571
0.684912 1.000001 0.811260
0.702211 1.000001 0.812432
0.846193 1.000001 0.808352
1.000001 1.000001 0.827852
0.025321 0.004955 0.985105
0.053223 0.004729 0.986636
0.830459 0.004104 0.983947
0.991449 0.045272 0.958802
1.000001 0.797334 0.924556
0.014048 0.006219 0.990675
0.033381 0.005825 0.990553
0.826556 0.004624 0.987504
0.995058 0.056545 0.963820
1.000001 0.812832 0.930232
0.003505 0.583840 0.974183
0.003721 0.573345 0.974065
0.626771 0.477765 0.968524
0.985554 0.464059 0.960191
1.000001 0.824063 0.937487
0.038169 0.941555 0.933321
0.040962 0.941819 0.933642
0.220465 0.939622 0.932657
0.924744 0.924754 0.924785
1.000001 0.912843 0.922190
0.662690 1.000001 0.892745
0.664881 1.000001 0.892803
0.685637 1.000001 0.892652
0.841828 1.000001 0.889928
1.000001 1.000001 0.900196
0.003663 0.003505 1.000001
0.003721 0.003505 1.000001
0.874210 0.003505 1.000001
1.000001 0.003505 1.000001
1.000001 0.153056 1.000001
0.003505 0.003505 1.000001
0.003505 0.003505 1.000001
0.848791 0.003505 1.000001
1.000001 0.003505 1.000001
1.000001 0.173706 1.000001
0.003505 0.017762 1.000001
0.003505 0.014263 1.000001
0.022372 0.004544 1.000001
1.000001 0.020218 1.000001
1.000001 0.395869 1.000001
0.003505 0.923631 1.000001
0.003505 0.922728 1.000001
0.020578 0.895676 1.000001
0.899412 0.865684 1.000001
1.000001 0.862352 1.000001
0.560431 1.000001 1.000001
0.563540 1.000001 1.000001
0.598793 1.000001 1.000001
0.824019 1.000001 1.000001
0.999994 1.000001 1.000001
