luts/RED_709_C1R4.cube
# RED Digital Cinema Output Transform LUT for IPP2
# LUT Name = RWG_Log3G10 to REC709_BT1886 with HIGH_CONTRAST and R_4_VerySoft size_33 v1.13
# Generated by version 1.13
# Settings used in creation of this LUT are:
# Development Color Space = REC709
# Output Gamma Curve = BT1886
# Output Tonemap = HIGH_CONTRAST
# Highlight Rolloff = Rolloff 4 - very soft
# Resolution = 33 x 33 x 33
TITLE "RED IPP2 LUT to map REDWideGamutRGB/Log3G10 to REC709/BT1886/HIGH_CONTRAST/Rolloff 4 - very soft"
LUT_3D_SIZE 33
0.000000 0.000000 0.000000
0.000003 0.000000 0.000000
0.001077 0.000000 0.000000
0.054028 0.003505 0.003505
0.077286 0.003505 0.003505
0.111152 0.003663 0.003721
0.155022 0.004668 0.005558
0.214894 0.008028 0.011893
0.293598 0.014927 0.021996
0.381851 0.023124 0.033517
0.470475 0.032220 0.046232
0.561282 0.043099 0.061392
0.652629 0.056896 0.080590
0.733286 0.073506 0.103743
0.804199 0.094810 0.133660
0.864233 0.122995 0.173873
0.913108 0.161446 0.230175
0.951648 0.216280 0.311485
0.980827 0.297629 0.399203
1.000001 0.396534 0.480542
1.000001 0.486931 0.555733
1.000001 0.564968 0.621877
1.000001 0.629730 0.677436
1.000001 0.683878 0.724286
1.000001 0.727390 0.762170
1.000001 0.763368 0.793645
1.000001 0.792117 0.818889
1.000001 0.815760 0.839711
1.000001 0.834802 0.856520
1.000001 0.849889 0.869864
1.000001 0.862342 0.880894
1.000001 0.873064 0.890403
1.000001 0.883408 0.899586
0.000000 0.000002 0.000000
0.000001 0.000001 0.000000
0.000090 0.000001 0.000000
0.049387 0.003505 0.003505
0.074552 0.003505 0.003505
0.109487 0.003825 0.003663
0.153923 0.005371 0.005196
0.214130 0.009470 0.011122
0.293058 0.016475 0.021274
0.381526 0.024483 0.032894
0.470301 0.033391 0.045711
0.561260 0.044093 0.060978
0.652681 0.057730 0.080272
0.733388 0.074219 0.103512
0.804327 0.095433 0.133515
0.864366 0.123562 0.173819
0.913233 0.162000 0.230232
0.951756 0.216876 0.311677
0.980915 0.298322 0.399463
1.000001 0.397121 0.480829
1.000001 0.487402 0.556023
1.000001 0.565367 0.622158
1.000001 0.630078 0.677702
1.000001 0.684186 0.724533
1.000001 0.727668 0.762400
1.000001 0.763622 0.793858
1.000001 0.792350 0.819087
1.000001 0.815975 0.839896
1.000001 0.835002 0.856694
1.000001 0.850078 0.870029
1.000001 0.862522 0.881051
1.000001 0.873235 0.890553
1.000001 0.883570 0.899729
0.000000 0.000132 0.000000
0.000000 0.000077 0.000000
0.000013 0.000040 0.000000
0.041668 0.003505 0.003505
0.070488 0.003663 0.003505
0.107104 0.004803 0.003505
0.152371 0.007296 0.004791
0.213056 0.012266 0.010109
0.292298 0.018873 0.020300
0.381066 0.026490 0.032046
0.470056 0.035063 0.045004
0.561224 0.045490 0.060416
0.652746 0.058892 0.079837
0.733523 0.075206 0.103196
0.804497 0.096293 0.133314
0.864544 0.124343 0.173742
0.913400 0.162759 0.230305
0.951901 0.217692 0.311934
0.981033 0.299268 0.399812
1.000001 0.397916 0.481215
1.000001 0.488039 0.556416
1.000001 0.565905 0.622538
1.000001 0.630547 0.678061
1.000001 0.684603 0.724868
1.000001 0.728043 0.762710
1.000001 0.763963 0.794146
1.000001 0.792663 0.819355
1.000001 0.816265 0.840146
1.000001 0.835273 0.856929
1.000001 0.850334 0.870251
1.000001 0.862764 0.881263
1.000001 0.873466 0.890755
1.000001 0.883790 0.899922
0.003505 0.047383 0.003505
0.003505 0.045679 0.003505
0.003505 0.043173 0.003505
0.025284 0.039373 0.003505
0.064235 0.032395 0.003505
0.103667 0.016358 0.003505
0.150177 0.014554 0.004368
0.211547 0.017478 0.008879
0.291227 0.022724 0.019008
0.380423 0.029484 0.030913
0.469713 0.037464 0.044057
0.561163 0.047454 0.059659
0.652824 0.060506 0.079250
0.733696 0.076568 0.102766
0.804720 0.097472 0.133038
0.864779 0.125411 0.173632
0.913621 0.163794 0.230396
0.952093 0.218799 0.312271
0.981190 0.300545 0.400274
1.000001 0.398982 0.481728
1.000001 0.488891 0.556937
1.000001 0.566623 0.623043
1.000001 0.631174 0.678538
1.000001 0.685159 0.725312
1.000001 0.728544 0.763123
1.000001 0.764417 0.794528
1.000001 0.793081 0.819711
1.000001 0.816651 0.840478
1.000001 0.835633 0.857241
1.000001 0.850673 0.870547
1.000001 0.863085 0.881544
1.000001 0.873773 0.891024
1.000001 0.884081 0.900179
0.003505 0.071047 0.003505
0.003505 0.070075 0.003505
0.003505 0.068705 0.003505
0.003663 0.066765 0.003505
0.054375 0.064113 0.003505
0.098856 0.056300 0.003505
0.147190 0.038194 0.003990
0.209512 0.027718 0.007597
0.289789 0.028941 0.017400
0.379564 0.033879 0.029481
0.469249 0.040827 0.042848
0.561067 0.050129 0.058686
0.652907 0.062669 0.078490
0.733906 0.078375 0.102205
0.804995 0.099027 0.132675
0.865071 0.126811 0.173479
0.913898 0.165146 0.230499
0.952334 0.220239 0.312690
0.981388 0.302191 0.400855
1.000001 0.400344 0.482376
1.000001 0.489976 0.557596
1.000001 0.567536 0.623682
1.000001 0.631969 0.679141
1.000001 0.685864 0.725874
1.000001 0.729178 0.763644
1.000001 0.764993 0.795012
1.000001 0.793609 0.820161
1.000001 0.817140 0.840899
1.000001 0.836090 0.857637
1.000001 0.851103 0.870921
1.000001 0.863493 0.881900
1.000001 0.874161 0.891364
1.000001 0.884450 0.900503
0.003505 0.104089 0.003505
0.003505 0.103493 0.003505
0.003505 0.102665 0.003505
0.003505 0.101517 0.003505
0.005089 0.099991 0.003505
0.086071 0.096344 0.003505
0.139821 0.087796 0.003663
0.204598 0.072066 0.005659
0.286312 0.050639 0.014019
0.377474 0.046739 0.026332
0.468096 0.049830 0.040132
0.560768 0.056923 0.056472
0.653031 0.067991 0.076741
0.734327 0.082741 0.100897
0.805575 0.102740 0.131806
0.865701 0.130123 0.173083
0.914500 0.168317 0.230680
0.952862 0.223587 0.313581
0.981821 0.305967 0.402123
1.000001 0.403410 0.483801
1.000001 0.492407 0.559051
1.000001 0.569574 0.625093
1.000001 0.633738 0.680476
1.000001 0.687429 0.727119
1.000001 0.730586 0.764801
1.000001 0.766271 0.796084
1.000001 0.794781 0.821159
1.000001 0.818224 0.841831
1.000001 0.837101 0.858512
1.000001 0.852056 0.871750
1.000001 0.864396 0.882689
1.000001 0.875020 0.892118
1.000001 0.885268 0.901222
0.003505 0.146181 0.003505
0.003505 0.145774 0.003505
0.003505 0.145211 0.003505
0.003505 0.144436 0.003505
0.003505 0.143416 0.003505
0.017625 0.141024 0.003505
0.123467 0.136272 0.003505
0.194318 0.125833 0.004037
0.279037 0.110547 0.008835
0.373068 0.087597 0.020886
0.465582 0.073441 0.035207
0.559918 0.072866 0.052347
0.653019 0.079697 0.073401
0.734912 0.091985 0.098335
0.806497 0.110410 0.130034
0.866749 0.136841 0.172168
0.915524 0.174643 0.230812
0.953771 0.230159 0.315023
0.982573 0.313165 0.404302
1.000001 0.409044 0.486290
1.000001 0.496826 0.561612
1.000001 0.573249 0.627589
1.000001 0.636911 0.682840
1.000001 0.690227 0.729325
1.000001 0.733096 0.766850
1.000001 0.768546 0.797984
1.000001 0.796867 0.822928
1.000001 0.820152 0.843483
1.000001 0.838898 0.860065
1.000001 0.853748 0.873220
1.000001 0.866001 0.884089
1.000001 0.876548 0.893454
1.000001 0.886719 0.902496
0.003505 0.203178 0.003663
0.003505 0.202875 0.003663
0.003505 0.202457 0.003505
0.003505 0.201882 0.003505
0.003505 0.201132 0.003505
0.003917 0.199384 0.003505
0.044168 0.195962 0.003505
0.172039 0.189400 0.003505
0.263683 0.176786 0.004763
0.363627 0.161264 0.012787
0.459988 0.141910 0.027079
0.557496 0.117094 0.045141
0.652235 0.108140 0.067302
0.735326 0.112802 0.093447
0.807629 0.126870 0.126430
0.868212 0.150766 0.169990
0.917036 0.187370 0.230388
0.955154 0.242993 0.316875
0.983737 0.326499 0.407574
1.000001 0.418802 0.490185
1.000001 0.504328 0.565685
1.000001 0.579389 0.631587
1.000001 0.642160 0.686643
1.000001 0.694823 0.732881
1.000001 0.737201 0.770158
1.000001 0.772255 0.801055
1.000001 0.800261 0.825787
1.000001 0.823283 0.846155
1.000001 0.841816 0.862575
1.000001 0.856493 0.875597
1.000001 0.868602 0.886351
1.000001 0.879024 0.895616
1.000001 0.889071 0.904556
0.003505 0.278051 0.003825
0.003505 0.277802 0.003825
0.003505 0.277459 0.003825
0.003505 0.276993 0.003825
0.003505 0.276386 0.003825
0.003663 0.274976 0.003793
0.004965 0.272228 0.003761
0.093675 0.267008 0.003721
0.232932 0.256491 0.003761
0.344811 0.242781 0.005684
0.448533 0.225834 0.016486
0.551504 0.205506 0.034612
0.649168 0.181936 0.057696
0.734454 0.162063 0.085234
0.808161 0.162323 0.119842
0.869519 0.178934 0.165300
0.918645 0.211861 0.228088
0.956749 0.266556 0.317962
0.985139 0.347807 0.411180
1.000001 0.433462 0.494949
1.000001 0.515229 0.570869
1.000001 0.588063 0.636771
1.000001 0.649426 0.691618
1.000001 0.701103 0.737560
1.000001 0.742764 0.774523
1.000001 0.777254 0.805113
1.000001 0.804817 0.829571
1.000001 0.827478 0.849692
1.000001 0.845718 0.865903
1.000001 0.860161 0.878749
1.000001 0.872074 0.889352
1.000001 0.882324 0.898482
1.000001 0.892206 0.907290
0.003505 0.364771 0.004260
0.003505 0.364593 0.004260
0.003505 0.364349 0.004260
0.003505 0.364019 0.004260
0.003505 0.363588 0.004250
0.003663 0.362586 0.004240
0.003897 0.360630 0.004220
0.009848 0.356888 0.004165
0.150424 0.350453 0.004064
0.308512 0.338509 0.004118
0.427211 0.323595 0.007001
0.538909 0.304290 0.022071
0.641413 0.282088 0.044804
0.730392 0.259523 0.073217
0.806604 0.241970 0.109234
0.869531 0.238453 0.156542
0.919505 0.259560 0.221817
0.957947 0.308238 0.315914
0.986352 0.377371 0.413341
1.000001 0.453224 0.499153
1.000001 0.529238 0.575968
1.000001 0.598713 0.642111
1.000001 0.658043 0.696864
1.000001 0.708369 0.742556
1.000001 0.749098 0.779221
1.000001 0.782886 0.809503
1.000001 0.809917 0.833677
1.000001 0.832151 0.853542
1.000001 0.850051 0.869529
1.000001 0.864226 0.882188
1.000001 0.875916 0.892630
1.000001 0.885974 0.901616
1.000001 0.895669 0.910280
0.003505 0.452601 0.005188
0.003505 0.452474 0.005188
0.003505 0.452301 0.005183
0.003505 0.452066 0.005183
0.003505 0.451760 0.005175
0.003663 0.451048 0.005161
0.003761 0.449660 0.005130
0.004835 0.447002 0.005057
0.027151 0.442418 0.004925
0.217194 0.435239 0.004717
0.390176 0.424803 0.004487
0.515185 0.407158 0.010234
0.625658 0.387667 0.030015
0.720524 0.366946 0.057774
0.800902 0.347392 0.094136
0.866664 0.335131 0.142357
0.918436 0.339124 0.209173
0.957904 0.366401 0.307121
0.986792 0.416024 0.411410
1.000001 0.478547 0.500721
1.000001 0.546215 0.579296
1.000001 0.610790 0.646196
1.000001 0.667262 0.701166
1.000001 0.715802 0.746811
1.000001 0.755382 0.783310
1.000001 0.788357 0.813380
1.000001 0.814804 0.837339
1.000001 0.836589 0.856998
1.000001 0.854141 0.872801
1.000001 0.868046 0.885303
1.000001 0.879518 0.895607
1.000001 0.889389 0.904470
1.000001 0.898903 0.913009
0.003721 0.517564 0.008487
0.003663 0.536154 0.007146
0.003663 0.536030 0.007141
0.003663 0.535862 0.007136
0.003663 0.535644 0.007129
0.003721 0.535137 0.007109
0.003825 0.534148 0.007064
0.004326 0.532259 0.006965
0.008448 0.528994 0.006765
0.067000 0.523841 0.006442
0.299100 0.516253 0.006044
0.468746 0.505936 0.005684
0.595647 0.488088 0.015646
0.701506 0.468980 0.040575
0.788456 0.449605 0.075375
0.858902 0.433058 0.122591
0.913916 0.425523 0.188632
0.955519 0.434416 0.287111
0.985700 0.463858 0.401767
1.000001 0.509978 0.496854
1.000001 0.566281 0.578634
1.000001 0.623923 0.647216
1.000001 0.676407 0.703008
1.000001 0.722580 0.749026
1.000001 0.760748 0.785657
1.000001 0.792806 0.815738
1.000001 0.818646 0.839651
1.000001 0.839998 0.859237
1.000001 0.857236 0.874960
1.000001 0.870909 0.887386
1.000001 0.882198 0.897620
1.000001 0.891917 0.906415
1.000001 0.901290 0.914885
0.003793 0.614086 0.011699
0.003793 0.614020 0.011696
0.003825 0.613931 0.011690
0.003825 0.613809 0.011682
0.003825 0.613652 0.011671
0.003897 0.613288 0.011642
0.003990 0.612583 0.011579
0.004360 0.611242 0.011433
0.006001 0.608933 0.011132
0.020782 0.605274 0.010604
0.150672 0.599819 0.009850
0.383018 0.592262 0.009068
0.543821 0.582262 0.008582
0.667580 0.564906 0.023580
0.767706 0.546412 0.055426
0.845376 0.528635 0.099669
0.905224 0.514905 0.162096
0.950171 0.510807 0.255990
0.982595 0.522149 0.381627
1.000001 0.550213 0.485587
1.000001 0.591964 0.572591
1.000001 0.639873 0.644179
1.000001 0.686539 0.701653
1.000001 0.729280 0.748634
1.000001 0.765477 0.785801
1.000001 0.796337 0.816194
1.000001 0.821448 0.840281
1.000001 0.842323 0.859967
1.000001 0.859244 0.875744
1.000001 0.872702 0.888197
1.000001 0.883833 0.898444
1.000001 0.893430 0.907243
1.000001 0.902693 0.915711
0.004130 0.683681 0.019534
0.004130 0.683633 0.019529
0.004141 0.683566 0.019522
0.004165 0.683477 0.019513
0.004176 0.683361 0.019500
0.004240 0.683095 0.019468
0.004360 0.682582 0.019399
0.004699 0.681621 0.019244
0.005808 0.679985 0.018925
0.011890 0.677404 0.018352
0.047381 0.673527 0.017476
0.253812 0.668063 0.016407
0.466017 0.660666 0.015464
0.612786 0.651301 0.015300
0.731505 0.634667 0.035697
0.823968 0.617145 0.076551
0.891386 0.601211 0.133516
0.941344 0.589922 0.219243
0.977166 0.588230 0.349573
1.000001 0.599957 0.466033
1.000001 0.625736 0.560623
1.000001 0.661295 0.636824
1.000001 0.699853 0.697039
1.000001 0.737559 0.745695
1.000001 0.770814 0.783873
1.000001 0.799897 0.814912
1.000001 0.823953 0.839411
1.000001 0.844167 0.859374
1.000001 0.860672 0.875338
1.000001 0.873864 0.887919
1.000001 0.884814 0.898258
1.000001 0.894278 0.907128
1.000001 0.903432 0.915657
0.004846 0.744870 0.031531
0.004852 0.744833 0.031524
0.004868 0.744784 0.031515
0.004889 0.744716 0.031503
0.004915 0.744628 0.031487
0.004980 0.744428 0.031447
0.005121 0.744048 0.031365
0.005487 0.743346 0.031193
0.006493 0.742176 0.030853
0.010312 0.740360 0.030245
0.026204 0.737637 0.029279
0.098712 0.733752 0.027991
0.358924 0.728377 0.026622
0.543009 0.721396 0.025794
0.675113 0.712756 0.026615
0.786257 0.697177 0.053573
0.870154 0.680892 0.106262
0.927829 0.666771 0.182028
0.968629 0.657578 0.303854
0.996245 0.657207 0.436603
1.000001 0.668293 0.541377
1.000001 0.690217 0.624131
1.000001 0.718511 0.688460
1.000001 0.749216 0.739744
1.000001 0.778127 0.779564
1.000001 0.804493 0.811689
1.000001 0.826911 0.836901
1.000001 0.846096 0.857361
1.000001 0.861960 0.873674
1.000001 0.874750 0.886500
1.000001 0.885431 0.897024
1.000001 0.894705 0.906041
1.000001 0.903709 0.914701
0.006414 0.797544 0.049483
0.006428 0.797516 0.049474
0.006445 0.797476 0.049461
0.006473 0.797424 0.049444
0.006507 0.797356 0.049422
0.006593 0.797202 0.049369
0.006778 0.796913 0.049265
0.007227 0.796388 0.049058
0.008363 0.795535 0.048680
0.011719 0.794246 0.048032
0.021420 0.792343 0.046998
0.053600 0.789619 0.045542
0.202676 0.785785 0.043791
0.453784 0.780680 0.042269
0.613714 0.774186 0.041986
0.730301 0.766362 0.044782
0.831995 0.752085 0.079660
0.907643 0.737067 0.149326
0.956028 0.724753 0.254222
0.988337 0.717336 0.397738
1.000001 0.717512 0.514440
1.000001 0.726960 0.605440
1.000001 0.744106 0.675313
1.000001 0.766138 0.730330
1.000001 0.789131 0.772572
1.000001 0.811541 0.806337
1.000001 0.831459 0.832644
1.000001 0.849023 0.853876
1.000001 0.863850 0.870733
1.000001 0.875979 0.883946
1.000001 0.886212 0.894762
1.000001 0.895167 0.904011
1.000001 0.903917 0.912881
0.010215 0.842066 0.075905
0.010234 0.842043 0.075892
0.010262 0.842012 0.075873
0.010299 0.841970 0.075848
0.010348 0.841917 0.075815
0.010472 0.841796 0.075740
0.010736 0.841569 0.075597
0.011330 0.841167 0.075330
0.012652 0.840530 0.074878
0.015632 0.839598 0.074155
0.022818 0.838260 0.073044
0.042068 0.836364 0.071455
0.105497 0.833670 0.069391
0.340482 0.830005 0.067228
0.539720 0.825217 0.065836
0.677160 0.819285 0.066854
0.778315 0.812315 0.073174
0.870202 0.799367 0.118490
0.937449 0.785714 0.213818
0.976883 0.775252 0.353098
1.000001 0.769029 0.481068
1.000001 0.769267 0.580848
1.000001 0.776421 0.657270
1.000001 0.789332 0.717045
1.000001 0.805270 0.762544
1.000001 0.822499 0.798590
1.000001 0.838898 0.826453
1.000001 0.854055 0.848791
1.000001 0.867280 0.866433
1.000001 0.878350 0.880206
1.000001 0.887847 0.891443
1.000001 0.896263 0.901029
1.000001 0.904574 0.910201
0.017804 0.879372 0.114968
0.017822 0.879354 0.114946
0.017847 0.879329 0.114918
0.017882 0.879295 0.114879
0.017928 0.879252 0.114830
0.018043 0.879154 0.114718
0.018290 0.878975 0.114509
0.018850 0.878659 0.114136
0.020082 0.878172 0.113544
0.022756 0.877483 0.112670
0.028700 0.876529 0.111411
0.042584 0.875207 0.109653
0.079766 0.873337 0.107300
0.205240 0.870754 0.104556
0.454124 0.867293 0.102097
0.615701 0.862886 0.101383
0.732594 0.857562 0.104963
0.819763 0.851401 0.117449
0.901108 0.839893 0.177147
0.959885 0.827771 0.310849
0.992715 0.818680 0.444884
1.000001 0.813472 0.551713
1.000001 0.813328 0.634585
1.000001 0.818282 0.699672
1.000001 0.827086 0.749118
1.000001 0.838417 0.788086
1.000001 0.850428 0.818011
1.000001 0.862359 0.841852
1.000001 0.873310 0.860573
1.000001 0.882811 0.875118
1.000001 0.891177 0.886941
1.000001 0.898741 0.896993
1.000001 0.906335 0.906583
0.029948 0.910154 0.173786
0.029964 0.910139 0.173753
0.029984 0.910119 0.173706
0.030014 0.910091 0.173645
0.030054 0.910056 0.173566
0.030153 0.909977 0.173389
0.030372 0.909832 0.173063
0.030879 0.909580 0.172497
0.032010 0.909199 0.171642
0.034447 0.908678 0.170464
0.039660 0.907981 0.168887
0.050897 0.907049 0.166803
0.077257 0.905752 0.164045
0.148108 0.903953 0.160664
0.363631 0.901496 0.157114
0.549476 0.898280 0.154662
0.681894 0.894287 0.155679
0.780974 0.889541 0.164256
0.855031 0.884171 0.187976
0.924258 0.874367 0.267318
0.977480 0.863322 0.412888
1.000001 0.855620 0.521636
1.000001 0.851208 0.608959
1.000001 0.850525 0.678848
1.000001 0.853396 0.732403
1.000001 0.859117 0.774693
1.000001 0.866467 0.807109
1.000001 0.874657 0.832834
1.000001 0.882781 0.852943
1.000001 0.890220 0.868500
1.000001 0.897034 0.881094
1.000001 0.903383 0.891765
1.000001 0.909920 0.901913
0.048312 0.934846 0.264321
0.048322 0.934834 0.264264
0.048337 0.934817 0.264186
0.048359 0.934795 0.264082
0.048388 0.934765 0.263949
0.048464 0.934700 0.263651
0.048639 0.934581 0.263108
0.049068 0.934376 0.262183
0.050073 0.934072 0.260826
0.052288 0.933666 0.259050
0.056992 0.933143 0.256821
0.066744 0.932468 0.254063
0.087914 0.931554 0.250560
0.137758 0.930297 0.246244
0.285492 0.928563 0.241358
0.487269 0.926240 0.236954
0.630937 0.923276 0.235318
0.740193 0.919660 0.240466
0.823069 0.915464 0.259377
0.884225 0.910899 0.299886
0.944273 0.902353 0.377087
0.990754 0.892597 0.496384
1.000001 0.886222 0.583989
1.000001 0.882339 0.656699
1.000001 0.881223 0.713604
1.000001 0.882599 0.759053
1.000001 0.885881 0.794066
1.000001 0.890467 0.821880
1.000001 0.895635 0.843598
1.000001 0.900776 0.860358
1.000001 0.905766 0.873892
1.000001 0.910624 0.885327
1.000001 0.915814 0.896168
0.075991 0.955022 0.377363
0.075995 0.955012 0.377310
0.076001 0.954998 0.377238
0.076010 0.954979 0.377140
0.076024 0.954955 0.377017
0.076065 0.954901 0.376740
0.076177 0.954803 0.376237
0.076497 0.954635 0.375385
0.077338 0.954388 0.374148
0.079312 0.954067 0.372561
0.083603 0.953664 0.370641
0.092418 0.953165 0.368360
0.110803 0.952511 0.365556
0.150822 0.951630 0.362096
0.252089 0.950414 0.357925
0.439023 0.948761 0.353453
0.584547 0.946598 0.349986
0.699639 0.943885 0.350068
0.789534 0.940658 0.357414
0.857279 0.937065 0.375336
0.908858 0.933123 0.406104
0.958577 0.926044 0.463054
0.999649 0.917532 0.562899
1.000001 0.912108 0.635218
1.000001 0.908707 0.693857
1.000001 0.907204 0.741718
1.000001 0.907434 0.779078
1.000001 0.909017 0.808975
1.000001 0.911498 0.832401
1.000001 0.914392 0.850501
1.000001 0.917490 0.865111
1.000001 0.920725 0.877443
1.000001 0.924379 0.889117
0.116056 0.971007 0.466374
0.116050 0.970998 0.466327
0.116043 0.970986 0.466264
0.116035 0.970970 0.466180
0.116027 0.970950 0.466073
0.116018 0.970905 0.465834
0.116041 0.970823 0.465400
0.116214 0.970684 0.464667
0.116845 0.970482 0.463616
0.118560 0.970222 0.462294
0.122518 0.969905 0.460740
0.130790 0.969524 0.458973
0.147835 0.969042 0.456902
0.183431 0.968412 0.454436
0.265677 0.967552 0.451467
0.417318 0.966375 0.448065
0.551221 0.964805 0.444719
0.664772 0.962784 0.442603
0.757835 0.960318 0.443788
0.830343 0.957508 0.450751
0.886862 0.954363 0.466025
0.927683 0.949857 0.485541
0.968034 0.945520 0.531045
1.000001 0.937916 0.617440
1.000001 0.933406 0.675658
1.000001 0.930323 0.724535
1.000001 0.928659 0.763484
1.000001 0.928173 0.795074
1.000001 0.928624 0.820041
1.000001 0.929690 0.839429
1.000001 0.931150 0.855126
1.000001 0.932900 0.868395
1.000001 0.935076 0.880962
0.172107 0.983314 0.536780
0.172087 0.983306 0.536739
0.172061 0.983296 0.536683
0.172027 0.983283 0.536609
0.171986 0.983266 0.536513
0.171905 0.983228 0.536299
0.171800 0.983159 0.535913
0.171765 0.983041 0.535264
0.172126 0.982872 0.534337
0.173551 0.982657 0.533183
0.177261 0.982401 0.531853
0.185354 0.982100 0.530385
0.202161 0.981733 0.528724
0.236634 0.981266 0.526819
0.310981 0.980640 0.524569
0.424426 0.979788 0.521941
0.536281 0.978637 0.519101
0.640500 0.977125 0.516585
0.731679 0.975233 0.515530
0.806048 0.973029 0.517566
0.865912 0.970513 0.524621
0.911616 0.967819 0.538044
0.943825 0.964026 0.552760
0.976032 0.960726 0.587713
1.000001 0.954225 0.659393
1.000001 0.950251 0.709407
1.000001 0.947577 0.748900
1.000001 0.945874 0.781513
1.000001 0.945027 0.807609
1.000001 0.944833 0.828048
1.000001 0.945094 0.844688
1.000001 0.945696 0.858811
1.000001 0.946672 0.872225
0.252701 0.992963 0.594387
0.252659 0.992957 0.594350
0.252600 0.992948 0.594299
0.252525 0.992937 0.594231
0.252431 0.992922 0.594145
0.252234 0.992890 0.593953
0.251924 0.992831 0.593604
0.251566 0.992731 0.593019
0.251517 0.992588 0.592186
0.252555 0.992408 0.591157
0.256048 0.992195 0.589986
0.264296 0.991952 0.588716
0.281835 0.991663 0.587321
0.316062 0.991307 0.585768
0.375781 0.990840 0.583983
0.452255 0.990211 0.581909
0.538779 0.989358 0.579574
0.628198 0.988220 0.577213
0.712730 0.986767 0.575436
0.785708 0.985034 0.575279
0.846910 0.983017 0.578066
0.895036 0.980821 0.585063
0.931016 0.978583 0.596615
0.958050 0.976343 0.612583
0.981112 0.973077 0.633371
1.000001 0.967522 0.692045
1.000001 0.963963 0.735981
1.000001 0.961587 0.768899
1.000001 0.959973 0.795645
1.000001 0.958986 0.816820
1.000001 0.958448 0.834193
1.000001 0.958246 0.849022
1.000001 0.958340 0.863174
0.357918 1.000001 0.640340
0.357856 1.000001 0.640306
0.357770 1.000001 0.640260
0.357659 1.000001 0.640197
0.357517 1.000001 0.640118
0.357217 1.000001 0.639942
0.356709 1.000001 0.639623
0.356008 1.000001 0.639088
0.355445 0.999980 0.638330
0.355771 0.999825 0.637396
0.358255 0.999645 0.636341
0.364730 0.999443 0.635212
0.377951 0.999208 0.633993
0.401134 0.998926 0.632673
0.437624 0.998565 0.631191
0.489042 0.998084 0.629493
0.553745 0.997436 0.627563
0.627147 0.996563 0.625486
0.702144 0.995429 0.623595
0.770969 0.994050 0.622547
0.831413 0.992413 0.623237
0.880588 0.990602 0.626691
0.918262 0.988733 0.633447
0.947086 0.986839 0.643704
0.968235 0.985037 0.656591
0.986185 0.982487 0.671930
1.000001 0.978043 0.716711
1.000001 0.974653 0.757912
1.000001 0.972597 0.785040
1.000001 0.971155 0.806609
1.000001 0.970137 0.824460
1.000001 0.969432 0.839799
1.000001 0.968950 0.854518
0.447407 1.000001 0.678373
0.447351 1.000001 0.678341
0.447277 1.000001 0.678299
0.447178 1.000001 0.678241
0.447053 1.000001 0.678169
0.446781 1.000001 0.678005
0.446313 1.000001 0.677712
0.445615 1.000001 0.677219
0.444876 1.000001 0.676521
0.444560 1.000001 0.675664
0.445449 1.000001 0.674701
0.448683 1.000001 0.673680
0.456038 1.000001 0.672593
0.469838 1.000001 0.671436
0.493019 1.000001 0.670167
0.528111 1.000001 0.668738
0.575832 1.000001 0.667118
0.634373 1.000001 0.665324
0.698683 1.000001 0.663533
0.761455 1.000001 0.662165
0.819372 0.999741 0.661813
0.868305 0.998237 0.663270
0.906844 0.996664 0.667084
0.936933 0.995054 0.673572
0.959350 0.993508 0.682311
0.976507 0.992015 0.693036
0.989768 0.990120 0.703668
1.000001 0.986652 0.736456
1.000001 0.983510 0.773507
1.000001 0.981645 0.797339
1.000001 0.980333 0.815459
1.000001 0.979313 0.831141
1.000001 0.978460 0.846278
0.511498 1.000001 0.708937
0.511449 1.000001 0.708907
0.511382 1.000001 0.708868
0.511291 1.000001 0.708815
0.511178 1.000001 0.708747
0.510928 1.000001 0.708595
0.510492 1.000001 0.708321
0.509819 1.000001 0.707863
0.509027 1.000001 0.707214
0.508447 1.000001 0.706419
0.508613 1.000001 0.705529
0.510310 1.000001 0.704589
