luts/RED_709_C3R4.cube
# RED Digital Cinema Output Transform LUT for IPP2
# LUT Name = RWG_Log3G10 to REC709_BT1886 with LOW_CONTRAST and R_4_VerySoft size_33 v1.13
# Generated by version 1.13
# Settings used in creation of this LUT are:
# Development Color Space = REC709
# Output Gamma Curve = BT1886
# Output Tonemap = LOW_CONTRAST
# Highlight Rolloff = Rolloff 4 - very soft
# Resolution = 33 x 33 x 33
TITLE "RED IPP2 LUT to map REDWideGamutRGB/Log3G10 to REC709/BT1886/LOW_CONTRAST/Rolloff 4 - very soft"
LUT_3D_SIZE 9
0.000000 0.000000 0.000000
0.108301 0.003505 0.003505
0.361991 0.018292 0.026890
0.633391 0.051743 0.073531
0.852087 0.114959 0.162371
0.977910 0.285853 0.388647
1.000001 0.574724 0.630220
1.000001 0.765952 0.795911
1.000001 0.882915 0.899149
0.003505 0.100523 0.003505
0.079020 0.090783 0.003505
0.356723 0.043760 0.019690
0.633733 0.064217 0.069228
0.853781 0.122897 0.161349
0.979072 0.295094 0.391952
1.000001 0.579813 0.633855
1.000001 0.769215 0.798662
1.000001 0.885028 0.901007
0.003505 0.345287 0.003990
0.003505 0.342692 0.003972
0.291175 0.321435 0.003721
0.622662 0.263084 0.040599
0.857620 0.217972 0.146272
0.983566 0.361641 0.402805
1.000001 0.606073 0.650022
1.000001 0.784692 0.811274
1.000001 0.894847 0.909571
0.003721 0.597802 0.009984
0.003825 0.596857 0.009921
0.016793 0.589197 0.009071
0.527643 0.566070 0.007392
0.834470 0.511560 0.093123
0.980634 0.506019 0.374343
1.000001 0.643671 0.654782
1.000001 0.798481 0.819003
1.000001 0.902430 0.915588
0.005933 0.787199 0.044768
0.006113 0.786797 0.044646
0.010023 0.783974 0.043488
0.170908 0.775514 0.039546
0.719219 0.755698 0.039816
0.955032 0.712019 0.249370
1.000001 0.721226 0.621667
1.000001 0.812068 0.810688
1.000001 0.903849 0.913329
0.028363 0.907254 0.166173
0.028586 0.907050 0.165744
0.032199 0.905836 0.163170
0.068489 0.903003 0.157235
0.523080 0.895692 0.147848
0.851602 0.881014 0.178406
1.000001 0.850513 0.539437
1.000001 0.857531 0.779993
1.000001 0.909434 0.902445
0.123569 0.973151 0.478375
0.123487 0.973040 0.477775
0.125362 0.972427 0.474561
0.150109 0.971343 0.469479
0.386468 0.968960 0.461251
0.744516 0.963170 0.455397
0.931751 0.953459 0.501633
1.000001 0.933372 0.726537
1.000001 0.936840 0.879623
0.455184 1.000001 0.681945
0.454477 1.000001 0.681532
0.452152 1.000001 0.679375
0.460913 1.000001 0.676363
0.523839 1.000001 0.672630
0.691950 1.000001 0.667358
0.873803 0.998680 0.667084
0.977259 0.992645 0.696367
1.000001 0.979365 0.845444
0.693652 1.000001 0.808712
0.693195 1.000001 0.808423
0.691020 1.000001 0.806916
0.689990 1.000001 0.804885
0.699074 1.000001 0.802688
0.744861 1.000001 0.799966
0.845202 1.000001 0.796838
0.944582 1.000001 0.798634
1.000001 1.000001 0.817924
0.003505 0.003505 0.092360
0.105387 0.003505 0.090894
0.361499 0.015006 0.062556
0.633275 0.049426 0.090694
0.852084 0.113617 0.172161
0.977939 0.285078 0.392470
1.000001 0.574750 0.630904
1.000001 0.766066 0.796116
1.000001 0.883009 0.899251
0.003505 0.082655 0.078319
0.074290 0.074292 0.074297
0.356027 0.036021 0.050391
0.633454 0.061232 0.086161
0.853667 0.121335 0.171292
0.979045 0.294055 0.395659
1.000001 0.579647 0.634385
1.000001 0.769194 0.798750
1.000001 0.885034 0.901031
0.003505 0.340991 0.005414
0.003505 0.339404 0.005201
0.290148 0.317621 0.004681
0.622351 0.259048 0.050639
0.857509 0.215431 0.154329
0.983542 0.360795 0.406024
1.000001 0.605945 0.650465
1.000001 0.784682 0.811352
1.000001 0.894857 0.909595
0.003721 0.596469 0.012191
0.003825 0.596186 0.012011
0.016425 0.588435 0.011170
0.527492 0.565182 0.009020
0.834347 0.510768 0.097809
0.980609 0.505624 0.377527
1.000001 0.643585 0.655177
1.000001 0.798480 0.819076
1.000001 0.902445 0.915614
0.005907 0.786714 0.046362
0.006097 0.786755 0.046297
0.009973 0.783914 0.045256
0.170398 0.775426 0.041376
0.719280 0.755587 0.041787
0.955001 0.711953 0.252451
1.000001 0.721208 0.622091
1.000001 0.812075 0.810763
1.000001 0.903866 0.913357
0.028247 0.907031 0.167112
0.028602 0.907103 0.167254
0.032208 0.905885 0.164778
0.068470 0.903047 0.158951
0.523079 0.895732 0.149618
0.851681 0.881051 0.180648
1.000001 0.850561 0.539991
1.000001 0.857562 0.780077
1.000001 0.909454 0.902474
0.123146 0.973033 0.478144
0.123655 0.973084 0.478432
0.125523 0.972471 0.475254
0.150263 0.971386 0.470228
0.386607 0.969003 0.462069
0.744582 0.963212 0.456255
0.931810 0.953502 0.502347
1.000001 0.933420 0.726665
1.000001 0.936871 0.879655
0.454252 1.000001 0.681585
0.454898 1.000001 0.681794
0.452565 1.000001 0.679641
0.461289 1.000001 0.676638
0.524091 1.000001 0.672915
0.692057 1.000001 0.667654
0.873862 0.998710 0.667379
0.977298 0.992676 0.696630
1.000001 0.979399 0.845501
0.693147 1.000001 0.808427
0.693429 1.000001 0.808577
0.691251 1.000001 0.807070
0.690216 1.000001 0.805040
0.699277 1.000001 0.802844
0.745002 1.000001 0.800126
0.845275 1.000001 0.796999
0.944624 1.000001 0.798792
1.000001 1.000001 0.818069
0.014864 0.004624 0.320820
0.057410 0.004472 0.320847
0.356104 0.004418 0.317879
0.630624 0.032662 0.292021
0.850657 0.100794 0.290933
0.977488 0.274446 0.426949
1.000001 0.572467 0.635918
1.000001 0.765458 0.796704
1.000001 0.882809 0.899268
0.007394 0.009496 0.319324
0.034719 0.008316 0.318454
0.350308 0.006663 0.315243
0.630686 0.040928 0.288192
0.852215 0.107797 0.289436
0.978591 0.283334 0.429516
1.000001 0.577401 0.639243
1.000001 0.768587 0.799305
1.000001 0.884832 0.901040
0.003505 0.294220 0.284243
0.003505 0.298213 0.288718
0.279654 0.279662 0.279684
0.617988 0.219847 0.248276
0.855289 0.191072 0.266605
0.982783 0.349763 0.437395
1.000001 0.602924 0.653945
1.000001 0.783411 0.811193
1.000001 0.894212 0.909185
0.003663 0.584401 0.088203
0.003721 0.584087 0.086994
0.013013 0.579820 0.077772
0.523968 0.553275 0.103339
0.831893 0.501865 0.164122
0.979797 0.500435 0.408901
1.000001 0.641320 0.658126
1.000001 0.797387 0.818870
1.000001 0.901878 0.915237
0.005649 0.782922 0.071250
0.005825 0.782960 0.071050
0.009413 0.782447 0.069246
0.165103 0.773651 0.067092
0.719150 0.753556 0.070364
0.954026 0.710685 0.288578
1.000001 0.720276 0.625266
1.000001 0.811265 0.810546
1.000001 0.903360 0.912989
0.027461 0.905617 0.182967
0.027824 0.905688 0.183036
0.032059 0.905899 0.182970
0.067999 0.903003 0.178749
0.522638 0.895625 0.170390
0.851985 0.880911 0.207239
1.000001 0.850673 0.544521
1.000001 0.857399 0.779839
1.000001 0.909115 0.902079
0.120849 0.972374 0.479874
0.121361 0.972424 0.480130
0.126204 0.972646 0.481325
0.150873 0.971550 0.476958
0.387045 0.969158 0.469567
0.744851 0.963361 0.464253
0.932088 0.953653 0.508890
1.000001 0.933663 0.726857
1.000001 0.936881 0.879200
0.449365 1.000001 0.680235
0.450019 1.000001 0.680436
0.454606 1.000001 0.681436
0.463130 1.000001 0.678537
0.525320 1.000001 0.674936
0.692566 1.000001 0.669801
0.874147 0.998843 0.669551
0.977493 0.992817 0.698518
1.000001 0.979587 0.845272
0.690532 1.000001 0.807064
0.690815 1.000001 0.807210
0.692425 1.000001 0.807947
0.691357 1.000001 0.805936
0.700301 1.000001 0.803764
0.745713 1.000001 0.801072
0.845642 1.000001 0.797970
0.944838 1.000001 0.799746
1.000001 1.000001 0.818932
0.036324 0.007562 0.565236
0.053915 0.007363 0.565682
0.324973 0.006069 0.566167
0.611028 0.007141 0.560638
0.839873 0.062689 0.531638
0.972769 0.224182 0.537222
1.000001 0.552166 0.653472
1.000001 0.756377 0.794758
1.000001 0.877859 0.895930
0.029835 0.010472 0.566524
0.046099 0.009996 0.566237
0.316868 0.007733 0.566670
0.610410 0.008920 0.561109
0.841255 0.067454 0.531966
0.973867 0.231498 0.538738
1.000001 0.557316 0.656211
1.000001 0.759542 0.797227
1.000001 0.879898 0.897683
0.005930 0.161897 0.563658
0.008344 0.157900 0.563401
0.228231 0.122569 0.560159
0.594755 0.079675 0.555338
0.843049 0.123883 0.526693
0.977927 0.292612 0.542971
1.000001 0.584148 0.668335
1.000001 0.774545 0.808517
1.000001 0.889349 0.905742
0.003505 0.540914 0.527296
0.003505 0.540427 0.527090
0.005733 0.534739 0.524248
0.513816 0.513826 0.513860
0.815588 0.462485 0.487027
0.973583 0.470395 0.524884
1.000001 0.624472 0.670616
1.000001 0.787855 0.814894
1.000001 0.896400 0.911108
0.004734 0.769381 0.377980
0.004852 0.769414 0.377473
0.007181 0.768798 0.373440
0.142644 0.763324 0.360740
0.716267 0.741830 0.379815
0.946551 0.702413 0.441598
1.000001 0.712706 0.638818
1.000001 0.803861 0.806289
1.000001 0.898269 0.908798
0.024912 0.901633 0.329072
0.025273 0.901707 0.328833
0.029515 0.901922 0.327041
0.064708 0.901004 0.320835
0.518870 0.893257 0.324634
0.851644 0.878327 0.363439
1.000001 0.849766 0.564789
1.000001 0.854791 0.775042
1.000001 0.905339 0.897494
0.116612 0.971045 0.505687
0.117130 0.971096 0.505827
0.122080 0.971321 0.506428
0.150223 0.971343 0.506438
0.385461 0.968876 0.502921
0.744639 0.963002 0.500280
0.932269 0.953277 0.538455
1.000001 0.933966 0.724166
1.000001 0.935791 0.873906
0.442256 1.000001 0.682856
0.442932 1.000001 0.683030
0.447734 1.000001 0.683890
0.464927 1.000001 0.684828
0.526398 1.000001 0.681937
0.692942 1.000001 0.677526
0.874399 0.998875 0.677542
0.977700 0.992855 0.705241
1.000001 0.979944 0.841039
0.687015 1.000001 0.806230
0.687296 1.000001 0.806369
0.688927 1.000001 0.807067
0.692732 1.000001 0.807911
0.701516 1.000001 0.805888
0.746537 1.000001 0.803357
0.846060 1.000001 0.800393
0.945084 1.000001 0.802167
1.000001 1.000001 0.821033
0.048474 0.009486 0.761782
0.057863 0.009332 0.762294
0.267289 0.008092 0.763754
0.595072 0.006634 0.762181
0.803015 0.013209 0.752504
0.960423 0.126928 0.719702
1.000001 0.481614 0.723192
1.000001 0.729384 0.800027
1.000001 0.864025 0.889153
0.044323 0.011124 0.763655
0.053734 0.010885 0.763588
0.256400 0.009294 0.765028
0.593317 0.007430 0.763396
0.803933 0.014699 0.753871
0.961522 0.131107 0.721051
1.000001 0.487759 0.724944
1.000001 0.732755 0.802100
1.000001 0.866155 0.890850
0.019007 0.045582 0.767327
0.023171 0.044712 0.767289
0.140145 0.037673 0.765835
0.566797 0.028511 0.764538
0.803438 0.034949 0.757085
0.965302 0.166680 0.725994
1.000001 0.520296 0.732868
1.000001 0.748779 0.811667
1.000001 0.876022 0.898666
0.004868 0.435863 0.756756
0.005273 0.434471 0.756735
0.022356 0.422714 0.755763
0.467949 0.389279 0.751020
0.779631 0.348294 0.745429
0.958687 0.367054 0.721054
1.000001 0.572631 0.735667
1.000001 0.763392 0.817305
1.000001 0.883303 0.903799
0.003663 0.733285 0.720043
0.003663 0.733260 0.720086
0.004141 0.732135 0.719714
0.164797 0.720231 0.711728
0.706697 0.706709 0.706746
0.926721 0.671024 0.687520
1.000001 0.685213 0.716499
1.000001 0.782685 0.809091
1.000001 0.884614 0.900464
0.017386 0.889711 0.624419
0.017684 0.889788 0.624301
0.021230 0.889995 0.623401
0.052770 0.888915 0.620230
0.503582 0.883394 0.611683
0.848825 0.867418 0.625916
0.995368 0.842822 0.661817
1.000001 0.846544 0.779166
1.000001 0.895267 0.888377
0.106354 0.967471 0.613339
0.106863 0.967526 0.613301
0.111760 0.967770 0.613013
0.139940 0.967790 0.611970
0.374203 0.966537 0.608377
0.742019 0.960299 0.612463
0.931687 0.950422 0.635101
1.000001 0.933215 0.735377
1.000001 0.932710 0.863583
0.431374 1.000001 0.707231
0.432084 1.000001 0.707326
0.437232 1.000001 0.707779
0.456014 1.000001 0.708194
0.525040 1.000001 0.707898
0.691968 1.000001 0.706439
0.874101 0.998242 0.707709
0.977689 0.992215 0.730697
1.000001 0.980305 0.834224
0.682966 1.000001 0.810571
0.683249 1.000001 0.810686
0.684912 1.000001 0.811260
0.688908 1.000001 0.811947
0.702211 1.000001 0.812432
0.746904 1.000001 0.810654
0.846193 1.000001 0.808352
0.945190 1.000001 0.810229
1.000001 1.000001 0.827852
0.044836 0.007966 0.899783
0.049529 0.007885 0.900208
0.137446 0.007181 0.901667
0.585889 0.006079 0.901234
0.803773 0.006091 0.896512
0.925378 0.024558 0.882472
1.000001 0.283435 0.849360
1.000001 0.671146 0.847643
1.000001 0.839524 0.892001
0.042241 0.008516 0.901422
0.047122 0.008417 0.901431
0.131426 0.007613 0.902877
0.583972 0.006365 0.902413
0.804050 0.006411 0.897624
0.926411 0.025733 0.883768
1.000001 0.290634 0.850598
1.000001 0.675112 0.849011
1.000001 0.841867 0.893436
0.023098 0.020333 0.906006
0.025754 0.020054 0.906038
0.082380 0.017608 0.905373
0.546737 0.013933 0.904695
0.795535 0.014173 0.899789
0.929618 0.037850 0.888736
1.000001 0.334659 0.856484
1.000001 0.693997 0.855579
1.000001 0.852705 0.900149
0.005845 0.202839 0.900957
0.006233 0.200444 0.900992
0.019863 0.178890 0.900436
0.389975 0.136596 0.897552
0.759278 0.108053 0.894701
0.923956 0.127082 0.887614
1.000001 0.431003 0.861462
1.000001 0.711702 0.861306
1.000001 0.860548 0.905034
0.004835 0.665343 0.883690
0.004960 0.664977 0.883754
0.007266 0.661460 0.883718
0.077436 0.648876 0.881920
0.673016 0.622885 0.876925
0.897276 0.601402 0.871994
1.000001 0.618512 0.855191
1.000001 0.740314 0.859737
1.000001 0.862480 0.903262
0.006159 0.863988 0.853062
0.006243 0.864047 0.853137
0.007366 0.864104 0.853374
0.024710 0.862445 0.852644
0.477051 0.855421 0.848831
0.841867 0.841878 0.841913
0.980207 0.820139 0.829596
1.000001 0.825824 0.842996
1.000001 0.877671 0.893279
0.080658 0.957919 0.796082
0.081093 0.957977 0.796068
0.085321 0.958230 0.795932
0.110067 0.958218 0.795296
0.339796 0.956751 0.792815
0.733189 0.951883 0.787054
0.929256 0.941326 0.796120
1.000001 0.927208 0.810667
1.000001 0.926502 0.870890
0.404958 1.000001 0.787953
0.405762 1.000001 0.787954
0.411648 1.000001 0.787932
0.433337 1.000001 0.787748
0.511649 1.000001 0.786899
0.686449 1.000001 0.784232
0.872036 0.995470 0.787998
0.976985 0.989341 0.801153
1.000001 0.979322 0.848039
0.676532 1.000001 0.834480
0.676825 1.000001 0.834537
0.678559 1.000001 0.834820
0.682821 1.000001 0.835134
0.697228 1.000001 0.835251
0.745582 1.000001 0.834731
0.845286 1.000001 0.834584
0.944786 1.000001 0.836886
1.000001 1.000001 0.850644
0.025321 0.004955 0.985105
0.027008 0.004930 0.985412
0.053223 0.004729 0.986636
0.573783 0.004250 0.986123
0.830459 0.004104 0.983947
0.939198 0.005116 0.975721
0.991449 0.045272 0.958802
1.000001 0.547349 0.928663
1.000001 0.797334 0.924556
0.023835 0.005009 0.986313
0.025678 0.004985 0.986344
0.050807 0.004786 0.987558
0.571751 0.004279 0.987023
0.831296 0.004130 0.984827
0.939923 0.005218 0.976529
0.992162 0.046457 0.959733
1.000001 0.552861 0.929566
1.000001 0.800102 0.925521
0.014048 0.006219 0.990675
0.015112 0.006177 0.990718
0.033381 0.005825 0.990553
0.534572 0.004862 0.989876
0.826556 0.004624 0.987504
0.938849 0.007252 0.978609
0.995058 0.056545 0.963820
1.000001 0.579032 0.934095
1.000001 0.812832 0.930232
0.003936 0.071835 0.984542
0.003990 0.071093 0.984593
0.004965 0.065130 0.984498
0.183804 0.045456 0.981798
0.749962 0.036907 0.979692
0.920545 0.042058 0.974735
0.994993 0.105014 0.965792
1.000001 0.604293 0.939717
1.000001 0.821540 0.935107
0.003505 0.583840 0.974183
0.003505 0.582889 0.974222
0.003721 0.573345 0.974065
0.038977 0.530385 0.971697
0.626771 0.477765 0.968524
0.884794 0.439464 0.965434
0.985554 0.464059 0.960191
1.000001 0.655537 0.942432
1.000001 0.824063 0.937487
0.006471 0.825620 0.955208
0.006551 0.825559 0.955271
0.007699 0.824830 0.955490
0.022262 0.821148 0.955077
0.356204 0.810401 0.952864
0.820871 0.792608 0.948560
0.961670 0.781658 0.945035
1.000001 0.787020 0.934976
1.000001 0.848405 0.934596
0.038169 0.941555 0.933321
0.038417 0.941608 0.933380
0.040962 0.941819 0.933642
0.056904 0.941648 0.933707
0.220465 0.939622 0.932657
0.722095 0.933602 0.929322
0.924744 0.924754 0.924785
1.000001 0.912264 0.917362
1.000001 0.912843 0.922190
0.331440 0.994387 0.900452
0.332473 0.994425 0.900466
0.340301 0.994605 0.900518
0.369839 0.994748 0.900469
0.471045 0.994466 0.899915
0.674668 0.992820 0.897843
0.866794 0.989026 0.894128
0.975122 0.982495 0.899376
1.000001 0.974419 0.904275
0.662690 1.000001 0.892745
0.663006 1.000001 0.892756
0.664881 1.000001 0.892803
0.669578 1.000001 0.892818
0.685637 1.000001 0.892652
0.738905 1.000001 0.891864
0.841828 1.000001 0.889928
0.943201 1.000001 0.892695
1.000001 1.000001 0.900196
0.006983 0.003663 1.000001
0.007193 0.003663 1.000001
0.011278 0.003663 1.000001
0.117641 0.003505 1.000001
0.890673 0.003505 1.000001
0.982042 0.003505 1.000001
1.000001 0.004516 1.000001
1.000001 0.082634 0.999894
1.000001 0.725508 0.973907
0.006604 0.003663 1.000001
0.006852 0.003663 1.000001
0.010520 0.003663 1.000001
0.111910 0.003505 1.000001
0.892500 0.003505 1.000001
0.983289 0.003505 1.000001
1.000001 0.004530 1.000001
1.000001 0.084233 1.000001
1.000001 0.729044 0.974523
0.004889 0.003663 1.000001
0.004980 0.003663 1.000001
0.006776 0.003663 1.000001
0.077038 0.003505 1.000001
0.896070 0.003505 1.000001
0.986813 0.003505 1.000001
1.000001 0.005112 1.000001
1.000001 0.095656 1.000001
1.000001 0.745134 0.977663
0.003505 0.004930 1.000001
0.003505 0.004899 1.000001
0.003721 0.004705 1.000001
0.017440 0.004230 1.000001
0.848401 0.003761 1.000001
0.967257 0.003990 1.000001
1.000001 0.022371 1.000001
1.000001 0.135524 1.000001
1.000001 0.755089 0.981965
0.003505 0.466684 1.000001
0.003505 0.464796 1.000001
0.003505 0.448036 1.000001
0.003505 0.357252 1.000001
0.517818 0.174052 1.000001
0.879046 0.145578 1.000001
0.983887 0.171541 1.000001
1.000001 0.358832 1.000001
1.000001 0.758743 0.985966
0.003505 0.808966 1.000001
0.003505 0.808714 1.000001
0.003505 0.805705 1.000001
0.003721 0.786898 1.000001
0.137656 0.755353 1.000001
0.796174 0.727745 1.000001
0.954412 0.712781 1.000001
1.000001 0.722366 0.996856
1.000001 0.800949 0.986280
0.019308 0.921154 0.992927
0.019407 0.921161 0.992972
0.020661 0.921102 0.993171
0.029460 0.920321 0.993221
0.108708 0.916857 0.992491
0.676391 0.908543 0.990339
0.912709 0.897577 0.987172
0.995215 0.891919 0.984941
1.000001 0.891843 0.979155
0.185484 0.984608 0.978664
0.186085 0.984644 0.978704
0.190933 0.984814 0.978895
0.213334 0.984915 0.979066
0.351785 0.984469 0.978899
0.642268 0.982326 0.977712
0.861934 0.977768 0.975166
0.972371 0.972379 0.972405
1.000001 0.965131 0.967964
0.633000 1.000001 0.959260
0.633353 1.000001 0.959277
0.635478 1.000001 0.959359
0.640981 1.000001 0.959430
0.660134 1.000001 0.959359
0.722410 1.000001 0.958784
0.836577 1.000001 0.957145
0.940113 1.000001 0.954868
1.000001 1.000001 0.957923
0.003663 0.003505 1.000001
0.003663 0.003505 1.000001
0.003721 0.003505 1.000001
0.006150 0.003505 1.000001
0.874210 0.003505 1.000001
1.000001 0.003505 1.000001
1.000001 0.003505 1.000001
1.000001 0.004434 1.000001
1.000001 0.153056 1.000001
0.003663 0.003505 1.000001
0.003663 0.003505 1.000001
0.003721 0.003505 1.000001
0.005838 0.003505 1.000001
0.871587 0.003505 1.000001
1.000001 0.003505 1.000001
1.000001 0.003505 1.000001
1.000001 0.004434 1.000001
1.000001 0.155868 1.000001
0.003505 0.003505 1.000001
0.003505 0.003505 1.000001
0.003505 0.003505 1.000001
0.004564 0.003505 1.000001
0.848791 0.003505 1.000001
1.000001 0.003505 1.000001
1.000001 0.003505 1.000001
1.000001 0.004643 1.000001
1.000001 0.173706 1.000001
0.003505 0.003505 1.000001
0.003505 0.003505 1.000001
0.003505 0.003505 1.000001
0.003663 0.003505 1.000001
0.732735 0.003505 1.000001
1.000001 0.003505 1.000001
1.000001 0.003505 1.000001
1.000001 0.013573 1.000001
1.000001 0.220596 1.000001
0.003505 0.017762 1.000001
0.003505 0.017190 1.000001
0.003505 0.014263 1.000001
0.003505 0.009533 1.000001
0.022372 0.004544 1.000001
0.962833 0.004079 1.000001
1.000001 0.020218 1.000001
1.000001 0.093508 1.000001
1.000001 0.395869 1.000001
0.003505 0.842357 1.000001
0.003505 0.842161 1.000001
0.003505 0.839728 1.000001
0.003505 0.824482 1.000001
0.003505 0.725785 1.000001
0.752556 0.611431 1.000001
0.950230 0.585229 1.000001
1.000001 0.608972 1.000001
1.000001 0.686591 1.000001
0.003505 0.923631 1.000001
0.003505 0.923616 1.000001
0.003505 0.922728 1.000001
0.003505 0.914686 1.000001
0.020578 0.895676 1.000001
0.570955 0.880658 1.000001
0.899412 0.865684 1.000001
0.990876 0.858709 1.000001
1.000001 0.862352 1.000001
0.073357 0.973504 1.000001
0.073469 0.973521 1.000001
0.074818 0.973582 1.000001
0.083332 0.973481 1.000001
0.137188 0.972565 1.000001
0.539971 0.969372 1.000001
0.840694 0.963463 1.000001
0.965405 0.957015 1.000001
1.000001 0.953929 1.000001
0.560431 1.000001 1.000001
0.560860 1.000001 1.000001
0.563540 1.000001 1.000001
0.571154 1.000001 1.000001
0.598793 1.000001 1.000001
0.684271 1.000001 1.000001
0.824019 1.000001 1.000001
0.937754 1.000001 1.000001
0.999994 1.000001 1.000001
