luts/RED_709_C3R2.cube
# RED Digital Cinema Output Transform LUT for IPP2
# LUT Name = RWG_Log3G10 to REC709_BT1886 with LOW_CONTRAST and R_2_Medium size_33 v1.13
# Generated by version 1.13
# Settings used in creation of this LUT are:
# Development Color Space = REC709
# Output Gamma Curve = BT1886
# Output Tonemap = LOW_CONTRAST
# Highlight Rolloff = Rolloff 2 - medium
# Resolution = 33 x 33 x 33
TITLE "RED IPP2 LUT to map REDWideGamutRGB/Log3G10 to REC709/BT1886/LOW_CONTRAST/Rolloff 2 - medium"
LUT_3D_SIZE 33
0.000000 0.000000 0.000000
0.000000 0.000000 0.000000
0.000662 0.000000 0.000000
0.067175 0.003505 0.003505
0.108301 0.003505 0.003505
0.162836 0.004037 0.004479
0.223711 0.006442 0.008957
0.292300 0.011701 0.017566
0.370655 0.018292 0.026890
0.461550 0.025218 0.036604
0.559909 0.032571 0.046868
0.656151 0.041345 0.059080
0.742509 0.051743 0.073531
0.811113 0.063410 0.089752
0.865797 0.077280 0.109095
0.907876 0.094117 0.132742
0.939163 0.114959 0.162371
0.961799 0.141508 0.200804
0.977589 0.176154 0.252202
0.988061 0.221806 0.320854
0.994958 0.285934 0.404309
0.999225 0.375916 0.500867
1.000003 0.480126 0.592870
1.000003 0.584329 0.672990
1.000003 0.669682 0.738774
1.000003 0.740268 0.793484
1.000003 0.795995 0.836986
1.000003 0.840964 0.872356
1.000003 0.876395 0.900435
1.000003 0.903834 0.922335
1.000003 0.925773 0.939961
1.000003 0.942926 0.953825
1.000003 0.956857 0.965148
0.000000 0.000000 0.000000
0.000000 0.000000 0.000000
0.000028 0.000000 0.000000
0.061468 0.003505 0.003505
0.105424 0.003505 0.003505
0.161116 0.004592 0.004220
0.222502 0.007932 0.008134
0.291379 0.013900 0.016539
0.369932 0.020418 0.025913
0.460989 0.027201 0.035712
0.559601 0.034397 0.046071
0.656135 0.042986 0.058407
0.742603 0.053198 0.072972
0.811273 0.064708 0.089302
0.865979 0.078446 0.108754
0.908050 0.095178 0.132512
0.939313 0.115947 0.162259
0.961919 0.142462 0.200828
0.977678 0.177123 0.252400
0.988125 0.222856 0.321265
0.995000 0.287166 0.404917
0.999252 0.377304 0.501642
1.000003 0.481540 0.593615
1.000003 0.585459 0.673667
1.000003 0.670589 0.739367
1.000003 0.740994 0.793990
1.000003 0.796580 0.837411
1.000003 0.841433 0.872708
1.000003 0.876772 0.900724
1.000003 0.904138 0.922572
1.000003 0.926017 0.940154
1.000003 0.943121 0.953981
1.000003 0.957012 0.965272
0.000000 0.000048 0.000000
0.000000 0.000023 0.000000
0.000002 0.000009 0.000000
0.051923 0.003505 0.003505
0.101188 0.003990 0.003505
0.158651 0.006634 0.003955
0.220778 0.011653 0.007191
0.290064 0.017603 0.015184
0.368892 0.023748 0.024601
0.460170 0.030182 0.034502
0.559155 0.037044 0.045001
0.656086 0.045319 0.057501
0.742710 0.055241 0.072215
0.811474 0.066517 0.088691
0.866212 0.080060 0.108287
0.908275 0.096641 0.132192
0.939507 0.117305 0.162097
0.962075 0.143768 0.200849
0.977795 0.178444 0.252654
0.988208 0.224283 0.321802
0.995057 0.288834 0.405719
0.999288 0.379166 0.502664
1.000003 0.483430 0.594599
1.000003 0.586961 0.674560
1.000003 0.671792 0.740150
1.000003 0.741959 0.794658
1.000003 0.797356 0.837973
1.000003 0.842056 0.873173
1.000003 0.877271 0.901106
1.000003 0.904539 0.922885
1.000003 0.926339 0.940408
1.000003 0.943379 0.954187
1.000003 0.957217 0.965438
0.003505 0.059123 0.003505
0.003505 0.056993 0.003505
0.003505 0.053868 0.003505
0.031527 0.049140 0.003505
0.094797 0.035088 0.003505
0.155096 0.019206 0.003721
0.218314 0.020401 0.006189
0.288181 0.024277 0.013439
0.367398 0.029168 0.022872
0.459006 0.034723 0.032912
0.558509 0.040923 0.043591
0.655978 0.048653 0.056297
0.742816 0.058111 0.071203
0.811714 0.069029 0.087868
0.866501 0.082286 0.107653
0.908560 0.098645 0.131751
0.939756 0.119155 0.161862
0.962274 0.145539 0.200855
0.977945 0.180229 0.252964
0.988316 0.226201 0.322486
0.995129 0.291065 0.406752
0.999334 0.381628 0.503983
1.000003 0.485907 0.595873
1.000003 0.588923 0.675718
1.000003 0.673362 0.741166
1.000003 0.743213 0.795524
1.000003 0.798365 0.838702
1.000003 0.842864 0.873777
1.000003 0.877919 0.901603
1.000003 0.905061 0.923292
1.000003 0.926757 0.940739
1.000003 0.943714 0.954455
1.000003 0.957483 0.965652
0.003505 0.100523 0.003505
0.003505 0.099470 0.003505
0.003505 0.097997 0.003505
0.003505 0.095934 0.003505
0.079020 0.090783 0.003505
0.147430 0.080050 0.003505
0.213108 0.061284 0.004889
0.284232 0.045895 0.010361
0.364278 0.043760 0.019690
0.456549 0.045761 0.029922
0.557089 0.049795 0.040899
0.655626 0.055952 0.053975
0.742910 0.064217 0.069228
0.812091 0.074274 0.086244
0.866996 0.086870 0.106383
0.909061 0.102732 0.130846
0.940201 0.122897 0.161349
0.962636 0.149094 0.200797
0.978220 0.183783 0.253484
0.988512 0.229990 0.323717
0.995262 0.295441 0.408652
0.999420 0.386357 0.506420
1.000003 0.490596 0.598233
1.000003 0.592618 0.677868
1.000003 0.676305 0.743053
1.000003 0.745560 0.797135
1.000003 0.800247 0.840056
1.000003 0.844371 0.874899
1.000003 0.879127 0.902525
1.000003 0.906032 0.924047
1.000003 0.927535 0.941353
1.000003 0.944337 0.954952
1.000003 0.957976 0.966051
0.003505 0.153251 0.003505
0.003505 0.152594 0.003505
0.003505 0.151683 0.003505
0.003505 0.150430 0.003505
0.006007 0.147902 0.003505
0.127715 0.142172 0.003505
0.200519 0.131592 0.003721
0.274785 0.118816 0.006207
0.356748 0.102859 0.013747
0.450472 0.084428 0.023992
0.553344 0.076901 0.035371
0.654284 0.076219 0.049082
0.742641 0.080150 0.064971
0.812537 0.087409 0.082665
0.867779 0.098022 0.103506
0.909930 0.112464 0.128702
0.941007 0.131654 0.160003
0.963307 0.157282 0.200377
0.978735 0.191841 0.254241
0.988886 0.238449 0.325939
0.995516 0.305056 0.412277
0.999583 0.396310 0.511128
1.000003 0.500175 0.602830
1.000003 0.600083 0.682073
1.000003 0.682204 0.746752
1.000003 0.750235 0.800296
1.000003 0.803982 0.842716
1.000003 0.847353 0.877104
1.000003 0.881510 0.904337
1.000003 0.907945 0.925532
1.000003 0.929065 0.942559
1.000003 0.945562 0.955930
1.000003 0.958948 0.966833
0.003505 0.211374 0.003505
0.003505 0.210874 0.003505
0.003505 0.210185 0.003505
0.003505 0.209242 0.003505
0.003721 0.207359 0.003505
0.048175 0.203159 0.003505
0.177559 0.196447 0.003505
0.258152 0.185468 0.004037
0.343451 0.173583 0.007451
0.439469 0.160265 0.016397
0.546001 0.144869 0.027768
0.650865 0.125245 0.042018
0.741132 0.114401 0.058579
0.812356 0.113557 0.077098
0.868315 0.119076 0.098839
0.910765 0.130140 0.125012
0.941881 0.147084 0.157392
0.964080 0.171331 0.199037
0.979350 0.205316 0.254515
0.989341 0.252231 0.328290
0.995830 0.320314 0.416671
0.999786 0.410982 0.517032
1.000003 0.513595 0.608706
1.000003 0.610344 0.687501
1.000003 0.690194 0.751552
1.000003 0.756501 0.804411
1.000003 0.808950 0.846184
1.000003 0.851296 0.879982
1.000003 0.884650 0.906702
1.000003 0.910460 0.927470
1.000003 0.931073 0.944135
1.000003 0.947167 0.957207
1.000003 0.960218 0.967855
0.003505 0.276529 0.003721
0.003505 0.276104 0.003721
0.003505 0.275519 0.003721
0.003505 0.274724 0.003721
0.003505 0.273152 0.003721
0.005804 0.269659 0.003663
0.114862 0.264120 0.003663
0.231499 0.256309 0.003505
0.322466 0.244204 0.004410
0.421847 0.231721 0.008881
0.533231 0.218328 0.019157
0.643943 0.202425 0.033362
0.737277 0.184815 0.050295
0.810710 0.167098 0.069545
0.867980 0.158502 0.092189
0.911110 0.161254 0.119403
0.942498 0.173025 0.152983
0.964732 0.194071 0.196068
0.979917 0.226379 0.253398
0.989781 0.273051 0.329713
0.996143 0.342099 0.420724
0.999992 0.430232 0.522984
1.000003 0.530024 0.614873
1.000003 0.622570 0.693314
1.000003 0.699513 0.756749
1.000003 0.763686 0.808894
1.000003 0.814579 0.849977
1.000003 0.855726 0.883137
1.000003 0.888157 0.909300
1.000003 0.913257 0.929601
1.000003 0.933300 0.945868
1.000003 0.948942 0.958611
1.000003 0.961622 0.968980
0.003505 0.350721 0.003990
0.003505 0.350335 0.003990
0.003505 0.349808 0.003990
0.003505 0.349099 0.003972
0.003505 0.347699 0.003972
0.004104 0.344595 0.003936
0.020731 0.339680 0.003897
0.169593 0.332761 0.003825
0.291386 0.323642 0.003721
0.395799 0.309820 0.004915
0.512674 0.295819 0.010928
0.631790 0.279980 0.023977
0.729780 0.263084 0.040599
0.806654 0.246062 0.060194
0.866090 0.230322 0.083502
0.910482 0.218973 0.111599
0.942526 0.217972 0.146272
0.965039 0.231403 0.190736
0.980290 0.259418 0.249889
0.990115 0.304363 0.328999
0.996399 0.370230 0.423194
1.000003 0.454359 0.527815
1.000003 0.548929 0.620368
1.000003 0.636167 0.698724
1.000003 0.709571 0.761698
1.000003 0.771256 0.813222
1.000003 0.820404 0.853671
1.000003 0.860251 0.886225
1.000003 0.891706 0.911852
1.000003 0.916069 0.931701
1.000003 0.935529 0.947578
1.000003 0.950715 0.959999
1.000003 0.963020 0.970092
0.003505 0.436546 0.004494
0.003505 0.436189 0.004487
0.003505 0.435702 0.004487
0.003505 0.435048 0.004472
0.003663 0.433757 0.004465
0.003850 0.430895 0.004434
0.006532 0.426357 0.004368
0.059141 0.419950 0.004279
0.225508 0.411471 0.004165
0.359221 0.400698 0.004037
0.481074 0.384532 0.005705
0.612016 0.367129 0.014907
0.716964 0.349085 0.030164
0.799006 0.330734 0.049408
0.861831 0.313031 0.072879
0.908327 0.298256 0.101454
0.941594 0.289984 0.136854
0.964764 0.292810 0.182335
0.980320 0.311435 0.242938
0.990252 0.348343 0.324735
0.996547 0.406052 0.422691
1.000003 0.484400 0.530316
1.000003 0.570252 0.624258
1.000003 0.650909 0.703011
1.000003 0.720062 0.765836
1.000003 0.778885 0.816953
1.000003 0.826117 0.856914
1.000003 0.864598 0.888971
1.000003 0.895066 0.914141
1.000003 0.918706 0.933594
1.000003 0.937604 0.949128
1.000003 0.952358 0.961261
1.000003 0.964312 0.971107
0.003505 0.533582 0.005375
0.003505 0.533287 0.005371
0.003505 0.532885 0.005363
0.003505 0.532345 0.005359
0.003663 0.531276 0.005339
0.003825 0.528895 0.005298
0.004814 0.525085 0.005218
0.016441 0.519614 0.005098
0.127283 0.512198 0.004940
0.286329 0.502474 0.004752
0.437248 0.490041 0.004571
0.577529 0.470257 0.007430
0.696396 0.449456 0.019884
0.786076 0.428625 0.037757
0.854056 0.407951 0.060620
0.903886 0.389128 0.089013
0.939213 0.375051 0.124488
0.963596 0.369760 0.170273
0.979818 0.378206 0.231501
0.990082 0.404350 0.315127
0.996524 0.452018 0.417468
1.000003 0.520356 0.528974
1.000003 0.594333 0.625435
1.000003 0.666879 0.705358
1.000003 0.730893 0.768553
1.000003 0.786386 0.819630
1.000003 0.831504 0.859357
1.000003 0.868559 0.891106
1.000003 0.898051 0.915958
1.000003 0.921006 0.935119
1.000003 0.939393 0.950391
1.000003 0.953763 0.962298
1.000003 0.965412 0.971946
0.003663 0.622143 0.006952
0.003663 0.621929 0.006947
0.003663 0.621639 0.006939
0.003663 0.621248 0.006929
0.003721 0.620477 0.006909
0.003850 0.618762 0.006852
0.004442 0.616022 0.006744
0.007894 0.612080 0.006573
0.037270 0.606712 0.006339
0.194181 0.599620 0.006060
0.356128 0.590458 0.005774
0.524085 0.579078 0.005532
0.657074 0.560419 0.010193
0.764945 0.539486 0.026095
0.841215 0.517763 0.047481
0.896130 0.495750 0.074815
0.934711 0.475824 0.109464
0.961111 0.462414 0.154491
0.978527 0.460551 0.215005
0.989450 0.475038 0.298254
0.996245 0.509707 0.405457
1.000003 0.561193 0.521773
1.000003 0.621340 0.622407
1.000003 0.684139 0.704673
1.000003 0.741967 0.769039
1.000003 0.793559 0.820645
1.000003 0.836319 0.860543
1.000003 0.871886 0.892280
1.000003 0.900434 0.917036
1.000003 0.922775 0.936070
1.000003 0.940732 0.951205
1.000003 0.954796 0.962985
1.000003 0.966212 0.972513
0.003721 0.699259 0.009984
0.003721 0.699106 0.009977
0.003721 0.698898 0.009969
0.003761 0.698620 0.009954
0.003825 0.698071 0.009921
0.003972 0.696857 0.009838
0.004410 0.694926 0.009683
0.006082 0.692154 0.009429
0.016793 0.688368 0.009071
0.072909 0.683336 0.008624
0.261063 0.676776 0.008136
0.433941 0.668531 0.007690
0.605865 0.658294 0.007392
0.725755 0.641486 0.014598
0.821596 0.622071 0.034440
0.884584 0.602432 0.060090
0.927914 0.583076 0.093123
0.957197 0.566360 0.136313
0.976351 0.556374 0.194596
0.988285 0.557970 0.275179
0.995664 0.575116 0.385955
0.999937 0.608391 0.507621
1.000003 0.653117 0.614485
1.000003 0.704285 0.700555
1.000003 0.754448 0.767069
1.000003 0.801168 0.819883
1.000003 0.841041 0.860410
1.000003 0.874870 0.892466
1.000003 0.902388 0.917362
1.000003 0.924116 0.936440
1.000003 0.941683 0.951571
1.000003 0.955496 0.963322
1.000003 0.966736 0.972812
0.003917 0.763808 0.015004
0.003917 0.763699 0.014995
0.003936 0.763550 0.014984
0.003972 0.763352 0.014967
0.004021 0.762962 0.014933
0.004176 0.762107 0.014845
0.004564 0.760759 0.014678
0.005691 0.758834 0.014400
0.010683 0.756211 0.013985
0.032797 0.752709 0.013425
0.133184 0.748109 0.012746
0.333309 0.742266 0.012041
0.523059 0.734917 0.011452
0.677598 0.726015 0.011226
0.783778 0.711144 0.020893
0.866982 0.693588 0.045625
0.917753 0.676343 0.076497
0.951363 0.659730 0.117115
0.973077 0.646229 0.172050
0.986495 0.639579 0.248261
0.994737 0.643560 0.359325
0.999483 0.660874 0.485958
1.000003 0.690209 0.601346
1.000003 0.728516 0.692874
1.000003 0.769553 0.762649
1.000003 0.810195 0.817425
1.000003 0.846394 0.859075
1.000003 0.878020 0.891788
1.000003 0.904271 0.917053
1.000003 0.925283 0.936335
1.000003 0.942430 0.951578
1.000003 0.955996 0.963386
1.000003 0.967082 0.972901
0.004250 0.816923 0.022004
0.004270 0.816845 0.021994
0.004288 0.816738 0.021981
0.004316 0.816597 0.021963
0.004377 0.816320 0.021924
0.004544 0.815717 0.021828
0.004915 0.814777 0.021651
0.005851 0.813452 0.021359
0.008864 0.811658 0.020921
0.020273 0.809263 0.020314
0.059381 0.806099 0.019542
0.216576 0.802041 0.018684
0.416153 0.796877 0.017867
0.605555 0.790535 0.017343
0.739325 0.782911 0.017492
0.831274 0.770051 0.029648
0.902258 0.754525 0.060360
0.942680 0.739641 0.098027
0.968216 0.725753 0.148792
0.983803 0.715289 0.219109
0.993312 0.711032 0.325114
0.998765 0.716236 0.455759
1.000003 0.731939 0.581577
1.000003 0.757284 0.680679
1.000003 0.788118 0.755157
1.000003 0.821425 0.812874
1.000003 0.852960 0.856284
1.000003 0.881714 0.890081
1.000003 0.906309 0.916006
1.000003 0.926405 0.935685
1.000003 0.943039 0.951180
1.000003 0.956329 0.963144
1.000003 0.967264 0.972760
0.004852 0.859743 0.031642
0.004868 0.859686 0.031630
0.004889 0.859609 0.031614
0.004925 0.859507 0.031592
0.004994 0.859308 0.031546
0.005183 0.858880 0.031437
0.005580 0.858223 0.031244
0.006473 0.857311 0.030938
0.008844 0.856091 0.030480
0.016058 0.854471 0.029835
0.036182 0.852327 0.028990
0.101287 0.849558 0.027992
0.301128 0.845993 0.026948
0.509232 0.841559 0.026095
0.678218 0.836150 0.025798
0.791287 0.829734 0.026651
0.869405 0.818828 0.041724
0.929461 0.805242 0.080080
0.961040 0.792658 0.126597
0.979859 0.781456 0.190341
0.991208 0.773271 0.286210
0.997685 0.770840 0.418707
1.000003 0.776167 0.554145
1.000003 0.789990 0.663120
1.000003 0.810502 0.743998
1.000003 0.835574 0.805858
1.000003 0.861437 0.851821
1.000003 0.886497 0.887233
1.000003 0.908882 0.914162
1.000003 0.927734 0.934467
1.000003 0.943672 0.950369
1.000003 0.956599 0.962597
1.000003 0.967347 0.972394
0.005933 0.893685 0.044768
0.005956 0.893644 0.044753
0.005985 0.893587 0.044732
0.006023 0.893513 0.044703
0.006113 0.893369 0.044646
0.006336 0.893063 0.044517
0.006796 0.892599 0.044300
0.007763 0.891968 0.043969
0.010023 0.891137 0.043488
0.015359 0.890047 0.042813
0.027931 0.888610 0.041910
0.061236 0.886745 0.040798
0.170908 0.884322 0.039546
0.391986 0.881270 0.038364
0.598067 0.877496 0.037590
0.740506 0.872951 0.037779
0.834254 0.867631 0.039816
0.900127 0.858437 0.058618
0.950065 0.846732 0.106619
0.974038 0.836429 0.164148
0.988133 0.827264 0.249370
0.996095 0.821089 0.376937
1.000003 0.819828 0.518599
1.000003 0.824857 0.639533
1.000003 0.836179 0.728585
1.000003 0.852909 0.795951
1.000003 0.872384 0.845405
1.000003 0.892923 0.883073
1.000003 0.912425 0.911428
1.000003 0.929579 0.932629
1.000003 0.944536 0.949122
1.000003 0.956938 0.961738
1.000003 0.967414 0.971802
0.008043 0.920406 0.062661
0.008072 0.920375 0.062641
0.008109 0.920334 0.062613
0.008162 0.920279 0.062575
0.008277 0.920174 0.062502
0.008567 0.919953 0.062341
0.009155 0.919623 0.062084
0.010326 0.919182 0.061714
0.012558 0.918615 0.061195
0.016870 0.917882 0.060484
0.025896 0.916926 0.059531
0.046476 0.915686 0.058327
0.100980 0.914065 0.056898
0.272507 0.912000 0.055408
0.493758 0.909411 0.054155
0.674683 0.906248 0.053654
0.792372 0.902488 0.054708
0.869524 0.898102 0.058647
0.924250 0.890466 0.081958
0.964951 0.880654 0.141684
0.983523 0.872079 0.217252
0.993736 0.864807 0.333449
0.999182 0.860229 0.475369
1.000003 0.859602 0.609470
1.000003 0.863851 0.708296
1.000003 0.873104 0.782605
1.000003 0.886065 0.836633
1.000003 0.901473 0.877331
1.000003 0.917408 0.907635
1.000003 0.932308 0.930072
1.000003 0.945889 0.947383
1.000003 0.957518 0.960535
1.000003 0.967573 0.970970
0.012295 0.941159 0.087025
0.012327 0.941136 0.086996
0.012372 0.941105 0.086958
0.012434 0.941065 0.086907
0.012566 0.940988 0.086809
0.012895 0.940826 0.086600
0.013529 0.940589 0.086282
0.014670 0.940279 0.085845
0.016706 0.939887 0.085263
0.020425 0.939393 0.084494
0.027579 0.938757 0.083479
0.042167 0.937939 0.082189
0.075501 0.936868 0.080604
0.164076 0.935491 0.078838
0.377268 0.933743 0.077129
0.591454 0.931577 0.075940
0.739148 0.928962 0.076011
0.835494 0.925865 0.078515
0.898092 0.922290 0.085416
0.942156 0.916168 0.113363
0.976194 0.907780 0.191595
0.990144 0.900844 0.293348
0.997383 0.895209 0.430442
1.000003 0.891699 0.573629
1.000003 0.891394 0.683009
1.000003 0.894907 0.765446
1.000003 0.902055 0.825127
1.000003 0.912257 0.869714
1.000003 0.924155 0.902579
1.000003 0.936267 0.926664
1.000003 0.948014 0.945072
1.000003 0.958543 0.958943
1.000003 0.967959 0.969872
0.018781 0.956869 0.119809
0.018811 0.956852 0.119770
0.018853 0.956829 0.119716
0.018912 0.956799 0.119646
0.019035 0.956742 0.119512
0.019346 0.956623 0.119230
0.019947 0.956449 0.118816
0.021027 0.956227 0.118272
0.022921 0.955953 0.117583
0.026259 0.955614 0.116710
0.032340 0.955187 0.115594
0.043794 0.954644 0.114191
0.067332 0.953937 0.112447
0.120765 0.953024 0.110420
0.271260 0.951853 0.108280
0.492879 0.950381 0.106424
0.674899 0.948579 0.105533
0.793852 0.946410 0.106682
0.871259 0.943869 0.111599
0.920652 0.941016 0.122937
0.957121 0.935935 0.159557
0.984422 0.928946 0.263994
0.994639 0.923467 0.390979
0.999878 0.918992 0.535038
1.000003 0.916371 0.653961
1.000003 0.916235 0.744839
1.000003 0.918999 0.810897
1.000003 0.924655 0.860118
1.000003 0.932548 0.896150
1.000003 0.941581 0.922321
1.000003 0.951109 0.942135
1.000003 0.960199 0.956931
1.000003 0.968716 0.968495
0.028363 0.969019 0.166173
0.028388 0.969006 0.166115
0.028424 0.968989 0.166038
0.028476 0.968966 0.165937
0.028586 0.968924 0.165744
0.028868 0.968835 0.165344
0.029424 0.968708 0.164773
0.030434 0.968548 0.164049
0.032199 0.968354 0.163170
0.035257 0.968121 0.162108
0.040635 0.967833 0.160805
0.050232 0.967474 0.159207
0.068489 0.967011 0.157235
0.105663 0.966414 0.154897
0.193543 0.965643 0.152292
0.392812 0.964662 0.149738
0.599447 0.963442 0.147848
0.743417 0.961952 0.147628
0.838057 0.960179 0.150691
0.898895 0.958157 0.159405
0.938864 0.955840 0.178406
0.968083 0.951777 0.226611
0.990001 0.946074 0.360899
0.997754 0.941648 0.496950
1.000003 0.938191 0.622269
1.000003 0.936127 0.720837
1.000003 0.936020 0.793589
1.000003 0.938159 0.848099
1.000003 0.942472 0.887953
1.000003 0.948386 0.916738
1.000003 0.955412 0.938355
1.000003 0.962721 0.954352
1.000003 0.970029 0.966744
0.031866 0.971206 0.182834
0.042085 0.978150 0.232802
0.042113 0.978137 0.232685
0.042154 0.978120 0.232532
0.042244 0.978088 0.232242
0.042485 0.978022 0.231647
0.042980 0.977929 0.230810
0.043904 0.977812 0.229776
0.045539 0.977673 0.228566
0.048365 0.977510 0.227163
0.053249 0.977313 0.225512
0.061677 0.977073 0.223562
0.076896 0.976769 0.221206
0.105636 0.976379 0.218415
0.165922 0.975875 0.215216
0.314981 0.975228 0.211848
0.520386 0.974412 0.208849
0.687194 0.973399 0.207168
0.799497 0.972176 0.208385
0.872914 0.970760 0.214802
0.921751 0.969111 0.230553
0.953190 0.967270 0.262684
0.975907 0.964135 0.320397
0.994088 0.959377 0.466254
0.999813 0.955907 0.591896
1.000003 0.953142 0.695420
1.000003 0.951543 0.774064
1.000003 0.951429 0.833939
1.000003 0.953041 0.878015
1.000003 0.956244 0.909849
1.000003 0.960810 0.933652
1.000003 0.966167 0.951140
1.000003 0.972017 0.964572
0.060953 0.984886 0.327268
0.060964 0.984878 0.327150
0.060981 0.984869 0.326996
0.061008 0.984856 0.326792
0.061070 0.984832 0.326406
0.061255 0.984782 0.325621
0.061670 0.984712 0.324523
0.062490 0.984626 0.323184
0.063986 0.984525 0.321645
0.066605 0.984408 0.319906
0.071118 0.984271 0.317919
0.078774 0.984107 0.315641
0.092168 0.983903 0.312940
0.116242 0.983646 0.309756
0.162989 0.983314 0.306025
0.267211 0.982887 0.301875
0.452278 0.982342 0.297721
0.631785 0.981657 0.294435
0.758613 0.980815 0.293578
0.844030 0.979826 0.297308
0.902080 0.978658 0.308533
0.940066 0.977335 0.330189
0.964219 0.975899 0.364165
0.982471 0.973381 0.421472
0.996937 0.969527 0.566866
1.000003 0.966705 0.671579
1.000003 0.964556 0.753985
1.000003 0.963280 0.818464
1.000003 0.963187 0.866693
1.000003 0.964388 0.901785
1.000003 0.966873 0.928050
1.000003 0.970366 0.947283
1.000003 0.974667 0.961962
0.087464 0.989961 0.431093
0.087463 0.989955 0.430966
0.087466 0.989948 0.430798
0.087472 0.989938 0.430580
0.087497 0.989920 0.430165
0.087606 0.989883 0.429324
0.087915 0.989830 0.428156
0.088605 0.989766 0.426748
0.089946 0.989692 0.425158
0.092367 0.989608 0.423402
0.096582 0.989511 0.421455
0.103710 0.989398 0.419294
0.115975 0.989261 0.416813
0.137348 0.989090 0.413953
0.176774 0.988872 0.410622
0.257041 0.988592 0.406830
0.411200 0.988233 0.402756
0.584134 0.987774 0.398858
0.718505 0.987203 0.396101
0.813346 0.986521 0.396012
0.880039 0.985704 0.400719
0.924804 0.984764 0.412868
0.953828 0.983730 0.434777
0.972938 0.982585 0.469613
0.986965 0.980669 0.523349
0.999008 0.977463 0.650145
1.000003 0.975227 0.734585
1.000003 0.973495 0.802178
1.000003 0.972484 0.854084
1.000003 0.972383 0.892451
1.000003 0.973292 0.921391
1.000003 0.975175 0.942620
1.000003 0.977967 0.958780
0.123569 0.993668 0.534636
0.123552 0.993664 0.534514
0.123534 0.993658 0.534354
0.123513 0.993651 0.534143
0.123487 0.993637 0.533744
0.123494 0.993609 0.532936
0.123664 0.993569 0.531814
0.124194 0.993521 0.530467
0.125362 0.993466 0.528956
0.127598 0.993404 0.527307
0.131597 0.993334 0.525506
0.138419 0.993255 0.523551
0.150109 0.993160 0.521354
0.170144 0.993045 0.518866
0.205929 0.992900 0.515994
0.274640 0.992714 0.512683
0.401467 0.992475 0.508969
0.554616 0.992169 0.505052
0.686029 0.991781 0.501493
0.784858 0.991312 0.499346
0.857763 0.990740 0.500101
0.908491 0.990073 0.505812
0.942281 0.989330 0.518267
0.965007 0.988496 0.539331
0.979620 0.987607 0.568779
0.990888 0.986069 0.612357
1.000003 0.983474 0.716262
1.000003 0.981636 0.786774
1.000003 0.980263 0.841223
1.000003 0.979473 0.882435
1.000003 0.979383 0.913979
1.000003 0.980083 0.937299
1.000003 0.981613 0.955089
0.121912 0.993442 0.530395
0.175235 0.996462 0.622627
0.175185 0.996458 0.622493
0.175123 0.996452 0.622317
0.175020 0.996441 0.621983
0.174876 0.996420 0.621305
0.174847 0.996390 0.620369
0.175158 0.996354 0.619250
0.176115 0.996313 0.618004
0.178166 0.996267 0.616657
0.182027 0.996217 0.615211
0.188765 0.996160 0.613669
0.200378 0.996094 0.611980
0.220155 0.996015 0.610112
0.254776 0.995918 0.608000
0.318656 0.995795 0.605587
0.421466 0.995638 0.602851
0.548161 0.995435 0.599833
0.665760 0.995175 0.596770
0.761497 0.994856 0.594208
0.836722 0.994461 0.592930
0.891701 0.993994 0.594221
0.929708 0.993466 0.599432
0.956009 0.992866 0.610100
0.973318 0.992218 0.626856
0.984917 0.991508 0.650504
0.993580 0.990337 0.683393
1.000003 0.988185 0.770272
1.000003 0.986690 0.828490
1.000003 0.985609 0.871857
1.000003 0.984964 0.905784
1.000003 0.984882 0.931217
1.000003 0.985449 0.950767
0.249563 0.998510 0.692807
0.249486 0.998507 0.692721
0.249385 0.998504 0.692609
0.249257 0.998500 0.692460
0.249032 0.998492 0.692181
0.248648 0.998475 0.691614
0.248307 0.998453 0.690833
0.248290 0.998425 0.689901
0.248950 0.998394 0.688869
0.250791 0.998360 0.687761
0.254590 0.998323 0.686584
0.261485 0.998282 0.685348
