luts/RED_709_C3R2.cube
# RED Digital Cinema Output Transform LUT for IPP2
# LUT Name = RWG_Log3G10 to REC709_BT1886 with LOW_CONTRAST and R_2_Medium size_33 v1.13
# Generated by version 1.13
# Settings used in creation of this LUT are:
# Development Color Space = REC709
# Output Gamma Curve = BT1886
# Output Tonemap = LOW_CONTRAST
# Highlight Rolloff = Rolloff 2 - medium
# Resolution = 33 x 33 x 33
TITLE "RED IPP2 LUT to map REDWideGamutRGB/Log3G10 to REC709/BT1886/LOW_CONTRAST/Rolloff 2 - medium"
LUT_3D_SIZE 9
0.000000 0.000000 0.000000
0.108301 0.003505 0.003505
0.370655 0.018292 0.026890
0.742509 0.051743 0.073531
0.939163 0.114959 0.162371
0.994958 0.285934 0.404309
1.000003 0.669682 0.738774
1.000003 0.876395 0.900435
1.000003 0.956857 0.965148
0.003505 0.100523 0.003505
0.079020 0.090783 0.003505
0.364278 0.043760 0.019690
0.742910 0.064217 0.069228
0.940201 0.122897 0.161349
0.995262 0.295441 0.408652
1.000003 0.676305 0.743053
1.000003 0.879127 0.902525
1.000003 0.957976 0.966051
0.003505 0.350721 0.003990
0.003505 0.347699 0.003972
0.291386 0.323642 0.003721
0.729780 0.263084 0.040599
0.942526 0.217972 0.146272
0.996399 0.370230 0.423194
1.000003 0.709571 0.761698
1.000003 0.891706 0.911852
1.000003 0.963020 0.970092
0.003721 0.699259 0.009984
0.003825 0.698071 0.009921
0.016793 0.688368 0.009071
0.605865 0.658294 0.007392
0.927914 0.583076 0.093123
0.995664 0.575116 0.385955
1.000003 0.754448 0.767069
1.000003 0.902388 0.917362
1.000003 0.966736 0.972812
0.005933 0.893685 0.044768
0.006113 0.893369 0.044646
0.010023 0.891137 0.043488
0.170908 0.884322 0.039546
0.834254 0.867631 0.039816
0.988133 0.827264 0.249370
1.000003 0.836179 0.728585
1.000003 0.912425 0.911428
1.000003 0.967414 0.971802
0.028363 0.969019 0.166173
0.028586 0.968924 0.165744
0.032199 0.968354 0.163170
0.068489 0.967011 0.157235
0.599447 0.963442 0.147848
0.938864 0.955840 0.178406
1.000003 0.938191 0.622269
1.000003 0.942472 0.887953
1.000003 0.970029 0.966744
0.123569 0.993668 0.534636
0.123487 0.993637 0.533744
0.125362 0.993466 0.528956
0.150109 0.993160 0.521354
0.401467 0.992475 0.508969
0.857763 0.990740 0.500101
0.979620 0.987607 0.568779
1.000003 0.980263 0.841223
1.000003 0.981613 0.955089
0.499777 1.000003 0.796651
0.498702 1.000003 0.796216
0.495164 1.000003 0.793931
0.508458 1.000003 0.790721
0.600518 1.000003 0.786712
0.807088 1.000003 0.780991
0.951892 0.999746 0.780691
0.994785 0.998500 0.811616
1.000003 0.995338 0.935018
0.808839 1.000003 0.909991
0.808369 1.000003 0.909780
0.806128 1.000003 0.908677
0.805063 1.000003 0.907179
0.814366 1.000003 0.905547
0.858072 1.000003 0.903508
0.934864 1.000003 0.901142
0.984504 1.000003 0.902504
1.000003 1.000003 0.916602
0.003505 0.003505 0.092360
0.105387 0.003505 0.090894
0.370057 0.015006 0.062556
0.742373 0.049426 0.090694
0.939161 0.113617 0.172161
0.994965 0.285145 0.409336
1.000003 0.669717 0.739583
1.000003 0.876490 0.900591
1.000003 0.956907 0.965197
0.003505 0.082655 0.078319
0.074290 0.074292 0.074297
0.363441 0.036021 0.050391
0.742583 0.061232 0.086161
0.940132 0.121335 0.171292
0.995255 0.294363 0.413570
1.000003 0.676089 0.743674
1.000003 0.879109 0.902592
1.000003 0.957979 0.966062
0.003505 0.345728 0.005414
0.003505 0.343897 0.005201
0.290329 0.319453 0.004681
0.729406 0.259048 0.050639
0.942459 0.215431 0.154329
0.996393 0.369200 0.427593
1.000003 0.709412 0.762201
1.000003 0.891698 0.911909
1.000003 0.963025 0.970104
0.003721 0.697583 0.012191
0.003825 0.697226 0.012011
0.016425 0.687396 0.011170
0.605654 0.657116 0.009020
0.927833 0.581941 0.097809
0.995658 0.574546 0.389980
1.000003 0.754349 0.767511
1.000003 0.902387 0.917413
1.000003 0.966743 0.972823
0.005907 0.893304 0.046362
0.006097 0.893336 0.046297
0.009973 0.891089 0.045256
0.170398 0.884250 0.041376
0.834312 0.867535 0.041787
0.988123 0.827199 0.252451
1.000003 0.836161 0.729094
1.000003 0.912430 0.911482
1.000003 0.967422 0.971815
0.028247 0.968914 0.167112
0.028602 0.968948 0.167254
0.032208 0.968377 0.164778
0.068470 0.967032 0.158951
0.599447 0.963462 0.149618
0.938913 0.955859 0.180648
1.000003 0.938221 0.623032
1.000003 0.942491 0.888021
1.000003 0.970039 0.966757
0.123146 0.993635 0.534293
0.123655 0.993649 0.534721
0.125523 0.993478 0.529990
0.150263 0.993172 0.522477
0.401648 0.992488 0.510204
0.857823 0.990753 0.501403
0.979644 0.987622 0.569812
1.000003 0.980282 0.841344
1.000003 0.981625 0.955106
0.498360 1.000003 0.796272
0.499341 1.000003 0.796493
0.495793 1.000003 0.794213
0.509026 1.000003 0.791015
0.600874 1.000003 0.787019
0.807198 1.000003 0.781313
0.951925 0.999752 0.781013
0.994796 0.998506 0.811884
1.000003 0.995347 0.935054
0.808320 1.000003 0.909783
0.808609 1.000003 0.909892
0.806367 1.000003 0.908789
0.805297 1.000003 0.907294
0.814572 1.000003 0.905664
0.858199 1.000003 0.903628
0.934911 1.000003 0.901263
0.984519 1.000003 0.902623
1.000003 1.000003 0.916704
0.014864 0.004624 0.322964
0.057410 0.004472 0.322994
0.363534 0.004418 0.319735
0.739251 0.032662 0.292258
0.938281 0.100794 0.291136
0.994846 0.274446 0.457197
1.000003 0.666728 0.745467
1.000003 0.875979 0.901039
1.000003 0.956801 0.965206
0.007394 0.009496 0.321319
0.034719 0.008316 0.320365
0.356625 0.006663 0.316860
0.739325 0.040928 0.288322
0.939242 0.107797 0.289598
0.995136 0.283374 0.460956
1.000003 0.673173 0.749336
1.000003 0.878603 0.903010
1.000003 0.957873 0.966067
0.003505 0.294534 0.284297
0.003505 0.298694 0.288862
0.279661 0.279669 0.279691
0.724150 0.219847 0.248276
0.941119 0.191072 0.266605
0.996206 0.355980 0.472671
1.000003 0.705663 0.766128
1.000003 0.890689 0.911793
1.000003 0.962702 0.969915
0.003663 0.682227 0.088203
0.003721 0.681823 0.086994
0.013013 0.676313 0.077772
0.600700 0.641166 0.103339
0.926200 0.569114 0.164122
0.995450 0.567041 0.431559
1.000003 0.751740 0.770808
1.000003 0.901558 0.917268
1.000003 0.966471 0.972655
0.005649 0.890300 0.071250
0.005825 0.890330 0.071050
0.009413 0.889920 0.069246
0.165103 0.882796 0.067092
0.834187 0.865766 0.070364
0.987798 0.825954 0.288718
1.000003 0.835269 0.732893
1.000003 0.911846 0.911325
1.000003 0.967181 0.971649
0.027461 0.968251 0.182967
0.027824 0.968285 0.183036
0.032059 0.968384 0.182970
0.067999 0.967011 0.178749
0.598824 0.963408 0.170390
0.939100 0.955784 0.207239
1.000003 0.938291 0.629257
1.000003 0.942393 0.887829
1.000003 0.969882 0.966568
0.120849 0.993451 0.536862
0.121361 0.993465 0.537242
0.126204 0.993527 0.539014
0.150873 0.993219 0.532528
0.402218 0.992533 0.521487
0.858063 0.990799 0.513498
0.979754 0.987673 0.579247
1.000003 0.980377 0.841524
1.000003 0.981628 0.954860
0.490915 1.000003 0.794843
0.491914 1.000003 0.795056
0.498898 1.000003 0.796114
0.511805 1.000003 0.793040
0.602602 1.000003 0.789193
0.807722 1.000003 0.783650
0.952083 0.999778 0.783378
0.994848 0.998537 0.813803
1.000003 0.995395 0.934909
0.805625 1.000003 0.908785
0.805917 1.000003 0.908892
0.807577 1.000003 0.909432
0.806476 1.000003 0.907955
0.815607 1.000003 0.906348
0.858835 1.000003 0.904339
0.935143 1.000003 0.902000
0.984596 1.000003 0.903343
1.000003 1.000003 0.917312
0.036324 0.007562 0.657188
0.053915 0.007363 0.657779
0.327562 0.006069 0.658422
0.715674 0.007141 0.651064
0.931452 0.062689 0.611452
0.993562 0.224182 0.619208
1.000003 0.639666 0.765597
1.000003 0.868219 0.899553
1.000003 0.954129 0.963560
0.029835 0.010472 0.658895
0.046099 0.009996 0.658514
0.318631 0.007733 0.659089
0.714915 0.008920 0.651693
0.932344 0.067454 0.611910
0.993866 0.231498 0.621304
1.000003 0.646613 0.768670
1.000003 0.870948 0.901437
1.000003 0.955238 0.964428
0.005930 0.161897 0.655091
0.008344 0.157900 0.654749
0.228231 0.122569 0.650424
0.695421 0.079675 0.643951
0.933495 0.123883 0.604532
0.994962 0.292869 0.627131
1.000003 0.681902 0.782056
1.000003 0.883529 0.909848
1.000003 0.960228 0.968310
0.003505 0.624305 0.605379
0.003505 0.623633 0.605089
0.005733 0.615767 0.601095
0.586300 0.586316 0.586364
0.914947 0.510833 0.547438
0.993788 0.522728 0.601990
1.000003 0.731946 0.784534
1.000003 0.894200 0.914452
1.000003 0.963794 0.970796
0.004734 0.879265 0.390555
0.004852 0.879292 0.389912
0.007181 0.878779 0.384820
0.142644 0.874174 0.369133
0.831404 0.855345 0.392893
0.985212 0.817734 0.479035
1.000003 0.827937 0.748843
1.000003 0.906420 0.908215
1.000003 0.964716 0.969736
0.024912 0.966353 0.332144
0.025273 0.966389 0.331876
0.029515 0.966492 0.329868
0.064708 0.966049 0.322981
0.593493 0.962221 0.327186
0.938890 0.954385 0.372424
1.000003 0.937728 0.656595
1.000003 0.940816 0.883936
1.000003 0.968120 0.964335
0.116612 0.993075 0.574638
0.117130 0.993090 0.574839
0.122080 0.993154 0.575706
0.150223 0.993160 0.575720
0.400159 0.992451 0.570644
0.857873 0.990688 0.566816
0.979826 0.987546 0.620913
1.000003 0.980496 0.838980
1.000003 0.981208 0.951949
0.480038 1.000003 0.797612
0.481071 1.000003 0.797796
0.488424 1.000003 0.798700
0.514514 1.000003 0.799684
0.604118 1.000003 0.796644
0.808109 1.000003 0.791963
0.952223 0.999784 0.791980
0.994902 0.998545 0.820563
1.000003 0.995487 0.932205
0.801971 1.000003 0.908172
0.802265 1.000003 0.908274
0.803961 1.000003 0.908787
0.807893 1.000003 0.909406
0.816832 1.000003 0.907920
0.859571 1.000003 0.906046
0.935407 1.000003 0.903830
0.984685 1.000003 0.905159
1.000003 1.000003 0.918782
0.048474 0.009486 0.872864
0.057863 0.009332 0.873300
0.267289 0.008092 0.874539
0.695822 0.006634 0.873203
0.905791 0.013209 0.864845
0.989882 0.126928 0.834719
1.000003 0.539442 0.838054
1.000003 0.843898 0.903554
1.000003 0.946316 0.960127
0.044323 0.011124 0.874456
0.053734 0.010885 0.874398
0.256400 0.009294 0.875616
0.693603 0.007430 0.874236
0.906473 0.014699 0.866041
0.990228 0.131107 0.836012
1.000003 0.548517 0.839717
1.000003 0.847037 0.905109
1.000003 0.947553 0.960998
0.019007 0.045582 0.877549
0.023171 0.044712 0.877518
0.140145 0.037673 0.876296
0.659256 0.028511 0.875202
0.906106 0.034949 0.868832
0.991391 0.166680 0.840711
1.000003 0.595513 0.847142
1.000003 0.861563 0.912136
1.000003 0.953122 0.964911
0.004868 0.470372 0.868547
0.005273 0.468291 0.868529
0.022356 0.451060 0.867687
0.519058 0.405136 0.863542
0.887661 0.354249 0.858580
0.989328 0.376867 0.836014
1.000003 0.666942 0.849726
1.000003 0.874233 0.916164
1.000003 0.957063 0.967390
0.003663 0.847529 0.835046
0.003663 0.847505 0.835086
0.004141 0.846462 0.834729
0.164797 0.835226 0.826979
0.822012 0.822024 0.822061
0.977579 0.784976 0.802498
1.000003 0.800088 0.831629
1.000003 0.890110 0.910267
1.000003 0.957758 0.965787
0.017386 0.960414 0.731883
0.017684 0.960454 0.731741
0.021230 0.960560 0.730665
0.052770 0.960004 0.726857
0.571598 0.957112 0.716476
0.937142 0.948280 0.733668
0.999077 0.933350 0.774904
1.000003 0.935712 0.887286
1.000003 0.963230 0.959726
0.106354 0.992038 0.718501
0.106863 0.992055 0.718454
0.111760 0.992127 0.718103
0.139940 0.992133 0.716827
0.385779 0.991761 0.712415
0.855516 0.989843 0.717430
0.979594 0.986571 0.744512
1.000003 0.980201 0.849459
1.000003 0.980001 0.946058
0.463693 1.000003 0.822543
0.464743 1.000003 0.822637
0.472425 1.000003 0.823086
0.501037 1.000003 0.823497
0.602209 1.000003 0.823204
0.807106 1.000003 0.821756
0.952058 0.999660 0.823017
0.994899 0.998406 0.845124
1.000003 0.995580 0.927752
0.797728 1.000003 0.911343
0.798026 1.000003 0.911426
0.799773 1.000003 0.911842
0.803941 1.000003 0.912338
0.817530 1.000003 0.912687
0.859898 1.000003 0.911403
0.935491 1.000003 0.909728
0.984724 1.000003 0.911095
1.000003 1.000003 0.923476
0.044836 0.007966 0.965457
0.049529 0.007885 0.965663
0.137446 0.007181 0.966369
0.684138 0.006079 0.966160
0.906355 0.006091 0.963849
0.977022 0.024558 0.956621
1.000003 0.283477 0.937476
1.000003 0.785108 0.936403
1.000003 0.931225 0.961585
0.042241 0.008516 0.966251
0.047122 0.008417 0.966256
0.131426 0.007613 0.966950
0.681675 0.006365 0.966728
0.906560 0.006411 0.964399
0.977451 0.025733 0.957310
1.000003 0.290829 0.938244
1.000003 0.789381 0.937258
1.000003 0.932737 0.962311
0.023098 0.020333 0.968434
0.025754 0.020054 0.968449
0.082380 0.017608 0.968136
0.632285 0.013933 0.967816
0.900147 0.014173 0.965460
0.978763 0.037850 0.959912
1.000003 0.338463 0.941842
1.000003 0.809192 0.941294
1.000003 0.939543 0.965635
0.005845 0.202839 0.966027
0.006233 0.200444 0.966043
0.019863 0.178890 0.965774
0.406050 0.136596 0.964364
0.870721 0.108053 0.962947
0.976427 0.127082 0.959330
1.000003 0.463145 0.944812
1.000003 0.826953 0.944721
1.000003 0.944272 0.967976
0.004835 0.778785 0.957269
0.004960 0.778385 0.957303
0.007266 0.774509 0.957284
0.077436 0.760397 0.956326
0.787128 0.730047 0.953619
0.964227 0.703767 0.950880
1.000003 0.724783 0.941059
1.000003 0.853972 0.943791
1.000003 0.945412 0.967134
0.006159 0.946295 0.939762
0.006243 0.946329 0.939808
0.007366 0.946362 0.939952
0.024710 0.945391 0.939505
0.532666 0.941199 0.937146
0.932737 0.932745 0.932767
0.995555 0.918158 0.924657
1.000003 0.922093 0.933461
1.000003 0.954027 0.962232
0.080658 0.989080 0.900565
0.081093 0.989099 0.900555
0.085321 0.989181 0.900450
0.110067 0.989177 0.899965
0.344348 0.988700 0.898059
0.847439 0.987073 0.893571
0.978617 0.983309 0.900594
1.000003 0.977780 0.911413
1.000003 0.977489 0.950258
0.426132 1.000003 0.894278
0.427235 1.000003 0.894278
0.435376 1.000003 0.894261
0.466602 1.000003 0.894117
0.583203 1.000003 0.893450
0.801381 1.000003 0.891342
0.950903 0.999098 0.894312
0.994713 0.997766 0.904400
1.000003 0.995327 0.936651
0.790902 1.000003 0.927921
0.791215 1.000003 0.927959
0.793063 1.000003 0.928146
0.797576 1.000003 0.928353
0.812493 1.000003 0.928430
0.858717 1.000003 0.928087
0.934918 1.000003 0.927990
0.984577 1.000003 0.929506
1.000003 1.000003 0.938273
0.025321 0.004955 0.996774
0.027008 0.004930 0.996848
0.053223 0.004729 0.997139
0.668451 0.004250 0.997017
0.925238 0.004104 0.996492
0.982511 0.005116 0.994373
0.998238 0.045272 0.989365
1.000003 0.633121 0.978376
1.000003 0.901519 0.976679
0.023835 0.005009 0.997063
0.025678 0.004985 0.997070
0.050807 0.004786 0.997356
0.665788 0.004279 0.997230
0.925800 0.004130 0.996707
0.982784 0.005218 0.994591
0.998395 0.046457 0.989663
1.000003 0.640608 0.978742
1.000003 0.903611 0.977082
0.014048 0.006219 0.998067
0.015112 0.006177 0.998076
0.033381 0.005825 0.998039
0.615534 0.004862 0.997887
0.922593 0.004624 0.997343
0.982379 0.007252 0.995141
0.999013 0.056545 0.990940
1.000003 0.675292 0.980547
1.000003 0.912976 0.979011
0.003936 0.071835 0.996638
0.003990 0.071093 0.996650
0.004965 0.065130 0.996627
0.183804 0.045456 0.995959
0.862610 0.036907 0.995423
0.974977 0.042058 0.994105
0.998999 0.105014 0.991538
1.000003 0.707365 0.982707
1.000003 0.919136 0.980942
0.003505 0.681505 0.993954
0.003505 0.680280 0.993964
0.003721 0.667878 0.993921
0.038977 0.609703 0.993260
0.734687 0.533729 0.992348
0.957853 0.475793 0.991431
0.996882 0.513206 0.989809
1.000003 0.767915 0.983718
1.000003 0.920884 0.981861
0.006471 0.921954 0.988192
0.006551 0.921912 0.988213
0.007699 0.921411 0.988285
0.022262 0.918863 0.988149
0.363654 0.911220 0.987406
0.918670 0.897899 0.985923
0.990274 0.889289 0.984667
1.000003 0.893544 0.980891
1.000003 0.936880 0.980743
0.038169 0.983394 0.980243
0.038417 0.983413 0.980266
0.040962 0.983491 0.980369
0.056904 0.983428 0.980395
0.220465 0.982671 0.979980
0.837009 0.980353 0.978644
0.976758 0.976762 0.976775
1.000003 0.971322 0.973594
1.000003 0.971583 0.975680
0.334812 0.998872 0.965782
0.335980 0.998880 0.965789
0.344931 0.998918 0.965814
0.380319 0.998948 0.965790
0.523701 0.998889 0.965521
0.788905 0.998538 0.964507
0.947921 0.997694 0.962660
0.994211 0.996134 0.965258
1.000003 0.994019 0.967617
0.775868 1.000003 0.961962
0.776216 1.000003 0.961968
0.778279 1.000003 0.961992
0.783408 1.000003 0.961999
0.800532 1.000003 0.961915
0.852691 1.000003 0.961515
0.932713 1.000003 0.960526
0.984001 1.000003 0.961937
1.000003 1.000003 0.965658
0.006983 0.003663 1.000003
0.007193 0.003663 1.000003
0.011278 0.003663 1.000003
0.117641 0.003505 1.000003
0.960908 0.003505 1.000003
0.996021 0.003505 1.000003
1.000003 0.004516 1.000003
1.000003 0.082634 0.999982
1.000003 0.840252 0.993878
0.006604 0.003663 1.000003
0.006852 0.003663 1.000003
0.010520 0.003663 1.000003
0.111910 0.003505 1.000003
0.961838 0.003505 1.000003
0.996331 0.003505 1.000003
1.000003 0.004530 1.000003
1.000003 0.084233 1.000003
1.000003 0.843579 0.994047
0.004889 0.003663 1.000003
0.004980 0.003663 1.000003
0.006776 0.003663 1.000003
0.077038 0.003505 1.000003
0.963630 0.003505 1.000003
0.997181 0.003505 1.000003
1.000003 0.005112 1.000003
1.000003 0.095656 1.000003
1.000003 0.858317 0.994893
0.003505 0.004930 1.000003
0.003505 0.004899 1.000003
0.003721 0.004705 1.000003
0.017440 0.004230 1.000003
0.936878 0.003761 1.000003
0.991975 0.003990 1.000003
1.000003 0.022371 1.000003
1.000003 0.135524 1.000003
1.000003 0.867101 0.996001
0.003505 0.517158 1.000003
0.003505 0.514317 1.000003
0.003505 0.488886 1.000003
0.003505 0.364915 1.000003
0.592000 0.174052 1.000003
0.954776 0.145578 1.000003
0.996478 0.171541 1.000003
1.000003 0.366820 1.000003
1.000003 0.870262 0.996980
0.003505 0.910176 1.000003
0.003505 0.909993 1.000003
0.003505 0.907785 1.000003
0.003721 0.893449 1.000003
0.137656 0.867331 1.000003
0.900636 0.842361 1.000003
0.987927 0.828010 1.000003
1.000003 0.837268 0.999382
1.000003 0.904247 0.997055
0.019308 0.975238 0.998561
0.019407 0.975241 0.998570
0.020661 0.975216 0.998613
0.029460 0.974880 0.998624
0.108708 0.973372 0.998466
0.790751 0.969617 0.997992
0.971523 0.964376 0.997265
0.999046 0.961543 0.996734
1.000003 0.961504 0.995284
0.185484 0.996654 0.995156
0.186085 0.996662 0.995166
0.190933 0.996703 0.995216
0.213334 0.996728 0.995260
0.358376 0.996620 0.995217
0.752833 0.996092 0.994905
0.945091 0.994920 0.994223
0.993450 0.993452 0.993460
1.000003 0.991339 0.992184
0.742050 1.000003 0.989512
0.742464 1.000003 0.989518
0.744953 1.000003 0.989544
0.751349 1.000003 0.989566
0.773040 1.000003 0.989544
0.837309 1.000003 0.989359
0.929303 1.000003 0.988829
0.982856 1.000003 0.988079
1.000003 1.000003 0.989082
0.003663 0.003505 1.000003
0.003663 0.003505 1.000003
0.003721 0.003505 1.000003
0.006150 0.003505 1.000003
0.952118 0.003505 1.000003
1.000003 0.003505 1.000003
1.000003 0.003505 1.000003
1.000003 0.004434 1.000003
1.000003 0.153056 1.000003
0.003663 0.003505 1.000003
0.003663 0.003505 1.000003
0.003721 0.003505 1.000003
0.005838 0.003505 1.000003
0.950651 0.003505 1.000003
1.000003 0.003505 1.000003
1.000003 0.003505 1.000003
1.000003 0.004434 1.000003
1.000003 0.155868 1.000003
0.003505 0.003505 1.000003
0.003505 0.003505 1.000003
0.003505 0.003505 1.000003
0.004564 0.003505 1.000003
0.937121 0.003505 1.000003
1.000003 0.003505 1.000003
1.000003 0.003505 1.000003
1.000003 0.004643 1.000003
1.000003 0.173706 1.000003
0.003505 0.003505 1.000003
0.003505 0.003505 1.000003
0.003505 0.003505 1.000003
0.003663 0.003505 1.000003
0.847019 0.003505 1.000003
1.000003 0.003505 1.000003
1.000003 0.003505 1.000003
1.000003 0.013573 1.000003
1.000003 0.220596 1.000003
0.003505 0.017762 1.000003
0.003505 0.017190 1.000003
0.003505 0.014263 1.000003
0.003505 0.009533 1.000003
0.022372 0.004544 1.000003
0.990636 0.004079 1.000003
1.000003 0.020218 1.000003
1.000003 0.093508 1.000003
1.000003 0.413850 1.000003
0.003505 0.933052 1.000003
0.003505 0.932926 1.000003
0.003505 0.931358 1.000003
0.003505 0.921172 1.000003
0.003505 0.840514 1.000003
0.864891 0.716167 1.000003
0.986505 0.683290 1.000003
1.000003 0.713148 1.000003
1.000003 0.801529 1.000003
0.003505 0.976291 1.000003
0.003505 0.976284 1.000003
0.003505 0.975909 1.000003
0.003505 0.972410 1.000003
0.020578 0.963434 1.000003
0.664742 0.955648 1.000003
0.965276 0.947280 1.000003
0.998111 0.943178 1.000003
1.000003 0.945337 1.000003
0.073357 0.993766 1.000003
0.073469 0.993771 1.000003
0.074818 0.993788 1.000003
0.083332 0.993760 1.000003
0.137188 0.993505 1.000003
0.623006 0.992595 1.000003
0.931982 0.990830 1.000003
0.991422 0.988787 1.000003
1.000003 0.987765 1.000003
0.650787 1.000003 1.000003
0.651360 1.000003 1.000003
0.654934 1.000003 1.000003
0.665003 1.000003 1.000003
0.700502 1.000003 1.000003
0.799100 1.000003 1.000003
0.920853 1.000003 1.000003
0.981963 1.000003 1.000003
1.000001 1.000003 1.000003
