luts/RED_709_C4R2.cube
# RED Digital Cinema Output Transform LUT for IPP2
# LUT Name = RWG_Log3G10 to REC709_BT1886 with NO_CONTRAST and R_2_Medium size_33 v1.13
# Generated by version 1.13
# Settings used in creation of this LUT are:
# Development Color Space = REC709
# Output Gamma Curve = BT1886
# Output Tonemap = NO_CONTRAST
# Highlight Rolloff = Rolloff 2 - medium
# Resolution = 33 x 33 x 33
TITLE "RED IPP2 LUT to map REDWideGamutRGB/Log3G10 to REC709/BT1886/NO_CONTRAST/Rolloff 2 - medium"
LUT_3D_SIZE 9
0.000000 0.000000 0.000000
0.188065 0.003505 0.003505
0.437902 0.007747 0.011917
0.729690 0.033147 0.048466
0.909579 0.082541 0.117010
0.983229 0.187741 0.269991
1.000003 0.504082 0.611709
1.000003 0.825699 0.860338
1.000003 0.952756 0.961809
0.003505 0.180021 0.003505
0.135075 0.161329 0.003505
0.421699 0.117431 0.005121
0.735163 0.089804 0.037421
0.916702 0.120450 0.113688
0.986117 0.224747 0.285635
1.000003 0.552808 0.640785
1.000003 0.844536 0.874562
1.000003 0.958912 0.966786
0.003505 0.422858 0.003663
0.004092 0.410572 0.003505
0.339697 0.384307 0.003505
0.712831 0.331491 0.018448
0.916341 0.277624 0.095573
0.987543 0.322007 0.284346
1.000003 0.606219 0.661431
1.000003 0.860611 0.885731
1.000003 0.963852 0.970731
0.003663 0.696995 0.006823
0.004021 0.691333 0.006587
0.051721 0.679365 0.005969
0.598335 0.653232 0.005285
0.895429 0.591130 0.058302
0.985237 0.548797 0.238171
1.000003 0.675592 0.657800
1.000003 0.872140 0.890054
1.000003 0.966604 0.972705
0.004752 0.868061 0.030439
0.005399 0.866053 0.029852
0.013213 0.862507 0.028389
0.257923 0.854550 0.025429
0.799812 0.837773 0.025012
0.973715 0.796299 0.156405
1.000003 0.789503 0.603946
1.000003 0.885730 0.883894
1.000003 0.967275 0.972214
0.015859 0.952649 0.105478
0.017036 0.951933 0.104034
0.022883 0.950941 0.101885
0.065244 0.949002 0.097638
0.564139 0.944517 0.091696
0.913800 0.935448 0.105243
0.998379 0.912667 0.470817
1.000003 0.919858 0.859977
1.000003 0.968350 0.968876
0.072659 0.987688 0.377186
0.072988 0.987444 0.372483
0.077155 0.987158 0.367231
0.100941 0.986726 0.360168
0.285781 0.985805 0.348568
0.803323 0.983631 0.340156
0.968715 0.979375 0.411814
1.000003 0.968602 0.805507
1.000003 0.976181 0.960344
0.356033 0.999981 0.747061
0.350993 0.999908 0.744277
0.350803 0.999828 0.741344
0.372594 0.999730 0.738092
0.476161 0.999571 0.733922
0.721309 0.999199 0.727660
0.923179 0.998303 0.724599
0.991987 0.996566 0.764141
1.000003 0.992185 0.940922
0.809581 1.000003 0.910312
0.807121 1.000003 0.909201
0.804911 1.000003 0.908048
0.804241 1.000003 0.906838
0.809994 1.000003 0.905513
0.837648 1.000003 0.903868
0.905998 1.000003 0.901558
0.975323 1.000003 0.900897
1.000003 1.000003 0.916274
0.003505 0.003505 0.152696
0.183178 0.003505 0.152647
0.436669 0.005214 0.138499
0.729584 0.026555 0.127365
0.909743 0.076967 0.164895
0.983344 0.184241 0.303332
1.000003 0.503900 0.620455
1.000003 0.826540 0.861724
1.000003 0.953112 0.962143
0.003505 0.141940 0.132763
0.124363 0.124365 0.124374
0.418961 0.068944 0.093420
0.733961 0.073007 0.101701
0.916405 0.112318 0.157956
0.986089 0.219899 0.317359
1.000003 0.551231 0.647217
1.000003 0.844606 0.875218
1.000003 0.958998 0.966893
0.003505 0.402835 0.013580
0.003825 0.396231 0.010416
0.336060 0.368537 0.009089
0.711381 0.316402 0.051921
0.916040 0.265663 0.128741
0.987522 0.316181 0.312816
1.000003 0.605125 0.666789
1.000003 0.860718 0.886290
1.000003 0.963940 0.970830
0.003505 0.688976 0.015672
0.003917 0.687529 0.014583
0.048105 0.674989 0.013527
0.597601 0.648157 0.011597
0.895069 0.585925 0.077748
0.985209 0.545395 0.259933
1.000003 0.674907 0.662862
1.000003 0.872260 0.890576
1.000003 0.966692 0.972803
0.004662 0.865582 0.038060
0.005326 0.865747 0.037584
0.012815 0.862109 0.036451
0.255591 0.854035 0.033424
0.800158 0.837137 0.033307
0.973679 0.795742 0.169537
1.000003 0.789341 0.609778
1.000003 0.885846 0.884437
1.000003 0.967362 0.972314
0.015456 0.951847 0.110718
0.017031 0.952076 0.110970
0.022827 0.951074 0.109136
0.064950 0.949123 0.105107
0.563976 0.944627 0.099212
0.914127 0.935553 0.114006
0.998380 0.912823 0.478765
1.000003 0.919995 0.860622
1.000003 0.968432 0.968984
0.071337 0.987427 0.377629
0.073449 0.987535 0.379735
0.077585 0.987248 0.374765
0.101339 0.986816 0.368042
0.286248 0.985897 0.356829
0.803670 0.983728 0.348607
0.968884 0.979481 0.419507
1.000003 0.968728 0.806475
1.000003 0.976257 0.960470
0.348384 0.999904 0.744831
0.354396 0.999940 0.746242
0.354089 0.999861 0.743348
0.375592 0.999764 0.740145
0.478564 0.999604 0.736040
0.722117 0.999235 0.729863
0.923415 0.998342 0.726816
0.992056 0.996611 0.765952
1.000003 0.992240 0.941118
0.806842 1.000003 0.909219
0.808394 1.000003 0.909799
0.806181 1.000003 0.908649
0.805482 1.000003 0.907445
0.811132 1.000003 0.906126
0.838485 1.000003 0.904490
0.906370 1.000003 0.902193
0.975433 1.000003 0.901526
1.000003 1.000003 0.916805
0.005558 0.003663 0.371150
0.161500 0.003663 0.373578
0.430099 0.003721 0.370342
0.725541 0.015052 0.351431
0.907952 0.062871 0.332416
0.982921 0.171128 0.392475
1.000003 0.493814 0.640060
1.000003 0.824922 0.862791
1.000003 0.952801 0.962035
0.003505 0.032809 0.373476
0.074049 0.021392 0.370288
0.411233 0.014647 0.366116
0.729081 0.044226 0.339826
0.914494 0.093024 0.325347
0.985678 0.204760 0.403452
1.000003 0.542456 0.663734
1.000003 0.843105 0.875942
1.000003 0.958700 0.966765
0.003505 0.353188 0.338177
0.003505 0.345476 0.334543
0.324290 0.324299 0.324326
0.703709 0.274203 0.295848
0.913313 0.228202 0.291304
0.986958 0.294067 0.398320
1.000003 0.596248 0.680296
1.000003 0.858633 0.886246
1.000003 0.963430 0.970508
0.003505 0.669019 0.185505
0.003721 0.667310 0.178825
0.038436 0.659366 0.164747
0.592768 0.629876 0.178925
0.891847 0.567750 0.188431
0.984553 0.531924 0.341423
1.000003 0.669051 0.675400
1.000003 0.870493 0.890447
1.000003 0.966239 0.972505
0.004442 0.860407 0.083888
0.005028 0.860571 0.082060
0.011543 0.859281 0.078269
0.248078 0.850718 0.078013
0.799438 0.833274 0.082645
0.972816 0.792578 0.222748
1.000003 0.787198 0.624341
1.000003 0.884558 0.884279
1.000003 0.966945 0.972020
0.014712 0.950594 0.136856
0.016290 0.950827 0.136557
0.022352 0.950814 0.135379
0.063698 0.948795 0.133297
0.562208 0.944214 0.128692
0.914248 0.935065 0.149404
0.998193 0.912645 0.500075
1.000003 0.919590 0.860445
1.000003 0.968095 0.968664
0.069746 0.987105 0.391211
0.071866 0.987214 0.392841
0.077744 0.987288 0.394007
0.101370 0.986849 0.389034
0.285757 0.985922 0.379693
0.803784 0.983745 0.372773
0.969021 0.979498 0.441495
1.000003 0.968829 0.806825
1.000003 0.976141 0.960068
0.340577 0.999820 0.744077
0.346464 0.999856 0.745410
0.357126 0.999888 0.746657
0.378321 0.999790 0.743689
0.480691 0.999631 0.739860
0.722799 0.999262 0.734004
0.923623 0.998372 0.731130
0.992121 0.996646 0.769369
1.000003 0.992291 0.940694
0.804033 1.000003 0.908233
0.805591 1.000003 0.908804
0.807424 1.000003 0.909355
0.806697 1.000003 0.908171
0.812243 1.000003 0.906876
0.839299 1.000003 0.905270
0.906731 1.000003 0.903008
0.975539 1.000003 0.902347
1.000003 1.000003 0.915629
0.020707 0.005038 0.639795
0.114891 0.004769 0.643758
0.406882 0.004298 0.643653
0.705873 0.005033 0.637439
0.900531 0.037252 0.607120
0.980754 0.136637 0.588434
1.000003 0.450754 0.688610
1.000003 0.815099 0.863307
1.000003 0.950305 0.960535
0.008586 0.017647 0.652366
0.060776 0.014516 0.651160
0.377984 0.010438 0.650775
0.706232 0.011989 0.644194
0.906519 0.057231 0.611034
0.983580 0.164125 0.597024
1.000003 0.502938 0.705772
1.000003 0.833988 0.875616
1.000003 0.956379 0.965300
0.003761 0.251981 0.643119
0.007914 0.240028 0.642015
0.281894 0.212520 0.636417
0.677275 0.171733 0.630496
0.903973 0.147061 0.596657
0.984780 0.237223 0.594008
1.000003 0.562992 0.717681
1.000003 0.850177 0.885300
1.000003 0.961249 0.969074
0.003505 0.617886 0.597994
0.003505 0.615053 0.596892
0.021977 0.604448 0.591420
0.578457 0.578473 0.578521
0.878715 0.515186 0.543359
0.981615 0.485222 0.558242
1.000003 0.644085 0.712882
1.000003 0.861938 0.888609
1.000003 0.963863 0.970854
0.003990 0.846997 0.419923
0.004334 0.847123 0.416782
0.008478 0.845583 0.410072
0.304940 0.829477 0.444838
0.795821 0.820213 0.414565
0.968916 0.781139 0.444381
1.000003 0.777858 0.668230
1.000003 0.878193 0.882199
1.000003 0.964712 0.970344
0.012784 0.947677 0.306730
0.014277 0.947928 0.304429
0.020158 0.947907 0.300516
0.059362 0.946981 0.291749
0.555074 0.942074 0.299568
0.913697 0.932592 0.334722
0.997281 0.911238 0.564120
1.000003 0.917256 0.857959
1.000003 0.966235 0.966810
0.067011 0.986540 0.457623
0.069131 0.986653 0.458157
0.075136 0.986729 0.458196
0.100042 0.986673 0.456519
0.281772 0.985708 0.453527
0.803053 0.983481 0.451205
0.969043 0.979194 0.513014
1.000003 0.968834 0.805754
1.000003 0.975339 0.957724
0.331776 0.999708 0.749913
0.337513 0.999745 0.751021
0.348303 0.999777 0.752047
0.315213 0.998492 0.722557
0.481739 0.999632 0.749981
0.723000 0.999260 0.745234
0.923722 0.998365 0.743039
0.992170 0.996639 0.778640
1.000003 0.992334 0.937993
0.801079 1.000003 0.907816
0.802647 1.000003 0.908364
0.804518 1.000003 0.908891
0.807828 1.000003 0.909387
0.813264 1.000003 0.908177
0.840037 1.000003 0.906671
0.907049 1.000003 0.904520
0.975633 1.000003 0.903909
1.000003 1.000003 0.918724
0.036052 0.006998 0.833675
0.086250 0.006625 0.836621
0.371453 0.005868 0.837633
0.691905 0.005196 0.835880
0.876148 0.008556 0.828319
0.975659 0.080107 0.800148
1.000003 0.338126 0.792621
1.000003 0.788551 0.872255
1.000003 0.944084 0.957642
0.023572 0.014675 0.844364
0.061051 0.013196 0.844240
0.336153 0.010875 0.845120
0.685730 0.008720 0.843128
0.880781 0.015207 0.835998
0.978654 0.097279 0.807721
1.000003 0.389813 0.802146
1.000003 0.809758 0.882287
1.000003 0.950676 0.962446
0.007756 0.089430 0.845332
0.020805 0.081560 0.845319
0.217234 0.066445 0.843316
0.643457 0.051505 0.841828
0.876496 0.052253 0.836300
0.979645 0.143654 0.810145
1.000003 0.460540 0.808979
1.000003 0.828082 0.890336
1.000003 0.955965 0.966270
0.003972 0.501316 0.833717
0.005135 0.493190 0.833750
0.038883 0.473872 0.832158
0.524224 0.436332 0.827540
0.853061 0.394850 0.822790
0.975100 0.370756 0.800086
1.000003 0.573371 0.807554
1.000003 0.841897 0.893224
1.000003 0.958776 0.968042
0.003505 0.814651 0.800519
0.003663 0.814471 0.800750
0.004631 0.812057 0.799632
0.188758 0.803937 0.795253
0.786300 0.786313 0.786353
0.959328 0.747230 0.764717
1.000003 0.747880 0.785754
1.000003 0.861702 0.887291
1.000003 0.959347 0.967115
0.008436 0.940075 0.692995
0.009466 0.940340 0.692067
0.014159 0.940283 0.690176
0.048927 0.939163 0.685261
0.533320 0.935433 0.674429
0.911455 0.924789 0.690856
0.994967 0.905110 0.723006
1.000003 0.910919 0.864681
1.000003 0.961785 0.963215
0.060412 0.985117 0.647435
0.062465 0.985242 0.646805
0.068373 0.985325 0.645804
0.093175 0.985262 0.643515
0.266882 0.984726 0.637596
0.799610 0.982312 0.644202
0.968702 0.977844 0.675103
1.000003 0.968254 0.819242
1.000003 0.973455 0.953175
0.318667 0.999490 0.778657
0.324238 0.999529 0.779231
0.334955 0.999564 0.779733
0.368230 0.999582 0.780016
0.478911 0.999543 0.779598
0.721483 0.999152 0.778080
0.923443 0.998231 0.777946
0.992164 0.996486 0.806157
1.000003 0.992342 0.933156
0.797686 1.000003 0.909748
0.799274 1.000003 0.910222
0.801194 1.000003 0.910679
0.804668 1.000003 0.911104
0.813984 1.000003 0.911447
0.840500 1.000003 0.910289
0.907212 1.000003 0.908524
0.975684 1.000003 0.908119
1.000003 1.000003 0.922006
0.041983 0.007622 0.939980
0.069723 0.007298 0.941590
0.297784 0.006535 0.942325
0.679586 0.005835 0.942022
0.874706 0.005688 0.939586
0.959376 0.017236 0.932133
0.999432 0.183840 0.910288
1.000003 0.724923 0.910410
1.000003 0.932328 0.956988
0.031975 0.011356 0.946041
0.055303 0.010607 0.946141
0.252336 0.009046 0.946795
0.671060 0.007710 0.946421
0.876725 0.007616 0.943871
0.962632 0.022729 0.937091
1.000003 0.209463 0.915464
1.000003 0.752388 0.916298
1.000003 0.939997 0.961364
0.013689 0.041050 0.947517
0.024089 0.038474 0.947672
0.130133 0.032510 0.946908
0.604105 0.027013 0.946586
0.865340 0.023608 0.944592
0.963357 0.041642 0.939570
1.000003 0.253450 0.919572
1.000003 0.776339 0.921327
1.000003 0.946146 0.964917
0.005363 0.293982 0.944698
0.007641 0.280588 0.944856
0.041235 0.246054 0.944222
0.439885 0.194980 0.942608
0.833005 0.155157 0.941074
0.958871 0.153876 0.937389
1.000003 0.377320 0.921050
1.000003 0.795271 0.924124
1.000003 0.949369 0.966652
0.004385 0.746214 0.934782
0.004945 0.744039 0.935033
0.010280 0.738070 0.934788
0.116391 0.723488 0.933446
0.751345 0.695710 0.930352
0.943635 0.668600 0.927311
0.997926 0.670818 0.915034
1.000003 0.825847 0.922406
1.000003 0.950142 0.965949
0.004449 0.923011 0.914748
0.004662 0.923224 0.915055
0.005774 0.922980 0.915071
0.024865 0.921262 0.914183
0.500390 0.916115 0.911315
0.906212 0.906220 0.906247
0.990424 0.886738 0.895437
1.000003 0.894968 0.910961
1.000003 0.953594 0.962139
0.044940 0.981408 0.862449
0.046670 0.981548 0.862307
0.051773 0.981637 0.862002
0.073708 0.981546 0.861134
0.234942 0.980884 0.858578
0.789325 0.978906 0.853104
0.967512 0.973837 0.862204
1.000003 0.965291 0.882435
1.000003 0.970075 0.952193
0.291060 0.998901 0.855122
0.296287 0.998947 0.855120
0.306519 0.998986 0.855065
0.339574 0.999007 0.854842
0.458425 0.998963 0.854061
0.714395 0.998711 0.851784
0.921985 0.997696 0.854781
0.991989 0.995861 0.869531
1.000003 0.992102 0.934307
0.792677 1.000003 0.919969
0.794314 1.000003 0.920263
0.796320 1.000003 0.920542
0.800020 1.000003 0.920793
0.810067 1.000003 0.920963
0.839999 1.000003 0.920881
0.906829 1.000003 0.920259
0.975583 1.000003 0.920496
1.000003 1.000003 0.931737
0.032274 0.005794 0.987495
0.044430 0.005620 0.988161
0.119950 0.005264 0.988552
0.671120 0.004740 0.988389
0.886865 0.004564 0.987769
0.964500 0.005306 0.985493
0.992435 0.033205 0.979547
1.000003 0.545433 0.964847
1.000003 0.908650 0.967833
0.025104 0.006442 0.990023
0.035862 0.006243 0.990100
0.099287 0.005764 0.990452
0.663532 0.005052 0.990260
0.890051 0.004835 0.989635
0.966720 0.006010 0.987351
0.993782 0.038472 0.981857
1.000003 0.592310 0.967501
1.000003 0.918662 0.970681
0.012551 0.013189 0.991093
0.018040 0.012412 0.991194
0.059054 0.010748 0.991022
0.587927 0.008232 0.990779
0.876164 0.007657 0.990088
0.963781 0.012753 0.987688
0.994549 0.051883 0.983463
1.000003 0.633586 0.969943
1.000003 0.926639 0.973142
0.004352 0.103353 0.989303
0.004873 0.098668 0.989405
0.012260 0.087906 0.989241
0.256937 0.067209 0.988438
0.813415 0.056062 0.987925
0.954702 0.054120 0.986613
0.994134 0.101730 0.983718
1.000003 0.668471 0.972066
1.000003 0.930638 0.974764
0.003761 0.629149 0.986382
0.003917 0.622121 0.986478
0.005754 0.601409 0.986292
0.070618 0.554311 0.985613
0.696121 0.490890 0.984588
0.934086 0.435687 0.983551
0.991237 0.447088 0.981526
1.000003 0.733073 0.972899
1.000003 0.931665 0.975239
0.005430 0.890268 0.979853
0.005798 0.889873 0.980009
0.007724 0.888591 0.980052
0.026857 0.884714 0.979779
0.352996 0.875609 0.978882
0.887792 0.860045 0.977144
0.983127 0.848031 0.975512
1.000003 0.858052 0.969787
1.000003 0.938114 0.973996
0.018866 0.973618 0.969449
0.019777 0.973759 0.969616
0.022701 0.973825 0.969733
0.036337 0.973625 0.969679
0.150126 0.972604 0.969114
0.774765 0.969820 0.967523
0.965012 0.965017 0.965033
1.000003 0.956621 0.960362
1.000003 0.962835 0.968776
0.230300 0.997354 0.947025
0.234546 0.997407 0.947042
0.243051 0.997454 0.947032
0.270897 0.997476 0.946942
0.394801 0.997415 0.946577
0.696507 0.997092 0.945410
0.917746 0.996198 0.943000
0.991444 0.994083 0.947269
1.000003 0.990837 0.957234
0.781866 1.000003 0.948346
0.783632 1.000003 0.948413
0.785822 1.000003 0.948469
0.789925 1.000003 0.948503
0.801167 1.000003 0.948471
0.834419 1.000003 0.948220
0.904722 1.000003 0.947404
0.975024 1.000003 0.948636
1.000003 1.000003 0.954745
0.011213 0.003873 1.000003
0.013725 0.003825 1.000003
0.027784 0.003761 1.000003
0.235230 0.003663 1.000003
0.925485 0.003505 1.000003
0.983022 0.003663 1.000003
0.998025 0.004208 1.000003
1.000003 0.066284 0.997671
1.000003 0.850997 0.989321
0.008012 0.003825 1.000003
0.010114 0.003825 1.000003
0.020956 0.003761 1.000003
0.188184 0.003663 1.000003
0.931691 0.003505 1.000003
0.985832 0.003505 1.000003
0.998957 0.004250 1.000003
1.000003 0.073263 0.998488
1.000003 0.866910 0.990488
0.005231 0.003990 1.000003
0.005884 0.003972 1.000003
0.011728 0.003897 1.000003
0.122016 0.003721 1.000003
0.928615 0.003663 1.000003
0.985996 0.003663 1.000003
0.998885 0.004965 1.000003
1.000003 0.086183 0.999132
1.000003 0.879378 0.991593
0.003663 0.008854 1.000003
0.003721 0.008229 1.000003
0.004092 0.007375 1.000003
0.035080 0.005897 1.000003
0.876850 0.004692 1.000003
0.974241 0.005126 1.000003
0.995573 0.021107 1.000003
1.000003 0.121173 0.999473
1.000003 0.884971 0.992675
0.003505 0.356408 1.000003
0.003505 0.341348 1.000003
0.003505 0.310439 1.000003
0.003825 0.233417 1.000003
0.517896 0.139980 1.000003
0.926965 0.117776 1.000003
0.990252 0.127504 1.000003
1.000003 0.274853 0.999225
1.000003 0.886373 0.993649
0.003505 0.861944 1.000003
0.003505 0.860306 1.000003
0.003505 0.855037 1.000003
0.004079 0.833775 1.000003
0.127885 0.799339 0.999860
0.858859 0.765618 0.999350
0.979282 0.742497 0.998829
1.000003 0.760960 0.997908
1.000003 0.901393 0.994033
0.010090 0.960152 0.997123
0.010497 0.960125 0.997187
0.012137 0.959942 0.997232
0.020092 0.959213 0.997213
0.077164 0.956990 0.997026
0.695220 0.952082 0.996539
0.956593 0.944559 0.995712
0.998056 0.939968 0.994964
1.000003 0.947256 0.992634
0.121842 0.994252 0.992416
0.124062 0.994312 0.992485
0.128908 0.994360 0.992547
0.145557 0.994372 0.992583
0.225765 0.994254 0.992534
0.628518 0.993744 0.992238
0.912064 0.992447 0.991479
0.990393 0.990396 0.990404
1.000003 0.987226 0.988630
0.752740 1.000003 0.983875
0.754814 1.000003 0.983902
0.757435 1.000003 0.983924
0.762474 1.000003 0.983935
0.776459 1.000003 0.983911
0.817255 1.000003 0.983769
0.899192 1.000003 0.983290
0.973444 1.000003 0.982337
1.000003 1.000003 0.984065
0.003721 0.003505 1.000003
0.003721 0.003505 1.000003
0.003917 0.003505 1.000003
0.006952 0.003505 1.000003
0.686765 0.003505 1.000003
1.000003 0.003505 1.000003
1.000003 0.003505 1.000003
1.000003 0.003505 1.000003
1.000003 0.144558 1.000003
0.003663 0.003505 1.000003
0.003663 0.003505 1.000003
0.003721 0.003505 1.000003
0.005339 0.003505 1.000003
0.556640 0.003505 1.000003
1.000003 0.003505 1.000003
1.000003 0.003505 1.000003
1.000003 0.003505 1.000003
1.000003 0.158700 1.000003
0.003505 0.003505 1.000003
0.003505 0.003505 1.000003
0.003505 0.003505 1.000003
0.004250 0.003505 1.000003
0.322931 0.003505 1.000003
1.000003 0.003505 1.000003
1.000003 0.003505 1.000003
1.000003 0.003505 1.000003
1.000003 0.178941 1.000003
0.003505 0.003505 1.000003
0.003505 0.003505 1.000003
0.003505 0.003505 1.000003
0.003663 0.003505 1.000003
0.122553 0.003505 1.000003
1.000003 0.003505 1.000003
1.000003 0.003505 1.000003
1.000003 0.003721 1.000003
1.000003 0.218665 1.000003
0.003505 0.004176 1.000003
0.003505 0.004051 1.000003
0.003505 0.003936 1.000003
0.003505 0.003793 1.000003
0.005733 0.003505 1.000003
0.995044 0.003505 1.000003
1.000003 0.003505 1.000003
1.000003 0.038033 1.000003
1.000003 0.342842 1.000003
0.003505 0.873904 1.000003
0.003505 0.871964 1.000003
0.003505 0.866787 1.000003
0.003505 0.847731 1.000003
0.003505 0.744693 1.000003
0.761445 0.351838 1.000003
0.977591 0.295589 1.000003
1.000003 0.378304 1.000003
1.000003 0.706367 1.000003
0.003505 0.970831 1.000003
0.003505 0.970777 1.000003
0.003505 0.970012 1.000003
0.003505 0.966229 1.000003
0.003505 0.946399 1.000003
0.289413 0.922425 1.000003
0.943587 0.906881 1.000003
0.996763 0.898892 1.000003
1.000003 0.910088 1.000003
0.033605 0.989513 1.000003
0.033831 0.989532 1.000003
0.035037 0.989528 1.000003
0.040527 0.989441 1.000003
0.067254 0.989076 1.000003
0.278376 0.987976 1.000003
0.879948 0.985683 1.000003
0.987044 0.982484 1.000003
1.000003 0.980946 1.000003
0.648908 1.000003 1.000003
0.651932 1.000003 1.000003
0.656000 1.000003 1.000003
0.664576 1.000003 1.000003
0.689382 1.000003 1.000003
0.758794 1.000003 1.000003
0.880218 1.000003 1.000003
0.971475 1.000003 1.000003
1.000001 1.000003 1.000003
