luts/RED_709_C3R2.cube
# RED Digital Cinema Output Transform LUT for IPP2
# LUT Name = RWG_Log3G10 to REC709_BT1886 with LOW_CONTRAST and R_2_Medium size_33 v1.13
# Generated by version 1.13
# Settings used in creation of this LUT are:
# Development Color Space = REC709
# Output Gamma Curve = BT1886
# Output Tonemap = LOW_CONTRAST
# Highlight Rolloff = Rolloff 2 - medium
# Resolution = 33 x 33 x 33
TITLE "RED IPP2 LUT to map REDWideGamutRGB/Log3G10 to REC709/BT1886/LOW_CONTRAST/Rolloff 2 - medium"
LUT_3D_SIZE 5
0.000000 0.000000 0.000000
0.370655 0.018292 0.026890
0.939163 0.114959 0.162371
1.000003 0.669682 0.738774
1.000003 0.956857 0.965148
0.003505 0.350721 0.003990
0.291386 0.323642 0.003721
0.942526 0.217972 0.146272
1.000003 0.709571 0.761698
1.000003 0.963020 0.970092
0.005933 0.893685 0.044768
0.010023 0.891137 0.043488
0.834254 0.867631 0.039816
1.000003 0.836179 0.728585
1.000003 0.967414 0.971802
0.123569 0.993668 0.534636
0.125362 0.993466 0.528956
0.401467 0.992475 0.508969
0.979620 0.987607 0.568779
1.000003 0.981613 0.955089
0.808839 1.000003 0.909991
0.806128 1.000003 0.908677
0.814366 1.000003 0.905547
0.934864 1.000003 0.901142
1.000003 1.000003 0.916602
0.014864 0.004624 0.322964
0.363534 0.004418 0.319735
0.938281 0.100794 0.291136
1.000003 0.666728 0.745467
1.000003 0.956801 0.965206
0.003505 0.294534 0.284297
0.279661 0.279669 0.279691
0.941119 0.191072 0.266605
1.000003 0.705663 0.766128
1.000003 0.962702 0.969915
0.005649 0.890300 0.071250
0.009413 0.889920 0.069246
0.834187 0.865766 0.070364
1.000003 0.835269 0.732893
1.000003 0.967181 0.971649
0.120849 0.993451 0.536862
0.126204 0.993527 0.539014
0.402218 0.992533 0.521487
0.979754 0.987673 0.579247
1.000003 0.981628 0.954860
0.805625 1.000003 0.908785
0.807577 1.000003 0.909432
0.815607 1.000003 0.906348
0.935143 1.000003 0.902000
1.000003 1.000003 0.917312
0.048474 0.009486 0.872864
0.267289 0.008092 0.874539
0.905791 0.013209 0.864845
1.000003 0.539442 0.838054
1.000003 0.946316 0.960127
0.019007 0.045582 0.877549
0.140145 0.037673 0.876296
0.906106 0.034949 0.868832
1.000003 0.595513 0.847142
1.000003 0.953122 0.964911
0.003663 0.847529 0.835046
0.004141 0.846462 0.834729
0.822012 0.822024 0.822061
1.000003 0.800088 0.831629
1.000003 0.957758 0.965787
0.106354 0.992038 0.718501
0.111760 0.992127 0.718103
0.385779 0.991761 0.712415
0.979594 0.986571 0.744512
1.000003 0.980001 0.946058
0.797728 1.000003 0.911343
0.799773 1.000003 0.911842
0.817530 1.000003 0.912687
0.935491 1.000003 0.909728
1.000003 1.000003 0.923476
0.025321 0.004955 0.996774
0.053223 0.004729 0.997139
0.925238 0.004104 0.996492
0.998238 0.045272 0.989365
1.000003 0.901519 0.976679
0.014048 0.006219 0.998067
0.033381 0.005825 0.998039
0.922593 0.004624 0.997343
0.999013 0.056545 0.990940
1.000003 0.912976 0.979011
0.003505 0.681505 0.993954
0.003721 0.667878 0.993921
0.734687 0.533729 0.992348
0.996882 0.513206 0.989809
1.000003 0.920884 0.981861
0.038169 0.983394 0.980243
0.040962 0.983491 0.980369
0.220465 0.982671 0.979980
0.976758 0.976762 0.976775
1.000003 0.971583 0.975680
0.775868 1.000003 0.961962
0.778279 1.000003 0.961992
0.800532 1.000003 0.961915
0.932713 1.000003 0.960526
1.000003 1.000003 0.965658
0.003663 0.003505 1.000003
0.003721 0.003505 1.000003
0.952118 0.003505 1.000003
1.000003 0.003505 1.000003
1.000003 0.153056 1.000003
0.003505 0.003505 1.000003
0.003505 0.003505 1.000003
0.937121 0.003505 1.000003
1.000003 0.003505 1.000003
1.000003 0.173706 1.000003
0.003505 0.017762 1.000003
0.003505 0.014263 1.000003
0.022372 0.004544 1.000003
1.000003 0.020218 1.000003
1.000003 0.413850 1.000003
0.003505 0.976291 1.000003
0.003505 0.975909 1.000003
0.020578 0.963434 1.000003
0.965276 0.947280 1.000003
1.000003 0.945337 1.000003
0.650787 1.000003 1.000003
0.654934 1.000003 1.000003
0.700502 1.000003 1.000003
0.920853 1.000003 1.000003
1.000001 1.000003 1.000003
