luts/RED_709_C2R4.cube
# RED Digital Cinema Output Transform LUT for IPP2
# LUT Name = RWG_Log3G10 to REC709_BT1886 with MEDIUM_CONTRAST and R_4_VerySoft size_33 v1.13
# Generated by version 1.13
# Settings used in creation of this LUT are:
# Development Color Space = REC709
# Output Gamma Curve = BT1886
# Output Tonemap = MEDIUM_CONTRAST
# Highlight Rolloff = Rolloff 4 - very soft
# Resolution = 33 x 33 x 33
TITLE "RED IPP2 LUT to map REDWideGamutRGB/Log3G10 to REC709/BT1886/MEDIUM_CONTRAST/Rolloff 4 - very soft"
LUT_3D_SIZE 5
0.000000 0.000000 0.000000
0.324592 0.016750 0.024617
0.850878 0.115112 0.162556
1.000001 0.575519 0.630893
1.000001 0.883260 0.899456
0.003505 0.308427 0.003897
0.258980 0.286535 0.003721
0.856225 0.190449 0.150006
1.000001 0.601762 0.647869
1.000001 0.893407 0.908331
0.005907 0.785824 0.044467
0.008516 0.783223 0.043499
0.717847 0.754347 0.039565
1.000001 0.720267 0.622234
1.000001 0.903847 0.913388
0.123577 0.973141 0.478378
0.124675 0.972540 0.475207
0.382717 0.968999 0.461461
0.931760 0.953466 0.501740
1.000001 0.936845 0.879630
0.693616 1.000001 0.808690
0.691376 1.000001 0.807188
0.698929 1.000001 0.802732
0.845213 1.000001 0.796863
1.000001 1.000001 0.817947
0.013767 0.004544 0.286496
0.318844 0.004352 0.283626
0.849893 0.103930 0.262518
1.000001 0.574028 0.635403
1.000001 0.883281 0.899635
0.003505 0.266890 0.257527
0.248767 0.248774 0.248793
0.854539 0.171788 0.242687
1.000001 0.599452 0.651056
1.000001 0.892981 0.908092
0.005688 0.782426 0.063306
0.008166 0.782136 0.061981
0.717854 0.752762 0.061402
1.000001 0.719601 0.625075
1.000001 0.903535 0.913188
0.121322 0.972498 0.479125
0.125413 0.972733 0.480398
0.383259 0.969175 0.467875
0.932047 0.953641 0.507339
1.000001 0.936905 0.879380
0.691004 1.000001 0.807290
0.692559 1.000001 0.808035
0.699962 1.000001 0.803615
0.845584 1.000001 0.797788
1.000001 1.000001 0.818772
0.049170 0.009671 0.760669
0.208449 0.008468 0.762438
0.801847 0.013354 0.751365
1.000001 0.483569 0.722552
1.000001 0.864528 0.889475
0.023192 0.034570 0.765876
0.114955 0.029504 0.764710
0.802880 0.029042 0.755701
1.000001 0.515721 0.730869
1.000001 0.874731 0.897585
0.003663 0.731907 0.718661
0.003972 0.731085 0.718469
0.705294 0.705306 0.705343
1.000001 0.684276 0.715758
1.000001 0.884742 0.900581
0.106569 0.967530 0.611953
0.110702 0.967787 0.611700
0.370450 0.966610 0.607054
0.931698 0.950468 0.633902
1.000001 0.932746 0.863648
0.683050 1.000001 0.810500
0.684644 1.000001 0.811082
0.702038 1.000001 0.812347
0.846194 1.000001 0.808233
1.000001 1.000001 0.827749
0.025366 0.004960 0.985310
0.044802 0.004780 0.986647
0.829288 0.004104 0.984126
0.991566 0.045452 0.958953
1.000001 0.797783 0.924711
0.016068 0.005798 0.990271
0.030970 0.005540 0.990215
0.827513 0.004449 0.987407
0.994702 0.054224 0.963259
1.000001 0.810988 0.929504
0.003505 0.580415 0.974308
0.003721 0.572314 0.974270
0.624495 0.473158 0.968660
0.985691 0.459891 0.960280
1.000001 0.824007 0.937482
0.038206 0.941563 0.933331
0.040322 0.941795 0.933606
0.215921 0.939654 0.932675
0.924744 0.924754 0.924785
1.000001 0.912843 0.922190
0.662740 1.000001 0.892747
0.664531 1.000001 0.892797
0.685392 1.000001 0.892655
0.841828 1.000001 0.889928
1.000001 1.000001 0.900196
0.003663 0.003505 1.000001
0.003721 0.003505 1.000001
0.865419 0.003505 1.000001
1.000001 0.003505 1.000001
1.000001 0.153497 1.000001
0.003505 0.003505 1.000001
0.003663 0.003505 1.000001
0.843993 0.003505 1.000001
1.000001 0.003505 1.000001
1.000001 0.170273 1.000001
0.003505 0.015746 1.000001
0.003505 0.013139 1.000001
0.020691 0.004410 1.000001
1.000001 0.018736 1.000001
1.000001 0.393122 1.000001
0.003505 0.923630 1.000001
0.003505 0.923012 1.000001
0.019907 0.895799 1.000001
0.899412 0.865684 1.000001
1.000001 0.862352 1.000001
0.560499 1.000001 1.000001
0.563021 1.000001 1.000001
0.598376 1.000001 1.000001
0.824019 1.000001 1.000001
0.999994 1.000001 1.000001
